( [006][iot2][omni][maxon][misumi] )
( File created: Friday September 20 2024 - 05:44 PM)
( USBCNC Postprocessor )
( Material Size)
( X= 250.000, Y= 250.000, Z= 1.500)
()
(Toolpaths used in this file:)
(ŒŠ‚ ‚¯ 1)
(—ÖŠs 1)
(—ÖŠs 2)
(Tools used in this file: )
(2 = ƒGƒ“ƒhƒ~ƒ‹ {3 mm})
N120G00G21G17G90G40G49
N130G80
N140 (ƒGƒ“ƒhƒ~ƒ‹ {3 mm})
N150G00G43Z20.000H2
N160S3400M03
N170(Toolpath:- ŒŠ‚ ‚¯ 1)
N180()
N190G94
N200X0.000Y0.000F180.0
N210G00X-93.889Y-63.889Z6.000
N220G1Z-0.100F30.0
N230G00Z0.000
N240G1Z-0.200F30.0
N250G00Z0.000
N260G1Z-0.300F30.0
N270G00Z0.000
N280G1Z-0.400F30.0
N290G00Z0.000
N300G1Z-0.500F30.0
N310G00Z0.000
N320G1Z-0.600F30.0
N330G00Z0.000
N340G1Z-0.700F30.0
N350G00Z0.000
N360G1Z-0.800F30.0
N370G00Z0.000
N380G1Z-0.900F30.0
N390G00Z0.000
N400G1Z-1.000F30.0
N410G00Z0.000
N420G1Z-1.100F30.0
N430G00Z0.000
N440G1Z-1.200F30.0
N450G00Z0.000
N460G1Z-1.300F30.0
N470G00Z0.000
N480G1Z-1.400F30.0
N490G00Z0.000
N500G1Z-1.500F30.0
N510G00Z0.000
N520G1Z-1.600F30.0
N530G00Z0.000
N540G1Z-1.700F30.0
N550G00Z0.000
N560G1Z-1.800F30.0
N570G00Z0.000
N580G1Z-1.900F30.0
N590G00Z0.000
N600G1Z-2.000F30.0
N610G00Z6.000
N620G00X-90.000Y-60.000
N630G1Z-0.100F30.0
N640G00Z0.000
N650G1Z-0.200F30.0
N660G00Z0.000
N670G1Z-0.300F30.0
N680G00Z0.000
N690G1Z-0.400F30.0
N700G00Z0.000
N710G1Z-0.500F30.0
N720G00Z0.000
N730G1Z-0.600F30.0
N740G00Z0.000
N750G1Z-0.700F30.0
N760G00Z0.000
N770G1Z-0.800F30.0
N780G00Z0.000
N790G1Z-0.900F30.0
N800G00Z0.000
N810G1Z-1.000F30.0
N820G00Z0.000
N830G1Z-1.100F30.0
N840G00Z0.000
N850G1Z-1.200F30.0
N860G00Z0.000
N870G1Z-1.300F30.0
N880G00Z0.000
N890G1Z-1.400F30.0
N900G00Z0.000
N910G1Z-1.500F30.0
N920G00Z0.000
N930G1Z-1.600F30.0
N940G00Z0.000
N950G1Z-1.700F30.0
N960G00Z0.000
N970G1Z-1.800F30.0
N980G00Z0.000
N990G1Z-1.900F30.0
N1000G00Z0.000
N1010G1Z-2.000F30.0
N1020G00Z6.000
N1030G00X-93.889Y-56.111
N1040G1Z-0.100F30.0
N1050G00Z0.000
N1060G1Z-0.200F30.0
N1070G00Z0.000
N1080G1Z-0.300F30.0
N1090G00Z0.000
N1100G1Z-0.400F30.0
N1110G00Z0.000
N1120G1Z-0.500F30.0
N1130G00Z0.000
N1140G1Z-0.600F30.0
N1150G00Z0.000
N1160G1Z-0.700F30.0
N1170G00Z0.000
N1180G1Z-0.800F30.0
N1190G00Z0.000
N1200G1Z-0.900F30.0
N1210G00Z0.000
N1220G1Z-1.000F30.0
N1230G00Z0.000
N1240G1Z-1.100F30.0
N1250G00Z0.000
N1260G1Z-1.200F30.0
N1270G00Z0.000
N1280G1Z-1.300F30.0
N1290G00Z0.000
N1300G1Z-1.400F30.0
N1310G00Z0.000
N1320G1Z-1.500F30.0
N1330G00Z0.000
N1340G1Z-1.600F30.0
N1350G00Z0.000
N1360G1Z-1.700F30.0
N1370G00Z0.000
N1380G1Z-1.800F30.0
N1390G00Z0.000
N1400G1Z-1.900F30.0
N1410G00Z0.000
N1420G1Z-2.000F30.0
N1430G00Z6.000
N1440G00X-86.111
N1450G1Z-0.100F30.0
N1460G00Z0.000
N1470G1Z-0.200F30.0
N1480G00Z0.000
N1490G1Z-0.300F30.0
N1500G00Z0.000
N1510G1Z-0.400F30.0
N1520G00Z0.000
N1530G1Z-0.500F30.0
N1540G00Z0.000
N1550G1Z-0.600F30.0
N1560G00Z0.000
N1570G1Z-0.700F30.0
N1580G00Z0.000
N1590G1Z-0.800F30.0
N1600G00Z0.000
N1610G1Z-0.900F30.0
N1620G00Z0.000
N1630G1Z-1.000F30.0
N1640G00Z0.000
N1650G1Z-1.100F30.0
N1660G00Z0.000
N1670G1Z-1.200F30.0
N1680G00Z0.000
N1690G1Z-1.300F30.0
N1700G00Z0.000
N1710G1Z-1.400F30.0
N1720G00Z0.000
N1730G1Z-1.500F30.0
N1740G00Z0.000
N1750G1Z-1.600F30.0
N1760G00Z0.000
N1770G1Z-1.700F30.0
N1780G00Z0.000
N1790G1Z-1.800F30.0
N1800G00Z0.000
N1810G1Z-1.900F30.0
N1820G00Z0.000
N1830G1Z-2.000F30.0
N1840G00Z6.000
N1850G00Y-63.889
N1860G1Z-0.100F30.0
N1870G00Z0.000
N1880G1Z-0.200F30.0
N1890G00Z0.000
N1900G1Z-0.300F30.0
N1910G00Z0.000
N1920G1Z-0.400F30.0
N1930G00Z0.000
N1940G1Z-0.500F30.0
N1950G00Z0.000
N1960G1Z-0.600F30.0
N1970G00Z0.000
N1980G1Z-0.700F30.0
N1990G00Z0.000
N2000G1Z-0.800F30.0
N2010G00Z0.000
N2020G1Z-0.900F30.0
N2030G00Z0.000
N2040G1Z-1.000F30.0
N2050G00Z0.000
N2060G1Z-1.100F30.0
N2070G00Z0.000
N2080G1Z-1.200F30.0
N2090G00Z0.000
N2100G1Z-1.300F30.0
N2110G00Z0.000
N2120G1Z-1.400F30.0
N2130G00Z0.000
N2140G1Z-1.500F30.0
N2150G00Z0.000
N2160G1Z-1.600F30.0
N2170G00Z0.000
N2180G1Z-1.700F30.0
N2190G00Z0.000
N2200G1Z-1.800F30.0
N2210G00Z0.000
N2220G1Z-1.900F30.0
N2230G00Z0.000
N2240G1Z-2.000F30.0
N2250G00Z6.000
N2260G00X-33.889
N2270G1Z-0.100F30.0
N2280G00Z0.000
N2290G1Z-0.200F30.0
N2300G00Z0.000
N2310G1Z-0.300F30.0
N2320G00Z0.000
N2330G1Z-0.400F30.0
N2340G00Z0.000
N2350G1Z-0.500F30.0
N2360G00Z0.000
N2370G1Z-0.600F30.0
N2380G00Z0.000
N2390G1Z-0.700F30.0
N2400G00Z0.000
N2410G1Z-0.800F30.0
N2420G00Z0.000
N2430G1Z-0.900F30.0
N2440G00Z0.000
N2450G1Z-1.000F30.0
N2460G00Z0.000
N2470G1Z-1.100F30.0
N2480G00Z0.000
N2490G1Z-1.200F30.0
N2500G00Z0.000
N2510G1Z-1.300F30.0
N2520G00Z0.000
N2530G1Z-1.400F30.0
N2540G00Z0.000
N2550G1Z-1.500F30.0
N2560G00Z0.000
N2570G1Z-1.600F30.0
N2580G00Z0.000
N2590G1Z-1.700F30.0
N2600G00Z0.000
N2610G1Z-1.800F30.0
N2620G00Z0.000
N2630G1Z-1.900F30.0
N2640G00Z0.000
N2650G1Z-2.000F30.0
N2660G00Z6.000
N2670G00Y-56.111
N2680G1Z-0.100F30.0
N2690G00Z0.000
N2700G1Z-0.200F30.0
N2710G00Z0.000
N2720G1Z-0.300F30.0
N2730G00Z0.000
N2740G1Z-0.400F30.0
N2750G00Z0.000
N2760G1Z-0.500F30.0
N2770G00Z0.000
N2780G1Z-0.600F30.0
N2790G00Z0.000
N2800G1Z-0.700F30.0
N2810G00Z0.000
N2820G1Z-0.800F30.0
N2830G00Z0.000
N2840G1Z-0.900F30.0
N2850G00Z0.000
N2860G1Z-1.000F30.0
N2870G00Z0.000
N2880G1Z-1.100F30.0
N2890G00Z0.000
N2900G1Z-1.200F30.0
N2910G00Z0.000
N2920G1Z-1.300F30.0
N2930G00Z0.000
N2940G1Z-1.400F30.0
N2950G00Z0.000
N2960G1Z-1.500F30.0
N2970G00Z0.000
N2980G1Z-1.600F30.0
N2990G00Z0.000
N3000G1Z-1.700F30.0
N3010G00Z0.000
N3020G1Z-1.800F30.0
N3030G00Z0.000
N3040G1Z-1.900F30.0
N3050G00Z0.000
N3060G1Z-2.000F30.0
N3070G00Z6.000
N3080G00X-30.000Y-60.000
N3090G1Z-0.100F30.0
N3100G00Z0.000
N3110G1Z-0.200F30.0
N3120G00Z0.000
N3130G1Z-0.300F30.0
N3140G00Z0.000
N3150G1Z-0.400F30.0
N3160G00Z0.000
N3170G1Z-0.500F30.0
N3180G00Z0.000
N3190G1Z-0.600F30.0
N3200G00Z0.000
N3210G1Z-0.700F30.0
N3220G00Z0.000
N3230G1Z-0.800F30.0
N3240G00Z0.000
N3250G1Z-0.900F30.0
N3260G00Z0.000
N3270G1Z-1.000F30.0
N3280G00Z0.000
N3290G1Z-1.100F30.0
N3300G00Z0.000
N3310G1Z-1.200F30.0
N3320G00Z0.000
N3330G1Z-1.300F30.0
N3340G00Z0.000
N3350G1Z-1.400F30.0
N3360G00Z0.000
N3370G1Z-1.500F30.0
N3380G00Z0.000
N3390G1Z-1.600F30.0
N3400G00Z0.000
N3410G1Z-1.700F30.0
N3420G00Z0.000
N3430G1Z-1.800F30.0
N3440G00Z0.000
N3450G1Z-1.900F30.0
N3460G00Z0.000
N3470G1Z-2.000F30.0
N3480G00Z6.000
N3490G00X-26.111Y-63.889
N3500G1Z-0.100F30.0
N3510G00Z0.000
N3520G1Z-0.200F30.0
N3530G00Z0.000
N3540G1Z-0.300F30.0
N3550G00Z0.000
N3560G1Z-0.400F30.0
N3570G00Z0.000
N3580G1Z-0.500F30.0
N3590G00Z0.000
N3600G1Z-0.600F30.0
N3610G00Z0.000
N3620G1Z-0.700F30.0
N3630G00Z0.000
N3640G1Z-0.800F30.0
N3650G00Z0.000
N3660G1Z-0.900F30.0
N3670G00Z0.000
N3680G1Z-1.000F30.0
N3690G00Z0.000
N3700G1Z-1.100F30.0
N3710G00Z0.000
N3720G1Z-1.200F30.0
N3730G00Z0.000
N3740G1Z-1.300F30.0
N3750G00Z0.000
N3760G1Z-1.400F30.0
N3770G00Z0.000
N3780G1Z-1.500F30.0
N3790G00Z0.000
N3800G1Z-1.600F30.0
N3810G00Z0.000
N3820G1Z-1.700F30.0
N3830G00Z0.000
N3840G1Z-1.800F30.0
N3850G00Z0.000
N3860G1Z-1.900F30.0
N3870G00Z0.000
N3880G1Z-2.000F30.0
N3890G00Z6.000
N3900G00Y-56.111
N3910G1Z-0.100F30.0
N3920G00Z0.000
N3930G1Z-0.200F30.0
N3940G00Z0.000
N3950G1Z-0.300F30.0
N3960G00Z0.000
N3970G1Z-0.400F30.0
N3980G00Z0.000
N3990G1Z-0.500F30.0
N4000G00Z0.000
N4010G1Z-0.600F30.0
N4020G00Z0.000
N4030G1Z-0.700F30.0
N4040G00Z0.000
N4050G1Z-0.800F30.0
N4060G00Z0.000
N4070G1Z-0.900F30.0
N4080G00Z0.000
N4090G1Z-1.000F30.0
N4100G00Z0.000
N4110G1Z-1.100F30.0
N4120G00Z0.000
N4130G1Z-1.200F30.0
N4140G00Z0.000
N4150G1Z-1.300F30.0
N4160G00Z0.000
N4170G1Z-1.400F30.0
N4180G00Z0.000
N4190G1Z-1.500F30.0
N4200G00Z0.000
N4210G1Z-1.600F30.0
N4220G00Z0.000
N4230G1Z-1.700F30.0
N4240G00Z0.000
N4250G1Z-1.800F30.0
N4260G00Z0.000
N4270G1Z-1.900F30.0
N4280G00Z0.000
N4290G1Z-2.000F30.0
N4300G00Z6.000
N4310S3400M03
(—ÖŠs 1)
()
N4340G00X-23.794Y-49.551Z6.000
N4350G1Z-0.100F30.0
N4360G1X-25.404Y-51.161F180.0
N4370G3X-30.000Y-52.968I-0.707J-4.950
N4380G3X-34.596Y-51.161I-3.889J-3.142
N4390G1X-36.206Y-49.551
N4400G2X-31.868Y-47.992I6.206J-10.449
N4410G1X-30.536Y-47.859
N4420G1X-29.194Y-47.874
N4430G1X-27.865Y-48.036
N4440G2X-23.794Y-49.551I-2.135J-11.964
N4450G1Z-0.200F30.0
N4460G1X-25.404Y-51.161F180.0
N4470G3X-30.000Y-52.968I-0.707J-4.950
N4480G3X-34.596Y-51.161I-3.889J-3.142
N4490G1X-36.206Y-49.551
N4500G2X-31.868Y-47.992I6.206J-10.449
N4510G1X-30.536Y-47.859
N4520G1X-29.194Y-47.874
N4530G1X-27.865Y-48.036
N4540G2X-23.794Y-49.551I-2.135J-11.964
N4550G1Z-0.300F30.0
N4560G1X-25.404Y-51.161F180.0
N4570G3X-30.000Y-52.968I-0.707J-4.950
N4580G3X-34.596Y-51.161I-3.889J-3.142
N4590G1X-36.206Y-49.551
N4600G2X-31.868Y-47.992I6.206J-10.449
N4610G1X-30.536Y-47.859
N4620G1X-29.194Y-47.874
N4630G1X-27.865Y-48.036
N4640G2X-23.794Y-49.551I-2.135J-11.964
N4650G1Z-0.400F30.0
N4660G1X-25.404Y-51.161F180.0
N4670G3X-30.000Y-52.968I-0.707J-4.950
N4680G3X-34.596Y-51.161I-3.889J-3.142
N4690G1X-36.206Y-49.551
N4700G2X-31.868Y-47.992I6.206J-10.449
N4710G1X-30.536Y-47.859
N4720G1X-29.194Y-47.874
N4730G1X-27.865Y-48.036
N4740G2X-23.794Y-49.551I-2.135J-11.964
N4750G1Z-0.500F30.0
N4760G1X-25.404Y-51.161F180.0
N4770G3X-30.000Y-52.968I-0.707J-4.950
N4780G3X-34.596Y-51.161I-3.889J-3.142
N4790G1X-36.206Y-49.551
N4800G2X-31.868Y-47.992I6.206J-10.449
N4810G1X-30.536Y-47.859
N4820G1X-29.194Y-47.874
N4830G1X-27.865Y-48.036
N4840G2X-23.794Y-49.551I-2.135J-11.964
N4850G1Z-0.600F30.0
N4860G1X-25.404Y-51.161F180.0
N4870G3X-30.000Y-52.968I-0.707J-4.950
N4880G3X-34.596Y-51.161I-3.889J-3.142
N4890G1X-36.206Y-49.551
N4900G2X-31.868Y-47.992I6.206J-10.449
N4910G1X-30.536Y-47.859
N4920G1X-29.194Y-47.874
N4930G1X-27.865Y-48.036
N4940G2X-23.794Y-49.551I-2.135J-11.964
N4950G1Z-0.700F30.0
N4960G1X-25.404Y-51.161F180.0
N4970G3X-30.000Y-52.968I-0.707J-4.950
N4980G3X-34.596Y-51.161I-3.889J-3.142
N4990G1X-36.206Y-49.551
N5000G2X-31.868Y-47.992I6.206J-10.449
N5010G1X-30.536Y-47.859
N5020G1X-29.194Y-47.874
N5030G1X-27.865Y-48.036
N5040G2X-23.794Y-49.551I-2.135J-11.964
N5050G1Z-0.800F30.0
N5060G1X-25.404Y-51.161F180.0
N5070G3X-30.000Y-52.968I-0.707J-4.950
N5080G3X-34.596Y-51.161I-3.889J-3.142
N5090G1X-36.206Y-49.551
N5100G2X-31.868Y-47.992I6.206J-10.449
N5110G1X-30.536Y-47.859
N5120G1X-29.194Y-47.874
N5130G1X-27.865Y-48.036
N5140G2X-23.794Y-49.551I-2.135J-11.964
N5150G1Z-0.900F30.0
N5160G1X-25.404Y-51.161F180.0
N5170G3X-30.000Y-52.968I-0.707J-4.950
N5180G3X-34.596Y-51.161I-3.889J-3.142
N5190G1X-36.206Y-49.551
N5200G2X-31.868Y-47.992I6.206J-10.449
N5210G1X-30.536Y-47.859
N5220G1X-29.194Y-47.874
N5230G1X-27.865Y-48.036
N5240G2X-23.794Y-49.551I-2.135J-11.964
N5250G1Z-1.000F30.0
N5260G1X-25.404Y-51.161F180.0
N5270G3X-30.000Y-52.968I-0.707J-4.950
N5280G3X-34.596Y-51.161I-3.889J-3.142
N5290G1X-36.206Y-49.551
N5300G2X-31.868Y-47.992I6.206J-10.449
N5310G1X-30.536Y-47.859
N5320G1X-29.194Y-47.874
N5330G1X-27.865Y-48.036
N5340G2X-23.794Y-49.551I-2.135J-11.964
N5350G1Z-1.100F30.0
N5360G1X-25.404Y-51.161F180.0
N5370G3X-30.000Y-52.968I-0.707J-4.950
N5380G3X-34.596Y-51.161I-3.889J-3.142
N5390G1X-36.206Y-49.551
N5400G2X-31.868Y-47.992I6.206J-10.449
N5410G1X-30.536Y-47.859
N5420G1X-29.194Y-47.874
N5430G1X-27.865Y-48.036
N5440G2X-23.794Y-49.551I-2.135J-11.964
N5450G1Z-1.200F30.0
N5460G1X-25.404Y-51.161F180.0
N5470G3X-30.000Y-52.968I-0.707J-4.950
N5480G3X-34.596Y-51.161I-3.889J-3.142
N5490G1X-36.206Y-49.551
N5500G2X-31.868Y-47.992I6.206J-10.449
N5510G1X-30.536Y-47.859
N5520G1X-29.194Y-47.874
N5530G1X-27.865Y-48.036
N5540G2X-23.794Y-49.551I-2.135J-11.964
N5550G1Z-1.300F30.0
N5560G1X-25.404Y-51.161F180.0
N5570G3X-30.000Y-52.968I-0.707J-4.950
N5580G3X-34.596Y-51.161I-3.889J-3.142
N5590G1X-36.206Y-49.551
N5600G2X-31.868Y-47.992I6.206J-10.449
N5610G1X-30.536Y-47.859
N5620G1X-29.194Y-47.874
N5630G1X-27.865Y-48.036
N5640G2X-23.794Y-49.551I-2.135J-11.964
N5650G1Z-1.400F30.0
N5660G1X-25.404Y-51.161F180.0
N5670G3X-30.000Y-52.968I-0.707J-4.950
N5680G3X-34.596Y-51.161I-3.889J-3.142
N5690G1X-36.206Y-49.551
N5700G2X-31.868Y-47.992I6.206J-10.449
N5710G1X-30.536Y-47.859
N5720G1X-29.194Y-47.874
N5730G1X-27.865Y-48.036
N5740G2X-23.794Y-49.551I-2.135J-11.964
N5750G1Z-1.500F30.0
N5760G1X-25.404Y-51.161F180.0
N5770G3X-30.000Y-52.968I-0.707J-4.950
N5780G3X-34.596Y-51.161I-3.889J-3.142
N5790G1X-36.206Y-49.551
N5800G2X-31.868Y-47.992I6.206J-10.449
N5810G1X-30.536Y-47.859
N5820G1X-29.194Y-47.874
N5830G1X-27.865Y-48.036
N5840G2X-23.794Y-49.551I-2.135J-11.964
N5850G1Z-1.600F30.0
N5860G1X-25.404Y-51.161F180.0
N5870G3X-30.000Y-52.968I-0.707J-4.950
N5880G3X-34.596Y-51.161I-3.889J-3.142
N5890G1X-36.206Y-49.551
N5900G2X-31.868Y-47.992I6.206J-10.449
N5910G1Z-1.500
N5920G1X-30.536Y-47.859
N5930G1X-29.194Y-47.874
N5940G1X-27.865Y-48.036
N5950G1Z-1.600F30.0
N5960G2X-23.794Y-49.551I-2.135J-11.964F180.0
N5970G1Z-1.700F30.0
N5980G1X-25.404Y-51.161F180.0
N5990G3X-30.000Y-52.968I-0.707J-4.950
N6000G3X-34.596Y-51.161I-3.889J-3.142
N6010G1X-36.206Y-49.551
N6020G2X-31.868Y-47.992I6.206J-10.449
N6030G1Z-1.500
N6040G1X-30.536Y-47.859
N6050G1X-29.194Y-47.874
N6060G1X-27.865Y-48.036
N6070G1Z-1.700F30.0
N6080G2X-23.794Y-49.551I-2.135J-11.964F180.0
N6090G1Z-1.800F30.0
N6100G1X-25.404Y-51.161F180.0
N6110G3X-30.000Y-52.968I-0.707J-4.950
N6120G3X-34.596Y-51.161I-3.889J-3.142
N6130G1X-36.206Y-49.551
N6140G2X-31.868Y-47.992I6.206J-10.449
N6150G1Z-1.500
N6160G1X-30.536Y-47.859
N6170G1X-29.194Y-47.874
N6180G1X-27.865Y-48.036
N6190G1Z-1.800F30.0
N6200G2X-23.794Y-49.551I-2.135J-11.964F180.0
N6210G1Z-1.900F30.0
N6220G1X-25.404Y-51.161F180.0
N6230G3X-30.000Y-52.968I-0.707J-4.950
N6240G3X-34.596Y-51.161I-3.889J-3.142
N6250G1X-36.206Y-49.551
N6260G2X-31.868Y-47.992I6.206J-10.449
N6270G1Z-1.500
N6280G1X-30.536Y-47.859
N6290G1X-29.194Y-47.874
N6300G1X-27.865Y-48.036
N6310G1Z-1.900F30.0
N6320G2X-23.794Y-49.551I-2.135J-11.964F180.0
N6330G1Z-2.000F30.0
N6340G1X-25.404Y-51.161F180.0
N6350G3X-30.000Y-52.968I-0.707J-4.950
N6360G3X-34.596Y-51.161I-3.889J-3.142
N6370G1X-36.206Y-49.551
N6380G2X-31.868Y-47.992I6.206J-10.449
N6390G1Z-1.500
N6400G1X-30.536Y-47.859
N6410G1X-29.194Y-47.874
N6420G1X-27.865Y-48.036
N6430G1Z-2.000F30.0
N6440G2X-23.794Y-49.551I-2.135J-11.964F180.0
N6450G00Z6.000
N6460G00X-19.551Y-53.794
N6470G1Z-0.100F30.0
N6480G2X-17.919Y-58.678I-10.449J-6.206F180.0
N6490G1X-17.847Y-60.015
N6500G1X-17.923Y-61.355
N6510G1X-18.145Y-62.674
N6520G2X-19.551Y-66.206I-11.855J2.674
N6530G1X-21.161Y-64.596
N6540G3X-22.968Y-60.000I-4.950J0.707
N6550G3X-21.161Y-55.404I-3.142J3.889
N6560G1X-19.551Y-53.794
N6570G1Z-0.200F30.0
N6580G2X-17.919Y-58.678I-10.449J-6.206F180.0
N6590G1X-17.847Y-60.015
N6600G1X-17.923Y-61.355
N6610G1X-18.145Y-62.674
N6620G2X-19.551Y-66.206I-11.855J2.674
N6630G1X-21.161Y-64.596
N6640G3X-22.968Y-60.000I-4.950J0.707
N6650G3X-21.161Y-55.404I-3.142J3.889
N6660G1X-19.551Y-53.794
N6670G1Z-0.300F30.0
N6680G2X-17.919Y-58.678I-10.449J-6.206F180.0
N6690G1X-17.847Y-60.015
N6700G1X-17.923Y-61.355
N6710G1X-18.145Y-62.674
N6720G2X-19.551Y-66.206I-11.855J2.674
N6730G1X-21.161Y-64.596
N6740G3X-22.968Y-60.000I-4.950J0.707
N6750G3X-21.161Y-55.404I-3.142J3.889
N6760G1X-19.551Y-53.794
N6770G1Z-0.400F30.0
N6780G2X-17.919Y-58.678I-10.449J-6.206F180.0
N6790G1X-17.847Y-60.015
N6800G1X-17.923Y-61.355
N6810G1X-18.145Y-62.674
N6820G2X-19.551Y-66.206I-11.855J2.674
N6830G1X-21.161Y-64.596
N6840G3X-22.968Y-60.000I-4.950J0.707
N6850G3X-21.161Y-55.404I-3.142J3.889
N6860G1X-19.551Y-53.794
N6870G1Z-0.500F30.0
N6880G2X-17.919Y-58.678I-10.449J-6.206F180.0
N6890G1X-17.847Y-60.015
N6900G1X-17.923Y-61.355
N6910G1X-18.145Y-62.674
N6920G2X-19.551Y-66.206I-11.855J2.674
N6930G1X-21.161Y-64.596
N6940G3X-22.968Y-60.000I-4.950J0.707
N6950G3X-21.161Y-55.404I-3.142J3.889
N6960G1X-19.551Y-53.794
N6970G1Z-0.600F30.0
N6980G2X-17.919Y-58.678I-10.449J-6.206F180.0
N6990G1X-17.847Y-60.015
N7000G1X-17.923Y-61.355
N7010G1X-18.145Y-62.674
N7020G2X-19.551Y-66.206I-11.855J2.674
N7030G1X-21.161Y-64.596
N7040G3X-22.968Y-60.000I-4.950J0.707
N7050G3X-21.161Y-55.404I-3.142J3.889
N7060G1X-19.551Y-53.794
N7070G1Z-0.700F30.0
N7080G2X-17.919Y-58.678I-10.449J-6.206F180.0
N7090G1X-17.847Y-60.015
N7100G1X-17.923Y-61.355
N7110G1X-18.145Y-62.674
N7120G2X-19.551Y-66.206I-11.855J2.674
N7130G1X-21.161Y-64.596
N7140G3X-22.968Y-60.000I-4.950J0.707
N7150G3X-21.161Y-55.404I-3.142J3.889
N7160G1X-19.551Y-53.794
N7170G1Z-0.800F30.0
N7180G2X-17.919Y-58.678I-10.449J-6.206F180.0
N7190G1X-17.847Y-60.015
N7200G1X-17.923Y-61.355
N7210G1X-18.145Y-62.674
N7220G2X-19.551Y-66.206I-11.855J2.674
N7230G1X-21.161Y-64.596
N7240G3X-22.968Y-60.000I-4.950J0.707
N7250G3X-21.161Y-55.404I-3.142J3.889
N7260G1X-19.551Y-53.794
N7270G1Z-0.900F30.0
N7280G2X-17.919Y-58.678I-10.449J-6.206F180.0
N7290G1X-17.847Y-60.015
N7300G1X-17.923Y-61.355
N7310G1X-18.145Y-62.674
N7320G2X-19.551Y-66.206I-11.855J2.674
N7330G1X-21.161Y-64.596
N7340G3X-22.968Y-60.000I-4.950J0.707
N7350G3X-21.161Y-55.404I-3.142J3.889
N7360G1X-19.551Y-53.794
N7370G1Z-1.000F30.0
N7380G2X-17.919Y-58.678I-10.449J-6.206F180.0
N7390G1X-17.847Y-60.015
N7400G1X-17.923Y-61.355
N7410G1X-18.145Y-62.674
N7420G2X-19.551Y-66.206I-11.855J2.674
N7430G1X-21.161Y-64.596
N7440G3X-22.968Y-60.000I-4.950J0.707
N7450G3X-21.161Y-55.404I-3.142J3.889
N7460G1X-19.551Y-53.794
N7470G1Z-1.100F30.0
N7480G2X-17.919Y-58.678I-10.449J-6.206F180.0
N7490G1X-17.847Y-60.015
N7500G1X-17.923Y-61.355
N7510G1X-18.145Y-62.674
N7520G2X-19.551Y-66.206I-11.855J2.674
N7530G1X-21.161Y-64.596
N7540G3X-22.968Y-60.000I-4.950J0.707
N7550G3X-21.161Y-55.404I-3.142J3.889
N7560G1X-19.551Y-53.794
N7570G1Z-1.200F30.0
N7580G2X-17.919Y-58.678I-10.449J-6.206F180.0
N7590G1X-17.847Y-60.015
N7600G1X-17.923Y-61.355
N7610G1X-18.145Y-62.674
N7620G2X-19.551Y-66.206I-11.855J2.674
N7630G1X-21.161Y-64.596
N7640G3X-22.968Y-60.000I-4.950J0.707
N7650G3X-21.161Y-55.404I-3.142J3.889
N7660G1X-19.551Y-53.794
N7670G1Z-1.300F30.0
N7680G2X-17.919Y-58.678I-10.449J-6.206F180.0
N7690G1X-17.847Y-60.015
N7700G1X-17.923Y-61.355
N7710G1X-18.145Y-62.674
N7720G2X-19.551Y-66.206I-11.855J2.674
N7730G1X-21.161Y-64.596
N7740G3X-22.968Y-60.000I-4.950J0.707
N7750G3X-21.161Y-55.404I-3.142J3.889
N7760G1X-19.551Y-53.794
N7770G1Z-1.400F30.0
N7780G2X-17.919Y-58.678I-10.449J-6.206F180.0
N7790G1X-17.847Y-60.015
N7800G1X-17.923Y-61.355
N7810G1X-18.145Y-62.674
N7820G2X-19.551Y-66.206I-11.855J2.674
N7830G1X-21.161Y-64.596
N7840G3X-22.968Y-60.000I-4.950J0.707
N7850G3X-21.161Y-55.404I-3.142J3.889
N7860G1X-19.551Y-53.794
N7870G1Z-1.500F30.0
N7880G2X-17.919Y-58.678I-10.449J-6.206F180.0
N7890G1X-17.847Y-60.015
N7900G1X-17.923Y-61.355
N7910G1X-18.145Y-62.674
N7920G2X-19.551Y-66.206I-11.855J2.674
N7930G1X-21.161Y-64.596
N7940G3X-22.968Y-60.000I-4.950J0.707
N7950G3X-21.161Y-55.404I-3.142J3.889
N7960G1X-19.551Y-53.794
N7970G1Z-1.600F30.0
N7980G2X-17.919Y-58.678I-10.449J-6.206F180.0
N7990G1Z-1.500
N8000G1X-17.847Y-60.015
N8010G1X-17.923Y-61.355
N8020G1X-18.145Y-62.674
N8030G1Z-1.600F30.0
N8040G2X-19.551Y-66.206I-11.855J2.674F180.0
N8050G1X-21.161Y-64.596
N8060G3X-22.968Y-60.000I-4.950J0.707
N8070G3X-21.161Y-55.404I-3.142J3.889
N8080G1X-19.551Y-53.794
N8090G1Z-1.700F30.0
N8100G2X-17.919Y-58.678I-10.449J-6.206F180.0
N8110G1Z-1.500
N8120G1X-17.847Y-60.015
N8130G1X-17.923Y-61.355
N8140G1X-18.145Y-62.674
N8150G1Z-1.700F30.0
N8160G2X-19.551Y-66.206I-11.855J2.674F180.0
N8170G1X-21.161Y-64.596
N8180G3X-22.968Y-60.000I-4.950J0.707
N8190G3X-21.161Y-55.404I-3.142J3.889
N8200G1X-19.551Y-53.794
N8210G1Z-1.800F30.0
N8220G2X-17.919Y-58.678I-10.449J-6.206F180.0
N8230G1Z-1.500
N8240G1X-17.847Y-60.015
N8250G1X-17.923Y-61.355
N8260G1X-18.145Y-62.674
N8270G1Z-1.800F30.0
N8280G2X-19.551Y-66.206I-11.855J2.674F180.0
N8290G1X-21.161Y-64.596
N8300G3X-22.968Y-60.000I-4.950J0.707
N8310G3X-21.161Y-55.404I-3.142J3.889
N8320G1X-19.551Y-53.794
N8330G1Z-1.900F30.0
N8340G2X-17.919Y-58.678I-10.449J-6.206F180.0
N8350G1Z-1.500
N8360G1X-17.847Y-60.015
N8370G1X-17.923Y-61.355
N8380G1X-18.145Y-62.674
N8390G1Z-1.900F30.0
N8400G2X-19.551Y-66.206I-11.855J2.674F180.0
N8410G1X-21.161Y-64.596
N8420G3X-22.968Y-60.000I-4.950J0.707
N8430G3X-21.161Y-55.404I-3.142J3.889
N8440G1X-19.551Y-53.794
N8450G1Z-2.000F30.0
N8460G2X-17.919Y-58.678I-10.449J-6.206F180.0
N8470G1Z-1.500
N8480G1X-17.847Y-60.015
N8490G1X-17.923Y-61.355
N8500G1X-18.145Y-62.674
N8510G1Z-2.000F30.0
N8520G2X-19.551Y-66.206I-11.855J2.674F180.0
N8530G1X-21.161Y-64.596
N8540G3X-22.968Y-60.000I-4.950J0.707
N8550G3X-21.161Y-55.404I-3.142J3.889
N8560G1X-19.551Y-53.794
N8570G00Z6.000
N8580G00X-25.439Y-68.844
N8590G1Z-0.100F30.0
N8600G1X-23.794Y-70.449F180.0
N8610G2X-27.941Y-71.977I-6.206J10.449
N8620G1X-29.271Y-72.131
N8630G1X-30.614Y-72.137
N8640G1X-31.945Y-71.996
N8650G2X-36.206Y-70.449I1.945J11.996
N8660G1X-34.596Y-68.839
N8670G3X-30.000Y-67.032I0.707J4.950
N8680G3X-25.439Y-68.844I3.889J3.142
N8690G1Z-0.200F30.0
N8700G1X-23.794Y-70.449F180.0
N8710G2X-27.941Y-71.977I-6.206J10.449
N8720G1X-29.271Y-72.131
N8730G1X-30.614Y-72.137
N8740G1X-31.945Y-71.996
N8750G2X-36.206Y-70.449I1.945J11.996
N8760G1X-34.596Y-68.839
N8770G3X-30.000Y-67.032I0.707J4.950
N8780G3X-25.439Y-68.844I3.889J3.142
N8790G1Z-0.300F30.0
N8800G1X-23.794Y-70.449F180.0
N8810G2X-27.941Y-71.977I-6.206J10.449
N8820G1X-29.271Y-72.131
N8830G1X-30.614Y-72.137
N8840G1X-31.945Y-71.996
N8850G2X-36.206Y-70.449I1.945J11.996
N8860G1X-34.596Y-68.839
N8870G3X-30.000Y-67.032I0.707J4.950
N8880G3X-25.439Y-68.844I3.889J3.142
N8890G1Z-0.400F30.0
N8900G1X-23.794Y-70.449F180.0
N8910G2X-27.941Y-71.977I-6.206J10.449
N8920G1X-29.271Y-72.131
N8930G1X-30.614Y-72.137
N8940G1X-31.945Y-71.996
N8950G2X-36.206Y-70.449I1.945J11.996
N8960G1X-34.596Y-68.839
N8970G3X-30.000Y-67.032I0.707J4.950
N8980G3X-25.439Y-68.844I3.889J3.142
N8990G1Z-0.500F30.0
N9000G1X-23.794Y-70.449F180.0
N9010G2X-27.941Y-71.977I-6.206J10.449
N9020G1X-29.271Y-72.131
N9030G1X-30.614Y-72.137
N9040G1X-31.945Y-71.996
N9050G2X-36.206Y-70.449I1.945J11.996
N9060G1X-34.596Y-68.839
N9070G3X-30.000Y-67.032I0.707J4.950
N9080G3X-25.439Y-68.844I3.889J3.142
N9090G1Z-0.600F30.0
N9100G1X-23.794Y-70.449F180.0
N9110G2X-27.941Y-71.977I-6.206J10.449
N9120G1X-29.271Y-72.131
N9130G1X-30.614Y-72.137
N9140G1X-31.945Y-71.996
N9150G2X-36.206Y-70.449I1.945J11.996
N9160G1X-34.596Y-68.839
N9170G3X-30.000Y-67.032I0.707J4.950
N9180G3X-25.439Y-68.844I3.889J3.142
N9190G1Z-0.700F30.0
N9200G1X-23.794Y-70.449F180.0
N9210G2X-27.941Y-71.977I-6.206J10.449
N9220G1X-29.271Y-72.131
N9230G1X-30.614Y-72.137
N9240G1X-31.945Y-71.996
N9250G2X-36.206Y-70.449I1.945J11.996
N9260G1X-34.596Y-68.839
N9270G3X-30.000Y-67.032I0.707J4.950
N9280G3X-25.439Y-68.844I3.889J3.142
N9290G1Z-0.800F30.0
N9300G1X-23.794Y-70.449F180.0
N9310G2X-27.941Y-71.977I-6.206J10.449
N9320G1X-29.271Y-72.131
N9330G1X-30.614Y-72.137
N9340G1X-31.945Y-71.996
N9350G2X-36.206Y-70.449I1.945J11.996
N9360G1X-34.596Y-68.839
N9370G3X-30.000Y-67.032I0.707J4.950
N9380G3X-25.439Y-68.844I3.889J3.142
N9390G1Z-0.900F30.0
N9400G1X-23.794Y-70.449F180.0
N9410G2X-27.941Y-71.977I-6.206J10.449
N9420G1X-29.271Y-72.131
N9430G1X-30.614Y-72.137
N9440G1X-31.945Y-71.996
N9450G2X-36.206Y-70.449I1.945J11.996
N9460G1X-34.596Y-68.839
N9470G3X-30.000Y-67.032I0.707J4.950
N9480G3X-25.439Y-68.844I3.889J3.142
N9490G1Z-1.000F30.0
N9500G1X-23.794Y-70.449F180.0
N9510G2X-27.941Y-71.977I-6.206J10.449
N9520G1X-29.271Y-72.131
N9530G1X-30.614Y-72.137
N9540G1X-31.945Y-71.996
N9550G2X-36.206Y-70.449I1.945J11.996
N9560G1X-34.596Y-68.839
N9570G3X-30.000Y-67.032I0.707J4.950
N9580G3X-25.439Y-68.844I3.889J3.142
N9590G1Z-1.100F30.0
N9600G1X-23.794Y-70.449F180.0
N9610G2X-27.941Y-71.977I-6.206J10.449
N9620G1X-29.271Y-72.131
N9630G1X-30.614Y-72.137
N9640G1X-31.945Y-71.996
N9650G2X-36.206Y-70.449I1.945J11.996
N9660G1X-34.596Y-68.839
N9670G3X-30.000Y-67.032I0.707J4.950
N9680G3X-25.439Y-68.844I3.889J3.142
N9690G1Z-1.200F30.0
N9700G1X-23.794Y-70.449F180.0
N9710G2X-27.941Y-71.977I-6.206J10.449
N9720G1X-29.271Y-72.131
N9730G1X-30.614Y-72.137
N9740G1X-31.945Y-71.996
N9750G2X-36.206Y-70.449I1.945J11.996
N9760G1X-34.596Y-68.839
N9770G3X-30.000Y-67.032I0.707J4.950
N9780G3X-25.439Y-68.844I3.889J3.142
N9790G1Z-1.300F30.0
N9800G1X-23.794Y-70.449F180.0
N9810G2X-27.941Y-71.977I-6.206J10.449
N9820G1X-29.271Y-72.131
N9830G1X-30.614Y-72.137
N9840G1X-31.945Y-71.996
N9850G2X-36.206Y-70.449I1.945J11.996
N9860G1X-34.596Y-68.839
N9870G3X-30.000Y-67.032I0.707J4.950
N9880G3X-25.439Y-68.844I3.889J3.142
N9890G1Z-1.400F30.0
N9900G1X-23.794Y-70.449F180.0
N9910G2X-27.941Y-71.977I-6.206J10.449
N9920G1X-29.271Y-72.131
N9930G1X-30.614Y-72.137
N9940G1X-31.945Y-71.996
N9950G2X-36.206Y-70.449I1.945J11.996
N9960G1X-34.596Y-68.839
N9970G3X-30.000Y-67.032I0.707J4.950
N9980G3X-25.439Y-68.844I3.889J3.142
N9990G1Z-1.500F30.0
N10000G1X-23.794Y-70.449F180.0
N10010G2X-27.941Y-71.977I-6.206J10.449
N10020G1X-29.271Y-72.131
N10030G1X-30.614Y-72.137
N10040G1X-31.945Y-71.996
N10050G2X-36.206Y-70.449I1.945J11.996
N10060G1X-34.596Y-68.839
N10070G3X-30.000Y-67.032I0.707J4.950
N10080G3X-25.439Y-68.844I3.889J3.142
N10090G1Z-1.600F30.0
N10100G1X-23.794Y-70.449F180.0
N10110G2X-27.941Y-71.977I-6.206J10.449
N10120G1Z-1.500
N10130G1X-29.271Y-72.131
N10140G1X-30.614Y-72.137
N10150G1X-31.945Y-71.996
N10160G1Z-1.600F30.0
N10170G2X-36.206Y-70.449I1.945J11.996F180.0
N10180G1X-34.596Y-68.839
N10190G3X-30.000Y-67.032I0.707J4.950
N10200G3X-25.439Y-68.844I3.889J3.142
N10210G1Z-1.700F30.0
N10220G1X-23.794Y-70.449F180.0
N10230G2X-27.941Y-71.977I-6.206J10.449
N10240G1Z-1.500
N10250G1X-29.271Y-72.131
N10260G1X-30.614Y-72.137
N10270G1X-31.945Y-71.996
N10280G1Z-1.700F30.0
N10290G2X-36.206Y-70.449I1.945J11.996F180.0
N10300G1X-34.596Y-68.839
N10310G3X-30.000Y-67.032I0.707J4.950
N10320G3X-25.439Y-68.844I3.889J3.142
N10330G1Z-1.800F30.0
N10340G1X-23.794Y-70.449F180.0
N10350G2X-27.941Y-71.977I-6.206J10.449
N10360G1Z-1.500
N10370G1X-29.271Y-72.131
N10380G1X-30.614Y-72.137
N10390G1X-31.945Y-71.996
N10400G1Z-1.800F30.0
N10410G2X-36.206Y-70.449I1.945J11.996F180.0
N10420G1X-34.596Y-68.839
N10430G3X-30.000Y-67.032I0.707J4.950
N10440G3X-25.439Y-68.844I3.889J3.142
N10450G1Z-1.900F30.0
N10460G1X-23.794Y-70.449F180.0
N10470G2X-27.941Y-71.977I-6.206J10.449
N10480G1Z-1.500
N10490G1X-29.271Y-72.131
N10500G1X-30.614Y-72.137
N10510G1X-31.945Y-71.996
N10520G1Z-1.900F30.0
N10530G2X-36.206Y-70.449I1.945J11.996F180.0
N10540G1X-34.596Y-68.839
N10550G3X-30.000Y-67.032I0.707J4.950
N10560G3X-25.439Y-68.844I3.889J3.142
N10570G1Z-2.000F30.0
N10580G1X-23.794Y-70.449F180.0
N10590G2X-27.941Y-71.977I-6.206J10.449
N10600G1Z-1.500
N10610G1X-29.271Y-72.131
N10620G1X-30.614Y-72.137
N10630G1X-31.945Y-71.996
N10640G1Z-2.000F30.0
N10650G2X-36.206Y-70.449I1.945J11.996F180.0
N10660G1X-34.596Y-68.839
N10670G3X-30.000Y-67.032I0.707J4.950
N10680G3X-25.439Y-68.844I3.889J3.142
N10690G00Z6.000
N10700G00X-38.839Y-64.596
N10710G1Z-0.100F30.0
N10720G1X-40.449Y-66.206F180.0
N10730G2X-41.951Y-62.203I10.449J6.206
N10740G1X-42.121Y-60.875
N10750G1X-42.144Y-59.532
N10760G1X-42.019Y-58.200
N10770G2X-40.449Y-53.794I12.019J-1.800
N10780G1X-38.839Y-55.404
N10790G3X-37.032Y-60.000I4.950J-0.707
N10800G3X-38.839Y-64.596I3.142J-3.889
N10810G1Z-0.200F30.0
N10820G1X-40.449Y-66.206F180.0
N10830G2X-41.951Y-62.203I10.449J6.206
N10840G1X-42.121Y-60.875
N10850G1X-42.144Y-59.532
N10860G1X-42.019Y-58.200
N10870G2X-40.449Y-53.794I12.019J-1.800
N10880G1X-38.839Y-55.404
N10890G3X-37.032Y-60.000I4.950J-0.707
N10900G3X-38.839Y-64.596I3.142J-3.889
N10910G1Z-0.300F30.0
N10920G1X-40.449Y-66.206F180.0
N10930G2X-41.951Y-62.203I10.449J6.206
N10940G1X-42.121Y-60.875
N10950G1X-42.144Y-59.532
N10960G1X-42.019Y-58.200
N10970G2X-40.449Y-53.794I12.019J-1.800
N10980G1X-38.839Y-55.404
N10990G3X-37.032Y-60.000I4.950J-0.707
N11000G3X-38.839Y-64.596I3.142J-3.889
N11010G1Z-0.400F30.0
N11020G1X-40.449Y-66.206F180.0
N11030G2X-41.951Y-62.203I10.449J6.206
N11040G1X-42.121Y-60.875
N11050G1X-42.144Y-59.532
N11060G1X-42.019Y-58.200
N11070G2X-40.449Y-53.794I12.019J-1.800
N11080G1X-38.839Y-55.404
N11090G3X-37.032Y-60.000I4.950J-0.707
N11100G3X-38.839Y-64.596I3.142J-3.889
N11110G1Z-0.500F30.0
N11120G1X-40.449Y-66.206F180.0
N11130G2X-41.951Y-62.203I10.449J6.206
N11140G1X-42.121Y-60.875
N11150G1X-42.144Y-59.532
N11160G1X-42.019Y-58.200
N11170G2X-40.449Y-53.794I12.019J-1.800
N11180G1X-38.839Y-55.404
N11190G3X-37.032Y-60.000I4.950J-0.707
N11200G3X-38.839Y-64.596I3.142J-3.889
N11210G1Z-0.600F30.0
N11220G1X-40.449Y-66.206F180.0
N11230G2X-41.951Y-62.203I10.449J6.206
N11240G1X-42.121Y-60.875
N11250G1X-42.144Y-59.532
N11260G1X-42.019Y-58.200
N11270G2X-40.449Y-53.794I12.019J-1.800
N11280G1X-38.839Y-55.404
N11290G3X-37.032Y-60.000I4.950J-0.707
N11300G3X-38.839Y-64.596I3.142J-3.889
N11310G1Z-0.700F30.0
N11320G1X-40.449Y-66.206F180.0
N11330G2X-41.951Y-62.203I10.449J6.206
N11340G1X-42.121Y-60.875
N11350G1X-42.144Y-59.532
N11360G1X-42.019Y-58.200
N11370G2X-40.449Y-53.794I12.019J-1.800
N11380G1X-38.839Y-55.404
N11390G3X-37.032Y-60.000I4.950J-0.707
N11400G3X-38.839Y-64.596I3.142J-3.889
N11410G1Z-0.800F30.0
N11420G1X-40.449Y-66.206F180.0
N11430G2X-41.951Y-62.203I10.449J6.206
N11440G1X-42.121Y-60.875
N11450G1X-42.144Y-59.532
N11460G1X-42.019Y-58.200
N11470G2X-40.449Y-53.794I12.019J-1.800
N11480G1X-38.839Y-55.404
N11490G3X-37.032Y-60.000I4.950J-0.707
N11500G3X-38.839Y-64.596I3.142J-3.889
N11510G1Z-0.900F30.0
N11520G1X-40.449Y-66.206F180.0
N11530G2X-41.951Y-62.203I10.449J6.206
N11540G1X-42.121Y-60.875
N11550G1X-42.144Y-59.532
N11560G1X-42.019Y-58.200
N11570G2X-40.449Y-53.794I12.019J-1.800
N11580G1X-38.839Y-55.404
N11590G3X-37.032Y-60.000I4.950J-0.707
N11600G3X-38.839Y-64.596I3.142J-3.889
N11610G1Z-1.000F30.0
N11620G1X-40.449Y-66.206F180.0
N11630G2X-41.951Y-62.203I10.449J6.206
N11640G1X-42.121Y-60.875
N11650G1X-42.144Y-59.532
N11660G1X-42.019Y-58.200
N11670G2X-40.449Y-53.794I12.019J-1.800
N11680G1X-38.839Y-55.404
N11690G3X-37.032Y-60.000I4.950J-0.707
N11700G3X-38.839Y-64.596I3.142J-3.889
N11710G1Z-1.100F30.0
N11720G1X-40.449Y-66.206F180.0
N11730G2X-41.951Y-62.203I10.449J6.206
N11740G1X-42.121Y-60.875
N11750G1X-42.144Y-59.532
N11760G1X-42.019Y-58.200
N11770G2X-40.449Y-53.794I12.019J-1.800
N11780G1X-38.839Y-55.404
N11790G3X-37.032Y-60.000I4.950J-0.707
N11800G3X-38.839Y-64.596I3.142J-3.889
N11810G1Z-1.200F30.0
N11820G1X-40.449Y-66.206F180.0
N11830G2X-41.951Y-62.203I10.449J6.206
N11840G1X-42.121Y-60.875
N11850G1X-42.144Y-59.532
N11860G1X-42.019Y-58.200
N11870G2X-40.449Y-53.794I12.019J-1.800
N11880G1X-38.839Y-55.404
N11890G3X-37.032Y-60.000I4.950J-0.707
N11900G3X-38.839Y-64.596I3.142J-3.889
N11910G1Z-1.300F30.0
N11920G1X-40.449Y-66.206F180.0
N11930G2X-41.951Y-62.203I10.449J6.206
N11940G1X-42.121Y-60.875
N11950G1X-42.144Y-59.532
N11960G1X-42.019Y-58.200
N11970G2X-40.449Y-53.794I12.019J-1.800
N11980G1X-38.839Y-55.404
N11990G3X-37.032Y-60.000I4.950J-0.707
N12000G3X-38.839Y-64.596I3.142J-3.889
N12010G1Z-1.400F30.0
N12020G1X-40.449Y-66.206F180.0
N12030G2X-41.951Y-62.203I10.449J6.206
N12040G1X-42.121Y-60.875
N12050G1X-42.144Y-59.532
N12060G1X-42.019Y-58.200
N12070G2X-40.449Y-53.794I12.019J-1.800
N12080G1X-38.839Y-55.404
N12090G3X-37.032Y-60.000I4.950J-0.707
N12100G3X-38.839Y-64.596I3.142J-3.889
N12110G1Z-1.500F30.0
N12120G1X-40.449Y-66.206F180.0
N12130G2X-41.951Y-62.203I10.449J6.206
N12140G1X-42.121Y-60.875
N12150G1X-42.144Y-59.532
N12160G1X-42.019Y-58.200
N12170G2X-40.449Y-53.794I12.019J-1.800
N12180G1X-38.839Y-55.404
N12190G3X-37.032Y-60.000I4.950J-0.707
N12200G3X-38.839Y-64.596I3.142J-3.889
N12210G1Z-1.600F30.0
N12220G1X-40.449Y-66.206F180.0
N12230G2X-41.951Y-62.203I10.449J6.206
N12240G1Z-1.500
N12250G1X-42.121Y-60.875
N12260G1X-42.144Y-59.532
N12270G1X-42.019Y-58.200
N12280G1Z-1.600F30.0
N12290G2X-40.449Y-53.794I12.019J-1.800F180.0
N12300G1X-38.839Y-55.404
N12310G3X-37.032Y-60.000I4.950J-0.707
N12320G3X-38.839Y-64.596I3.142J-3.889
N12330G1Z-1.700F30.0
N12340G1X-40.449Y-66.206F180.0
N12350G2X-41.951Y-62.203I10.449J6.206
N12360G1Z-1.500
N12370G1X-42.121Y-60.875
N12380G1X-42.144Y-59.532
N12390G1X-42.019Y-58.200
N12400G1Z-1.700F30.0
N12410G2X-40.449Y-53.794I12.019J-1.800F180.0
N12420G1X-38.839Y-55.404
N12430G3X-37.032Y-60.000I4.950J-0.707
N12440G3X-38.839Y-64.596I3.142J-3.889
N12450G1Z-1.800F30.0
N12460G1X-40.449Y-66.206F180.0
N12470G2X-41.951Y-62.203I10.449J6.206
N12480G1Z-1.500
N12490G1X-42.121Y-60.875
N12500G1X-42.144Y-59.532
N12510G1X-42.019Y-58.200
N12520G1Z-1.800F30.0
N12530G2X-40.449Y-53.794I12.019J-1.800F180.0
N12540G1X-38.839Y-55.404
N12550G3X-37.032Y-60.000I4.950J-0.707
N12560G3X-38.839Y-64.596I3.142J-3.889
N12570G1Z-1.900F30.0
N12580G1X-40.449Y-66.206F180.0
N12590G2X-41.951Y-62.203I10.449J6.206
N12600G1Z-1.500
N12610G1X-42.121Y-60.875
N12620G1X-42.144Y-59.532
N12630G1X-42.019Y-58.200
N12640G1Z-1.900F30.0
N12650G2X-40.449Y-53.794I12.019J-1.800F180.0
N12660G1X-38.839Y-55.404
N12670G3X-37.032Y-60.000I4.950J-0.707
N12680G3X-38.839Y-64.596I3.142J-3.889
N12690G1Z-2.000F30.0
N12700G1X-40.449Y-66.206F180.0
N12710G2X-41.951Y-62.203I10.449J6.206
N12720G1Z-1.500
N12730G1X-42.121Y-60.875
N12740G1X-42.144Y-59.532
N12750G1X-42.019Y-58.200
N12760G1Z-2.000F30.0
N12770G2X-40.449Y-53.794I12.019J-1.800F180.0
N12780G1X-38.839Y-55.404
N12790G3X-37.032Y-60.000I4.950J-0.707
N12800G3X-38.839Y-64.596I3.142J-3.889
N12810G00Z6.000
N12820G00X-77.962Y-61.666
N12830G1Z-0.100F30.0
N12840G2X-79.551Y-66.206I-12.038J1.666F180.0
N12850G1X-81.161Y-64.596
N12860G3X-82.968Y-60.000I-4.950J0.707
N12870G3X-81.161Y-55.404I-3.142J3.889
N12880G1X-79.551Y-53.794
N12890G2X-78.074Y-57.664I-10.449J-6.206
N12900G1X-77.889Y-58.990
N12910G1X-77.852Y-60.332
N12920G1X-77.962Y-61.666
N12930G1Z-0.200F30.0
N12940G2X-79.551Y-66.206I-12.038J1.666F180.0
N12950G1X-81.161Y-64.596
N12960G3X-82.968Y-60.000I-4.950J0.707
N12970G3X-81.161Y-55.404I-3.142J3.889
N12980G1X-79.551Y-53.794
N12990G2X-78.074Y-57.664I-10.449J-6.206
N13000G1X-77.889Y-58.990
N13010G1X-77.852Y-60.332
N13020G1X-77.962Y-61.666
N13030G1Z-0.300F30.0
N13040G2X-79.551Y-66.206I-12.038J1.666F180.0
N13050G1X-81.161Y-64.596
N13060G3X-82.968Y-60.000I-4.950J0.707
N13070G3X-81.161Y-55.404I-3.142J3.889
N13080G1X-79.551Y-53.794
N13090G2X-78.074Y-57.664I-10.449J-6.206
N13100G1X-77.889Y-58.990
N13110G1X-77.852Y-60.332
N13120G1X-77.962Y-61.666
N13130G1Z-0.400F30.0
N13140G2X-79.551Y-66.206I-12.038J1.666F180.0
N13150G1X-81.161Y-64.596
N13160G3X-82.968Y-60.000I-4.950J0.707
N13170G3X-81.161Y-55.404I-3.142J3.889
N13180G1X-79.551Y-53.794
N13190G2X-78.074Y-57.664I-10.449J-6.206
N13200G1X-77.889Y-58.990
N13210G1X-77.852Y-60.332
N13220G1X-77.962Y-61.666
N13230G1Z-0.500F30.0
N13240G2X-79.551Y-66.206I-12.038J1.666F180.0
N13250G1X-81.161Y-64.596
N13260G3X-82.968Y-60.000I-4.950J0.707
N13270G3X-81.161Y-55.404I-3.142J3.889
N13280G1X-79.551Y-53.794
N13290G2X-78.074Y-57.664I-10.449J-6.206
N13300G1X-77.889Y-58.990
N13310G1X-77.852Y-60.332
N13320G1X-77.962Y-61.666
N13330G1Z-0.600F30.0
N13340G2X-79.551Y-66.206I-12.038J1.666F180.0
N13350G1X-81.161Y-64.596
N13360G3X-82.968Y-60.000I-4.950J0.707
N13370G3X-81.161Y-55.404I-3.142J3.889
N13380G1X-79.551Y-53.794
N13390G2X-78.074Y-57.664I-10.449J-6.206
N13400G1X-77.889Y-58.990
N13410G1X-77.852Y-60.332
N13420G1X-77.962Y-61.666
N13430G1Z-0.700F30.0
N13440G2X-79.551Y-66.206I-12.038J1.666F180.0
N13450G1X-81.161Y-64.596
N13460G3X-82.968Y-60.000I-4.950J0.707
N13470G3X-81.161Y-55.404I-3.142J3.889
N13480G1X-79.551Y-53.794
N13490G2X-78.074Y-57.664I-10.449J-6.206
N13500G1X-77.889Y-58.990
N13510G1X-77.852Y-60.332
N13520G1X-77.962Y-61.666
N13530G1Z-0.800F30.0
N13540G2X-79.551Y-66.206I-12.038J1.666F180.0
N13550G1X-81.161Y-64.596
N13560G3X-82.968Y-60.000I-4.950J0.707
N13570G3X-81.161Y-55.404I-3.142J3.889
N13580G1X-79.551Y-53.794
N13590G2X-78.074Y-57.664I-10.449J-6.206
N13600G1X-77.889Y-58.990
N13610G1X-77.852Y-60.332
N13620G1X-77.962Y-61.666
N13630G1Z-0.900F30.0
N13640G2X-79.551Y-66.206I-12.038J1.666F180.0
N13650G1X-81.161Y-64.596
N13660G3X-82.968Y-60.000I-4.950J0.707
N13670G3X-81.161Y-55.404I-3.142J3.889
N13680G1X-79.551Y-53.794
N13690G2X-78.074Y-57.664I-10.449J-6.206
N13700G1X-77.889Y-58.990
N13710G1X-77.852Y-60.332
N13720G1X-77.962Y-61.666
N13730G1Z-1.000F30.0
N13740G2X-79.551Y-66.206I-12.038J1.666F180.0
N13750G1X-81.161Y-64.596
N13760G3X-82.968Y-60.000I-4.950J0.707
N13770G3X-81.161Y-55.404I-3.142J3.889
N13780G1X-79.551Y-53.794
N13790G2X-78.074Y-57.664I-10.449J-6.206
N13800G1X-77.889Y-58.990
N13810G1X-77.852Y-60.332
N13820G1X-77.962Y-61.666
N13830G1Z-1.100F30.0
N13840G2X-79.551Y-66.206I-12.038J1.666F180.0
N13850G1X-81.161Y-64.596
N13860G3X-82.968Y-60.000I-4.950J0.707
N13870G3X-81.161Y-55.404I-3.142J3.889
N13880G1X-79.551Y-53.794
N13890G2X-78.074Y-57.664I-10.449J-6.206
N13900G1X-77.889Y-58.990
N13910G1X-77.852Y-60.332
N13920G1X-77.962Y-61.666
N13930G1Z-1.200F30.0
N13940G2X-79.551Y-66.206I-12.038J1.666F180.0
N13950G1X-81.161Y-64.596
N13960G3X-82.968Y-60.000I-4.950J0.707
N13970G3X-81.161Y-55.404I-3.142J3.889
N13980G1X-79.551Y-53.794
N13990G2X-78.074Y-57.664I-10.449J-6.206
N14000G1X-77.889Y-58.990
N14010G1X-77.852Y-60.332
N14020G1X-77.962Y-61.666
N14030G1Z-1.300F30.0
N14040G2X-79.551Y-66.206I-12.038J1.666F180.0
N14050G1X-81.161Y-64.596
N14060G3X-82.968Y-60.000I-4.950J0.707
N14070G3X-81.161Y-55.404I-3.142J3.889
N14080G1X-79.551Y-53.794
N14090G2X-78.074Y-57.664I-10.449J-6.206
N14100G1X-77.889Y-58.990
N14110G1X-77.852Y-60.332
N14120G1X-77.962Y-61.666
N14130G1Z-1.400F30.0
N14140G2X-79.551Y-66.206I-12.038J1.666F180.0
N14150G1X-81.161Y-64.596
N14160G3X-82.968Y-60.000I-4.950J0.707
N14170G3X-81.161Y-55.404I-3.142J3.889
N14180G1X-79.551Y-53.794
N14190G2X-78.074Y-57.664I-10.449J-6.206
N14200G1X-77.889Y-58.990
N14210G1X-77.852Y-60.332
N14220G1X-77.962Y-61.666
N14230G1Z-1.500F30.0
N14240G2X-79.551Y-66.206I-12.038J1.666F180.0
N14250G1X-81.161Y-64.596
N14260G3X-82.968Y-60.000I-4.950J0.707
N14270G3X-81.161Y-55.404I-3.142J3.889
N14280G1X-79.551Y-53.794
N14290G2X-78.074Y-57.664I-10.449J-6.206
N14300G1X-77.889Y-58.990
N14310G1X-77.852Y-60.332
N14320G1X-77.962Y-61.666
N14330G1Z-1.600F30.0
N14340G2X-79.551Y-66.206I-12.038J1.666F180.0
N14350G1X-81.161Y-64.596
N14360G3X-82.968Y-60.000I-4.950J0.707
N14370G3X-81.161Y-55.404I-3.142J3.889
N14380G1X-79.551Y-53.794
N14390G2X-78.074Y-57.664I-10.449J-6.206
N14400G1Z-1.500
N14410G1X-77.889Y-58.990
N14420G1X-77.852Y-60.332
N14430G1X-77.962Y-61.666
N14440G1Z-1.700F30.0
N14450G2X-79.551Y-66.206I-12.038J1.666F180.0
N14460G1X-81.161Y-64.596
N14470G3X-82.968Y-60.000I-4.950J0.707
N14480G3X-81.161Y-55.404I-3.142J3.889
N14490G1X-79.551Y-53.794
N14500G2X-78.074Y-57.664I-10.449J-6.206
N14510G1Z-1.500
N14520G1X-77.889Y-58.990
N14530G1X-77.852Y-60.332
N14540G1X-77.962Y-61.666
N14550G1Z-1.800F30.0
N14560G2X-79.551Y-66.206I-12.038J1.666F180.0
N14570G1X-81.161Y-64.596
N14580G3X-82.968Y-60.000I-4.950J0.707
N14590G3X-81.161Y-55.404I-3.142J3.889
N14600G1X-79.551Y-53.794
N14610G2X-78.074Y-57.664I-10.449J-6.206
N14620G1Z-1.500
N14630G1X-77.889Y-58.990
N14640G1X-77.852Y-60.332
N14650G1X-77.962Y-61.666
N14660G1Z-1.900F30.0
N14670G2X-79.551Y-66.206I-12.038J1.666F180.0
N14680G1X-81.161Y-64.596
N14690G3X-82.968Y-60.000I-4.950J0.707
N14700G3X-81.161Y-55.404I-3.142J3.889
N14710G1X-79.551Y-53.794
N14720G2X-78.074Y-57.664I-10.449J-6.206
N14730G1Z-1.500
N14740G1X-77.889Y-58.990
N14750G1X-77.852Y-60.332
N14760G1X-77.962Y-61.666
N14770G1Z-2.000F30.0
N14780G2X-79.551Y-66.206I-12.038J1.666F180.0
N14790G1X-81.161Y-64.596
N14800G3X-82.968Y-60.000I-4.950J0.707
N14810G3X-81.161Y-55.404I-3.142J3.889
N14820G1X-79.551Y-53.794
N14830G2X-78.074Y-57.664I-10.449J-6.206
N14840G1Z-1.500
N14850G1X-77.889Y-58.990
N14860G1X-77.852Y-60.332
N14870G1X-77.962Y-61.666
N14880G00Z6.000
N14890G00X-85.439Y-68.844
N14900G1Z-0.100F30.0
N14910G1X-83.794Y-70.449F180.0
N14920G2X-88.426Y-72.050I-6.206J10.449
N14930G1X-89.760Y-72.150
N14940G1X-91.102Y-72.103
N14950G1X-92.426Y-71.908
N14960G2X-96.206Y-70.449I2.426J11.908
N14970G1X-94.596Y-68.839
N14980G3X-90.000Y-67.032I0.707J4.950
N14990G3X-85.439Y-68.844I3.889J3.142
N15000G1Z-0.200F30.0
N15010G1X-83.794Y-70.449F180.0
N15020G2X-88.426Y-72.050I-6.206J10.449
N15030G1X-89.760Y-72.150
N15040G1X-91.102Y-72.103
N15050G1X-92.426Y-71.908
N15060G2X-96.206Y-70.449I2.426J11.908
N15070G1X-94.596Y-68.839
N15080G3X-90.000Y-67.032I0.707J4.950
N15090G3X-85.439Y-68.844I3.889J3.142
N15100G1Z-0.300F30.0
N15110G1X-83.794Y-70.449F180.0
N15120G2X-88.426Y-72.050I-6.206J10.449
N15130G1X-89.760Y-72.150
N15140G1X-91.102Y-72.103
N15150G1X-92.426Y-71.908
N15160G2X-96.206Y-70.449I2.426J11.908
N15170G1X-94.596Y-68.839
N15180G3X-90.000Y-67.032I0.707J4.950
N15190G3X-85.439Y-68.844I3.889J3.142
N15200G1Z-0.400F30.0
N15210G1X-83.794Y-70.449F180.0
N15220G2X-88.426Y-72.050I-6.206J10.449
N15230G1X-89.760Y-72.150
N15240G1X-91.102Y-72.103
N15250G1X-92.426Y-71.908
N15260G2X-96.206Y-70.449I2.426J11.908
N15270G1X-94.596Y-68.839
N15280G3X-90.000Y-67.032I0.707J4.950
N15290G3X-85.439Y-68.844I3.889J3.142
N15300G1Z-0.500F30.0
N15310G1X-83.794Y-70.449F180.0
N15320G2X-88.426Y-72.050I-6.206J10.449
N15330G1X-89.760Y-72.150
N15340G1X-91.102Y-72.103
N15350G1X-92.426Y-71.908
N15360G2X-96.206Y-70.449I2.426J11.908
N15370G1X-94.596Y-68.839
N15380G3X-90.000Y-67.032I0.707J4.950
N15390G3X-85.439Y-68.844I3.889J3.142
N15400G1Z-0.600F30.0
N15410G1X-83.794Y-70.449F180.0
N15420G2X-88.426Y-72.050I-6.206J10.449
N15430G1X-89.760Y-72.150
N15440G1X-91.102Y-72.103
N15450G1X-92.426Y-71.908
N15460G2X-96.206Y-70.449I2.426J11.908
N15470G1X-94.596Y-68.839
N15480G3X-90.000Y-67.032I0.707J4.950
N15490G3X-85.439Y-68.844I3.889J3.142
N15500G1Z-0.700F30.0
N15510G1X-83.794Y-70.449F180.0
N15520G2X-88.426Y-72.050I-6.206J10.449
N15530G1X-89.760Y-72.150
N15540G1X-91.102Y-72.103
N15550G1X-92.426Y-71.908
N15560G2X-96.206Y-70.449I2.426J11.908
N15570G1X-94.596Y-68.839
N15580G3X-90.000Y-67.032I0.707J4.950
N15590G3X-85.439Y-68.844I3.889J3.142
N15600G1Z-0.800F30.0
N15610G1X-83.794Y-70.449F180.0
N15620G2X-88.426Y-72.050I-6.206J10.449
N15630G1X-89.760Y-72.150
N15640G1X-91.102Y-72.103
N15650G1X-92.426Y-71.908
N15660G2X-96.206Y-70.449I2.426J11.908
N15670G1X-94.596Y-68.839
N15680G3X-90.000Y-67.032I0.707J4.950
N15690G3X-85.439Y-68.844I3.889J3.142
N15700G1Z-0.900F30.0
N15710G1X-83.794Y-70.449F180.0
N15720G2X-88.426Y-72.050I-6.206J10.449
N15730G1X-89.760Y-72.150
N15740G1X-91.102Y-72.103
N15750G1X-92.426Y-71.908
N15760G2X-96.206Y-70.449I2.426J11.908
N15770G1X-94.596Y-68.839
N15780G3X-90.000Y-67.032I0.707J4.950
N15790G3X-85.439Y-68.844I3.889J3.142
N15800G1Z-1.000F30.0
N15810G1X-83.794Y-70.449F180.0
N15820G2X-88.426Y-72.050I-6.206J10.449
N15830G1X-89.760Y-72.150
N15840G1X-91.102Y-72.103
N15850G1X-92.426Y-71.908
N15860G2X-96.206Y-70.449I2.426J11.908
N15870G1X-94.596Y-68.839
N15880G3X-90.000Y-67.032I0.707J4.950
N15890G3X-85.439Y-68.844I3.889J3.142
N15900G1Z-1.100F30.0
N15910G1X-83.794Y-70.449F180.0
N15920G2X-88.426Y-72.050I-6.206J10.449
N15930G1X-89.760Y-72.150
N15940G1X-91.102Y-72.103
N15950G1X-92.426Y-71.908
N15960G2X-96.206Y-70.449I2.426J11.908
N15970G1X-94.596Y-68.839
N15980G3X-90.000Y-67.032I0.707J4.950
N15990G3X-85.439Y-68.844I3.889J3.142
N16000G1Z-1.200F30.0
N16010G1X-83.794Y-70.449F180.0
N16020G2X-88.426Y-72.050I-6.206J10.449
N16030G1X-89.760Y-72.150
N16040G1X-91.102Y-72.103
N16050G1X-92.426Y-71.908
N16060G2X-96.206Y-70.449I2.426J11.908
N16070G1X-94.596Y-68.839
N16080G3X-90.000Y-67.032I0.707J4.950
N16090G3X-85.439Y-68.844I3.889J3.142
N16100G1Z-1.300F30.0
N16110G1X-83.794Y-70.449F180.0
N16120G2X-88.426Y-72.050I-6.206J10.449
N16130G1X-89.760Y-72.150
N16140G1X-91.102Y-72.103
N16150G1X-92.426Y-71.908
N16160G2X-96.206Y-70.449I2.426J11.908
N16170G1X-94.596Y-68.839
N16180G3X-90.000Y-67.032I0.707J4.950
N16190G3X-85.439Y-68.844I3.889J3.142
N16200G1Z-1.400F30.0
N16210G1X-83.794Y-70.449F180.0
N16220G2X-88.426Y-72.050I-6.206J10.449
N16230G1X-89.760Y-72.150
N16240G1X-91.102Y-72.103
N16250G1X-92.426Y-71.908
N16260G2X-96.206Y-70.449I2.426J11.908
N16270G1X-94.596Y-68.839
N16280G3X-90.000Y-67.032I0.707J4.950
N16290G3X-85.439Y-68.844I3.889J3.142
N16300G1Z-1.500F30.0
N16310G1X-83.794Y-70.449F180.0
N16320G2X-88.426Y-72.050I-6.206J10.449
N16330G1X-89.760Y-72.150
N16340G1X-91.102Y-72.103
N16350G1X-92.426Y-71.908
N16360G2X-96.206Y-70.449I2.426J11.908
N16370G1X-94.596Y-68.839
N16380G3X-90.000Y-67.032I0.707J4.950
N16390G3X-85.439Y-68.844I3.889J3.142
N16400G1Z-1.600F30.0
N16410G1X-83.794Y-70.449F180.0
N16420G2X-88.426Y-72.050I-6.206J10.449
N16430G1Z-1.500
N16440G1X-89.760Y-72.150
N16450G1X-91.102Y-72.103
N16460G1X-92.426Y-71.908
N16470G1Z-1.600F30.0
N16480G2X-96.206Y-70.449I2.426J11.908F180.0
N16490G1X-94.596Y-68.839
N16500G3X-90.000Y-67.032I0.707J4.950
N16510G3X-85.439Y-68.844I3.889J3.142
N16520G1Z-1.700F30.0
N16530G1X-83.794Y-70.449F180.0
N16540G2X-88.426Y-72.050I-6.206J10.449
N16550G1Z-1.500
N16560G1X-89.760Y-72.150
N16570G1X-91.102Y-72.103
N16580G1X-92.426Y-71.908
N16590G1Z-1.700F30.0
N16600G2X-96.206Y-70.449I2.426J11.908F180.0
N16610G1X-94.596Y-68.839
N16620G3X-90.000Y-67.032I0.707J4.950
N16630G3X-85.439Y-68.844I3.889J3.142
N16640G1Z-1.800F30.0
N16650G1X-83.794Y-70.449F180.0
N16660G2X-88.426Y-72.050I-6.206J10.449
N16670G1Z-1.500
N16680G1X-89.760Y-72.150
N16690G1X-91.102Y-72.103
N16700G1X-92.426Y-71.908
N16710G1Z-1.800F30.0
N16720G2X-96.206Y-70.449I2.426J11.908F180.0
N16730G1X-94.596Y-68.839
N16740G3X-90.000Y-67.032I0.707J4.950
N16750G3X-85.439Y-68.844I3.889J3.142
N16760G1Z-1.900F30.0
N16770G1X-83.794Y-70.449F180.0
N16780G2X-88.426Y-72.050I-6.206J10.449
N16790G1Z-1.500
N16800G1X-89.760Y-72.150
N16810G1X-91.102Y-72.103
N16820G1X-92.426Y-71.908
N16830G1Z-1.900F30.0
N16840G2X-96.206Y-70.449I2.426J11.908F180.0
N16850G1X-94.596Y-68.839
N16860G3X-90.000Y-67.032I0.707J4.950
N16870G3X-85.439Y-68.844I3.889J3.142
N16880G1Z-2.000F30.0
N16890G1X-83.794Y-70.449F180.0
N16900G2X-88.426Y-72.050I-6.206J10.449
N16910G1Z-1.500
N16920G1X-89.760Y-72.150
N16930G1X-91.102Y-72.103
N16940G1X-92.426Y-71.908
N16950G1Z-2.000F30.0
N16960G2X-96.206Y-70.449I2.426J11.908F180.0
N16970G1X-94.596Y-68.839
N16980G3X-90.000Y-67.032I0.707J4.950
N16990G3X-85.439Y-68.844I3.889J3.142
N17000G00Z6.000
N17010G00X-98.839Y-64.596
N17020G1Z-0.100F30.0
N17030G1X-100.449Y-66.206F180.0
N17040G2X-102.048Y-61.594I10.449J6.206
N17050G1X-102.150Y-60.259
N17060G1X-102.104Y-58.917
N17070G1X-101.912Y-57.593
N17080G2X-100.449Y-53.794I11.912J-2.407
N17090G1X-98.839Y-55.404
N17100G3X-97.032Y-60.000I4.950J-0.707
N17110G3X-98.839Y-64.596I3.142J-3.889
N17120G1Z-0.200F30.0
N17130G1X-100.449Y-66.206F180.0
N17140G2X-102.048Y-61.594I10.449J6.206
N17150G1X-102.150Y-60.259
N17160G1X-102.104Y-58.917
N17170G1X-101.912Y-57.593
N17180G2X-100.449Y-53.794I11.912J-2.407
N17190G1X-98.839Y-55.404
N17200G3X-97.032Y-60.000I4.950J-0.707
N17210G3X-98.839Y-64.596I3.142J-3.889
N17220G1Z-0.300F30.0
N17230G1X-100.449Y-66.206F180.0
N17240G2X-102.048Y-61.594I10.449J6.206
N17250G1X-102.150Y-60.259
N17260G1X-102.104Y-58.917
N17270G1X-101.912Y-57.593
N17280G2X-100.449Y-53.794I11.912J-2.407
N17290G1X-98.839Y-55.404
N17300G3X-97.032Y-60.000I4.950J-0.707
N17310G3X-98.839Y-64.596I3.142J-3.889
N17320G1Z-0.400F30.0
N17330G1X-100.449Y-66.206F180.0
N17340G2X-102.048Y-61.594I10.449J6.206
N17350G1X-102.150Y-60.259
N17360G1X-102.104Y-58.917
N17370G1X-101.912Y-57.593
N17380G2X-100.449Y-53.794I11.912J-2.407
N17390G1X-98.839Y-55.404
N17400G3X-97.032Y-60.000I4.950J-0.707
N17410G3X-98.839Y-64.596I3.142J-3.889
N17420G1Z-0.500F30.0
N17430G1X-100.449Y-66.206F180.0
N17440G2X-102.048Y-61.594I10.449J6.206
N17450G1X-102.150Y-60.259
N17460G1X-102.104Y-58.917
N17470G1X-101.912Y-57.593
N17480G2X-100.449Y-53.794I11.912J-2.407
N17490G1X-98.839Y-55.404
N17500G3X-97.032Y-60.000I4.950J-0.707
N17510G3X-98.839Y-64.596I3.142J-3.889
N17520G1Z-0.600F30.0
N17530G1X-100.449Y-66.206F180.0
N17540G2X-102.048Y-61.594I10.449J6.206
N17550G1X-102.150Y-60.259
N17560G1X-102.104Y-58.917
N17570G1X-101.912Y-57.593
N17580G2X-100.449Y-53.794I11.912J-2.407
N17590G1X-98.839Y-55.404
N17600G3X-97.032Y-60.000I4.950J-0.707
N17610G3X-98.839Y-64.596I3.142J-3.889
N17620G1Z-0.700F30.0
N17630G1X-100.449Y-66.206F180.0
N17640G2X-102.048Y-61.594I10.449J6.206
N17650G1X-102.150Y-60.259
N17660G1X-102.104Y-58.917
N17670G1X-101.912Y-57.593
N17680G2X-100.449Y-53.794I11.912J-2.407
N17690G1X-98.839Y-55.404
N17700G3X-97.032Y-60.000I4.950J-0.707
N17710G3X-98.839Y-64.596I3.142J-3.889
N17720G1Z-0.800F30.0
N17730G1X-100.449Y-66.206F180.0
N17740G2X-102.048Y-61.594I10.449J6.206
N17750G1X-102.150Y-60.259
N17760G1X-102.104Y-58.917
N17770G1X-101.912Y-57.593
N17780G2X-100.449Y-53.794I11.912J-2.407
N17790G1X-98.839Y-55.404
N17800G3X-97.032Y-60.000I4.950J-0.707
N17810G3X-98.839Y-64.596I3.142J-3.889
N17820G1Z-0.900F30.0
N17830G1X-100.449Y-66.206F180.0
N17840G2X-102.048Y-61.594I10.449J6.206
N17850G1X-102.150Y-60.259
N17860G1X-102.104Y-58.917
N17870G1X-101.912Y-57.593
N17880G2X-100.449Y-53.794I11.912J-2.407
N17890G1X-98.839Y-55.404
N17900G3X-97.032Y-60.000I4.950J-0.707
N17910G3X-98.839Y-64.596I3.142J-3.889
N17920G1Z-1.000F30.0
N17930G1X-100.449Y-66.206F180.0
N17940G2X-102.048Y-61.594I10.449J6.206
N17950G1X-102.150Y-60.259
N17960G1X-102.104Y-58.917
N17970G1X-101.912Y-57.593
N17980G2X-100.449Y-53.794I11.912J-2.407
N17990G1X-98.839Y-55.404
N18000G3X-97.032Y-60.000I4.950J-0.707
N18010G3X-98.839Y-64.596I3.142J-3.889
N18020G1Z-1.100F30.0
N18030G1X-100.449Y-66.206F180.0
N18040G2X-102.048Y-61.594I10.449J6.206
N18050G1X-102.150Y-60.259
N18060G1X-102.104Y-58.917
N18070G1X-101.912Y-57.593
N18080G2X-100.449Y-53.794I11.912J-2.407
N18090G1X-98.839Y-55.404
N18100G3X-97.032Y-60.000I4.950J-0.707
N18110G3X-98.839Y-64.596I3.142J-3.889
N18120G1Z-1.200F30.0
N18130G1X-100.449Y-66.206F180.0
N18140G2X-102.048Y-61.594I10.449J6.206
N18150G1X-102.150Y-60.259
N18160G1X-102.104Y-58.917
N18170G1X-101.912Y-57.593
N18180G2X-100.449Y-53.794I11.912J-2.407
N18190G1X-98.839Y-55.404
N18200G3X-97.032Y-60.000I4.950J-0.707
N18210G3X-98.839Y-64.596I3.142J-3.889
N18220G1Z-1.300F30.0
N18230G1X-100.449Y-66.206F180.0
N18240G2X-102.048Y-61.594I10.449J6.206
N18250G1X-102.150Y-60.259
N18260G1X-102.104Y-58.917
N18270G1X-101.912Y-57.593
N18280G2X-100.449Y-53.794I11.912J-2.407
N18290G1X-98.839Y-55.404
N18300G3X-97.032Y-60.000I4.950J-0.707
N18310G3X-98.839Y-64.596I3.142J-3.889
N18320G1Z-1.400F30.0
N18330G1X-100.449Y-66.206F180.0
N18340G2X-102.048Y-61.594I10.449J6.206
N18350G1X-102.150Y-60.259
N18360G1X-102.104Y-58.917
N18370G1X-101.912Y-57.593
N18380G2X-100.449Y-53.794I11.912J-2.407
N18390G1X-98.839Y-55.404
N18400G3X-97.032Y-60.000I4.950J-0.707
N18410G3X-98.839Y-64.596I3.142J-3.889
N18420G1Z-1.500F30.0
N18430G1X-100.449Y-66.206F180.0
N18440G2X-102.048Y-61.594I10.449J6.206
N18450G1X-102.150Y-60.259
N18460G1X-102.104Y-58.917
N18470G1X-101.912Y-57.593
N18480G2X-100.449Y-53.794I11.912J-2.407
N18490G1X-98.839Y-55.404
N18500G3X-97.032Y-60.000I4.950J-0.707
N18510G3X-98.839Y-64.596I3.142J-3.889
N18520G1Z-1.600F30.0
N18530G1X-100.449Y-66.206F180.0
N18540G2X-102.048Y-61.594I10.449J6.206
N18550G1Z-1.500
N18560G1X-102.150Y-60.259
N18570G1X-102.104Y-58.917
N18580G1X-101.912Y-57.593
N18590G1Z-1.600F30.0
N18600G2X-100.449Y-53.794I11.912J-2.407F180.0
N18610G1X-98.839Y-55.404
N18620G3X-97.032Y-60.000I4.950J-0.707
N18630G3X-98.839Y-64.596I3.142J-3.889
N18640G1Z-1.700F30.0
N18650G1X-100.449Y-66.206F180.0
N18660G2X-102.048Y-61.594I10.449J6.206
N18670G1Z-1.500
N18680G1X-102.150Y-60.259
N18690G1X-102.104Y-58.917
N18700G1X-101.912Y-57.593
N18710G1Z-1.700F30.0
N18720G2X-100.449Y-53.794I11.912J-2.407F180.0
N18730G1X-98.839Y-55.404
N18740G3X-97.032Y-60.000I4.950J-0.707
N18750G3X-98.839Y-64.596I3.142J-3.889
N18760G1Z-1.800F30.0
N18770G1X-100.449Y-66.206F180.0
N18780G2X-102.048Y-61.594I10.449J6.206
N18790G1Z-1.500
N18800G1X-102.150Y-60.259
N18810G1X-102.104Y-58.917
N18820G1X-101.912Y-57.593
N18830G1Z-1.800F30.0
N18840G2X-100.449Y-53.794I11.912J-2.407F180.0
N18850G1X-98.839Y-55.404
N18860G3X-97.032Y-60.000I4.950J-0.707
N18870G3X-98.839Y-64.596I3.142J-3.889
N18880G1Z-1.900F30.0
N18890G1X-100.449Y-66.206F180.0
N18900G2X-102.048Y-61.594I10.449J6.206
N18910G1Z-1.500
N18920G1X-102.150Y-60.259
N18930G1X-102.104Y-58.917
N18940G1X-101.912Y-57.593
N18950G1Z-1.900F30.0
N18960G2X-100.449Y-53.794I11.912J-2.407F180.0
N18970G1X-98.839Y-55.404
N18980G3X-97.032Y-60.000I4.950J-0.707
N18990G3X-98.839Y-64.596I3.142J-3.889
N19000G1Z-2.000F30.0
N19010G1X-100.449Y-66.206F180.0
N19020G2X-102.048Y-61.594I10.449J6.206
N19030G1Z-1.500
N19040G1X-102.150Y-60.259
N19050G1X-102.104Y-58.917
N19060G1X-101.912Y-57.593
N19070G1Z-2.000F30.0
N19080G2X-100.449Y-53.794I11.912J-2.407F180.0
N19090G1X-98.839Y-55.404
N19100G3X-97.032Y-60.000I4.950J-0.707
N19110G3X-98.839Y-64.596I3.142J-3.889
N19120G00Z6.000
N19130G00X-94.596Y-51.161
N19140G1Z-0.100F30.0
N19150G1X-96.206Y-49.551F180.0
N19160G2X-92.346Y-48.076I6.206J-10.449
N19170G1X-91.020Y-47.890
N19180G1X-89.678Y-47.852
N19190G1X-88.344Y-47.961
N19200G2X-83.794Y-49.551I-1.656J-12.039
N19210G1X-85.404Y-51.161
N19220G3X-90.000Y-52.968I-0.707J-4.950
N19230G3X-94.596Y-51.161I-3.889J-3.142
N19240G1Z-0.200F30.0
N19250G1X-96.206Y-49.551F180.0
N19260G2X-92.346Y-48.076I6.206J-10.449
N19270G1X-91.020Y-47.890
N19280G1X-89.678Y-47.852
N19290G1X-88.344Y-47.961
N19300G2X-83.794Y-49.551I-1.656J-12.039
N19310G1X-85.404Y-51.161
N19320G3X-90.000Y-52.968I-0.707J-4.950
N19330G3X-94.596Y-51.161I-3.889J-3.142
N19340G1Z-0.300F30.0
N19350G1X-96.206Y-49.551F180.0
N19360G2X-92.346Y-48.076I6.206J-10.449
N19370G1X-91.020Y-47.890
N19380G1X-89.678Y-47.852
N19390G1X-88.344Y-47.961
N19400G2X-83.794Y-49.551I-1.656J-12.039
N19410G1X-85.404Y-51.161
N19420G3X-90.000Y-52.968I-0.707J-4.950
N19430G3X-94.596Y-51.161I-3.889J-3.142
N19440G1Z-0.400F30.0
N19450G1X-96.206Y-49.551F180.0
N19460G2X-92.346Y-48.076I6.206J-10.449
N19470G1X-91.020Y-47.890
N19480G1X-89.678Y-47.852
N19490G1X-88.344Y-47.961
N19500G2X-83.794Y-49.551I-1.656J-12.039
N19510G1X-85.404Y-51.161
N19520G3X-90.000Y-52.968I-0.707J-4.950
N19530G3X-94.596Y-51.161I-3.889J-3.142
N19540G1Z-0.500F30.0
N19550G1X-96.206Y-49.551F180.0
N19560G2X-92.346Y-48.076I6.206J-10.449
N19570G1X-91.020Y-47.890
N19580G1X-89.678Y-47.852
N19590G1X-88.344Y-47.961
N19600G2X-83.794Y-49.551I-1.656J-12.039
N19610G1X-85.404Y-51.161
N19620G3X-90.000Y-52.968I-0.707J-4.950
N19630G3X-94.596Y-51.161I-3.889J-3.142
N19640G1Z-0.600F30.0
N19650G1X-96.206Y-49.551F180.0
N19660G2X-92.346Y-48.076I6.206J-10.449
N19670G1X-91.020Y-47.890
N19680G1X-89.678Y-47.852
N19690G1X-88.344Y-47.961
N19700G2X-83.794Y-49.551I-1.656J-12.039
N19710G1X-85.404Y-51.161
N19720G3X-90.000Y-52.968I-0.707J-4.950
N19730G3X-94.596Y-51.161I-3.889J-3.142
N19740G1Z-0.700F30.0
N19750G1X-96.206Y-49.551F180.0
N19760G2X-92.346Y-48.076I6.206J-10.449
N19770G1X-91.020Y-47.890
N19780G1X-89.678Y-47.852
N19790G1X-88.344Y-47.961
N19800G2X-83.794Y-49.551I-1.656J-12.039
N19810G1X-85.404Y-51.161
N19820G3X-90.000Y-52.968I-0.707J-4.950
N19830G3X-94.596Y-51.161I-3.889J-3.142
N19840G1Z-0.800F30.0
N19850G1X-96.206Y-49.551F180.0
N19860G2X-92.346Y-48.076I6.206J-10.449
N19870G1X-91.020Y-47.890
N19880G1X-89.678Y-47.852
N19890G1X-88.344Y-47.961
N19900G2X-83.794Y-49.551I-1.656J-12.039
N19910G1X-85.404Y-51.161
N19920G3X-90.000Y-52.968I-0.707J-4.950
N19930G3X-94.596Y-51.161I-3.889J-3.142
N19940G1Z-0.900F30.0
N19950G1X-96.206Y-49.551F180.0
N19960G2X-92.346Y-48.076I6.206J-10.449
N19970G1X-91.020Y-47.890
N19980G1X-89.678Y-47.852
N19990G1X-88.344Y-47.961
N20000G2X-83.794Y-49.551I-1.656J-12.039
N20010G1X-85.404Y-51.161
N20020G3X-90.000Y-52.968I-0.707J-4.950
N20030G3X-94.596Y-51.161I-3.889J-3.142
N20040G1Z-1.000F30.0
N20050G1X-96.206Y-49.551F180.0
N20060G2X-92.346Y-48.076I6.206J-10.449
N20070G1X-91.020Y-47.890
N20080G1X-89.678Y-47.852
N20090G1X-88.344Y-47.961
N20100G2X-83.794Y-49.551I-1.656J-12.039
N20110G1X-85.404Y-51.161
N20120G3X-90.000Y-52.968I-0.707J-4.950
N20130G3X-94.596Y-51.161I-3.889J-3.142
N20140G1Z-1.100F30.0
N20150G1X-96.206Y-49.551F180.0
N20160G2X-92.346Y-48.076I6.206J-10.449
N20170G1X-91.020Y-47.890
N20180G1X-89.678Y-47.852
N20190G1X-88.344Y-47.961
N20200G2X-83.794Y-49.551I-1.656J-12.039
N20210G1X-85.404Y-51.161
N20220G3X-90.000Y-52.968I-0.707J-4.950
N20230G3X-94.596Y-51.161I-3.889J-3.142
N20240G1Z-1.200F30.0
N20250G1X-96.206Y-49.551F180.0
N20260G2X-92.346Y-48.076I6.206J-10.449
N20270G1X-91.020Y-47.890
N20280G1X-89.678Y-47.852
N20290G1X-88.344Y-47.961
N20300G2X-83.794Y-49.551I-1.656J-12.039
N20310G1X-85.404Y-51.161
N20320G3X-90.000Y-52.968I-0.707J-4.950
N20330G3X-94.596Y-51.161I-3.889J-3.142
N20340G1Z-1.300F30.0
N20350G1X-96.206Y-49.551F180.0
N20360G2X-92.346Y-48.076I6.206J-10.449
N20370G1X-91.020Y-47.890
N20380G1X-89.678Y-47.852
N20390G1X-88.344Y-47.961
N20400G2X-83.794Y-49.551I-1.656J-12.039
N20410G1X-85.404Y-51.161
N20420G3X-90.000Y-52.968I-0.707J-4.950
N20430G3X-94.596Y-51.161I-3.889J-3.142
N20440G1Z-1.400F30.0
N20450G1X-96.206Y-49.551F180.0
N20460G2X-92.346Y-48.076I6.206J-10.449
N20470G1X-91.020Y-47.890
N20480G1X-89.678Y-47.852
N20490G1X-88.344Y-47.961
N20500G2X-83.794Y-49.551I-1.656J-12.039
N20510G1X-85.404Y-51.161
N20520G3X-90.000Y-52.968I-0.707J-4.950
N20530G3X-94.596Y-51.161I-3.889J-3.142
N20540G1Z-1.500F30.0
N20550G1X-96.206Y-49.551F180.0
N20560G2X-92.346Y-48.076I6.206J-10.449
N20570G1X-91.020Y-47.890
N20580G1X-89.678Y-47.852
N20590G1X-88.344Y-47.961
N20600G2X-83.794Y-49.551I-1.656J-12.039
N20610G1X-85.404Y-51.161
N20620G3X-90.000Y-52.968I-0.707J-4.950
N20630G3X-94.596Y-51.161I-3.889J-3.142
N20640G1Z-1.600F30.0
N20650G1X-96.206Y-49.551F180.0
N20660G2X-92.346Y-48.076I6.206J-10.449
N20670G1Z-1.500
N20680G1X-91.020Y-47.890
N20690G1X-89.678Y-47.852
N20700G1X-88.344Y-47.961
N20710G1Z-1.600F30.0
N20720G2X-83.794Y-49.551I-1.656J-12.039F180.0
N20730G1X-85.404Y-51.161
N20740G3X-90.000Y-52.968I-0.707J-4.950
N20750G3X-94.596Y-51.161I-3.889J-3.142
N20760G1Z-1.700F30.0
N20770G1X-96.206Y-49.551F180.0
N20780G2X-92.346Y-48.076I6.206J-10.449
N20790G1Z-1.500
N20800G1X-91.020Y-47.890
N20810G1X-89.678Y-47.852
N20820G1X-88.344Y-47.961
N20830G1Z-1.700F30.0
N20840G2X-83.794Y-49.551I-1.656J-12.039F180.0
N20850G1X-85.404Y-51.161
N20860G3X-90.000Y-52.968I-0.707J-4.950
N20870G3X-94.596Y-51.161I-3.889J-3.142
N20880G1Z-1.800F30.0
N20890G1X-96.206Y-49.551F180.0
N20900G2X-92.346Y-48.076I6.206J-10.449
N20910G1Z-1.500
N20920G1X-91.020Y-47.890
N20930G1X-89.678Y-47.852
N20940G1X-88.344Y-47.961
N20950G1Z-1.800F30.0
N20960G2X-83.794Y-49.551I-1.656J-12.039F180.0
N20970G1X-85.404Y-51.161
N20980G3X-90.000Y-52.968I-0.707J-4.950
N20990G3X-94.596Y-51.161I-3.889J-3.142
N21000G1Z-1.900F30.0
N21010G1X-96.206Y-49.551F180.0
N21020G2X-92.346Y-48.076I6.206J-10.449
N21030G1Z-1.500
N21040G1X-91.020Y-47.890
N21050G1X-89.678Y-47.852
N21060G1X-88.344Y-47.961
N21070G1Z-1.900F30.0
N21080G2X-83.794Y-49.551I-1.656J-12.039F180.0
N21090G1X-85.404Y-51.161
N21100G3X-90.000Y-52.968I-0.707J-4.950
N21110G3X-94.596Y-51.161I-3.889J-3.142
N21120G1Z-2.000F30.0
N21130G1X-96.206Y-49.551F180.0
N21140G2X-92.346Y-48.076I6.206J-10.449
N21150G1Z-1.500
N21160G1X-91.020Y-47.890
N21170G1X-89.678Y-47.852
N21180G1X-88.344Y-47.961
N21190G1Z-2.000F30.0
N21200G2X-83.794Y-49.551I-1.656J-12.039F180.0
N21210G1X-85.404Y-51.161
N21220G3X-90.000Y-52.968I-0.707J-4.950
N21230G3X-94.596Y-51.161I-3.889J-3.142
N21240G00Z6.000
N21250S3400M03
(—ÖŠs 2)
()
N21280G00X-18.732Y-36.015Z6.000
N21290G1Z-0.100F30.0
N21300G1X-18.883Y-35.954F180.0
N21310G1X-19.040Y-35.909
N21320G1X-19.201Y-35.882
N21330G3X-20.779Y-36.860I-0.169J-1.490
N21340G1X-23.139Y-43.342
N21350G1X-24.548Y-42.829
N21360G1X-22.189Y-36.347
N21370G3X-23.214Y-34.383I-1.410J0.513
N21380G3X-27.615Y-33.608I-6.786J-25.617
N21390G3X-29.250Y-35.101I-0.135J-1.494
N21400G1Y-42.000
N21410G1X-30.750
N21420G1Y-35.101
N21430G3X-32.385Y-33.608I-1.500J0.000
N21440G3X-36.786Y-34.383I2.385J-26.392
N21450G3X-37.811Y-36.347I0.384J-1.450
N21460G1X-35.452Y-42.829
N21470G1X-36.861Y-43.342
N21480G1X-39.221Y-36.860
N21490G3X-41.268Y-36.015I-1.410J-0.513
N21500G3X-45.138Y-38.249I11.268J-23.985
N21510G3X-45.430Y-40.445I0.857J-1.231
N21520G1X-40.996Y-45.729
N21530G1X-42.145Y-46.693
N21540G1X-46.579Y-41.409
N21550G3X-48.792Y-41.315I-1.149J-0.964
N21560G3X-51.664Y-44.738I18.792J-18.685
N21570G3X-51.188Y-46.901I1.226J-0.864
N21580G1X-45.213Y-50.350
N21590G1X-45.963Y-51.650
N21600G1X-51.938Y-48.200
N21610G3X-54.049Y-48.869I-0.750J-1.299
N21620G3X-55.577Y-53.068I24.049J-11.131
N21630G3X-54.390Y-54.938I1.448J-0.392
N21640G1X-47.596Y-56.136
N21650G1X-47.857Y-57.613
N21660G1X-54.651Y-56.415
N21670G3X-56.406Y-57.766I-0.260J-1.477
N21680G1X-56.427Y-58.040
N21690G1X-56.500Y-60.039
N21700G1X-56.422Y-62.038
N21710G1X-56.406Y-62.234
N21720G3X-54.651Y-63.585I1.495J0.126
N21730G1X-47.857Y-62.387
N21740G1X-47.596Y-63.864
N21750G1X-54.390Y-65.062
N21760G3X-55.577Y-66.932I0.260J-1.477
N21770G3X-54.049Y-71.131I25.577J6.932
N21780G3X-51.938Y-71.800I1.361J0.630
N21790G1X-45.963Y-68.350
N21800G1X-45.213Y-69.650
N21810G1X-51.188Y-73.099
N21820G3X-51.664Y-75.262I0.750J-1.299
N21830G3X-48.792Y-78.685I21.664J15.262
N21840G3X-46.579Y-78.591I1.064J1.058
N21850G1X-42.145Y-73.307
N21860G1X-40.996Y-74.271
N21870G1X-45.430Y-79.555
N21880G3X-45.138Y-81.751I1.149J-0.964
N21890G3X-41.268Y-83.985I15.138J21.751
N21900G3X-39.221Y-83.140I0.638J1.358
N21910G1X-36.861Y-76.658
N21920G1X-35.452Y-77.171
N21930G1X-37.811Y-83.653
N21940G3X-36.786Y-85.617I1.410J-0.513
N21950G3X-32.385Y-86.392I6.786J25.617
N21960G3X-30.750Y-84.899I0.135J1.494
N21970G1Y-78.000
N21980G1X-29.250
N21990G1Y-84.899
N22000G3X-27.615Y-86.392I1.500J0.000
N22010G3X-23.214Y-85.617I-2.385J26.392
N22020G3X-22.189Y-83.653I-0.384J1.450
N22030G1X-24.548Y-77.171
N22040G1X-23.139Y-76.658
N22050G1X-20.779Y-83.140
N22060G3X-18.945Y-84.066I1.410J0.513
N22070G1X-18.732Y-83.985
N22080G1X-17.063Y-83.128
N22090G1X-15.459Y-82.154
N22100G3X-14.862Y-81.751I-14.541J22.154
N22110G3X-14.570Y-79.555I-0.857J1.231
N22120G1X-19.004Y-74.271
N22130G1X-17.855Y-73.307
N22140G1X-13.421Y-78.591
N22150G3X-11.208Y-78.685I1.149J0.964
N22160G3X-8.336Y-75.262I-18.792J18.685
N22170G3X-8.812Y-73.099I-1.226J0.864
N22180G1X-14.787Y-69.650
N22190G1X-14.037Y-68.350
N22200G1X-8.062Y-71.800
N22210G3X-5.951Y-71.131I0.750J1.299
N22220G3X-4.423Y-66.932I-24.049J11.131
N22230G3X-5.610Y-65.062I-1.448J0.392
N22240G1X-12.404Y-63.864
N22250G1X-12.143Y-62.387
N22260G1X-5.349Y-63.585
N22270G3X-3.594Y-62.234I0.260J1.477
N22280G3Y-57.766I-26.406J2.234
N22290G3X-5.349Y-56.415I-1.495J-0.126
N22300G1X-12.143Y-57.613
N22310G1X-12.404Y-56.136
N22320G1X-5.610Y-54.938
N22330G3X-4.423Y-53.068I-0.260J1.477
N22340G3X-5.951Y-48.869I-25.577J-6.932
N22350G3X-8.062Y-48.200I-1.361J-0.630
N22360G1X-14.037Y-51.650
N22370G1X-14.787Y-50.350
N22380G1X-8.812Y-46.901
N22390G3X-8.336Y-44.738I-0.750J1.299
N22400G3X-11.208Y-41.315I-21.664J-15.262
N22410G3X-13.421Y-41.409I-1.064J-1.058
N22420G1X-17.855Y-46.693
N22430G1X-19.004Y-45.729
N22440G1X-14.570Y-40.445
N22450G3X-14.862Y-38.249I-1.149J0.964
N22460G3X-15.685Y-37.699I-15.138J-21.751
N22470G1X-17.181Y-36.807
N22480G1X-18.732Y-36.015
N22490G1Z-0.200F30.0
N22500G1X-18.883Y-35.954F180.0
N22510G1X-19.040Y-35.909
N22520G1X-19.201Y-35.882
N22530G3X-20.779Y-36.860I-0.169J-1.490
N22540G1X-23.139Y-43.342
N22550G1X-24.548Y-42.829
N22560G1X-22.189Y-36.347
N22570G3X-23.214Y-34.383I-1.410J0.513
N22580G3X-27.615Y-33.608I-6.786J-25.617
N22590G3X-29.250Y-35.101I-0.135J-1.494
N22600G1Y-42.000
N22610G1X-30.750
N22620G1Y-35.101
N22630G3X-32.385Y-33.608I-1.500J0.000
N22640G3X-36.786Y-34.383I2.385J-26.392
N22650G3X-37.811Y-36.347I0.384J-1.450
N22660G1X-35.452Y-42.829
N22670G1X-36.861Y-43.342
N22680G1X-39.221Y-36.860
N22690G3X-41.268Y-36.015I-1.410J-0.513
N22700G3X-45.138Y-38.249I11.268J-23.985
N22710G3X-45.430Y-40.445I0.857J-1.231
N22720G1X-40.996Y-45.729
N22730G1X-42.145Y-46.693
N22740G1X-46.579Y-41.409
N22750G3X-48.792Y-41.315I-1.149J-0.964
N22760G3X-51.664Y-44.738I18.792J-18.685
N22770G3X-51.188Y-46.901I1.226J-0.864
N22780G1X-45.213Y-50.350
N22790G1X-45.963Y-51.650
N22800G1X-51.938Y-48.200
N22810G3X-54.049Y-48.869I-0.750J-1.299
N22820G3X-55.577Y-53.068I24.049J-11.131
N22830G3X-54.390Y-54.938I1.448J-0.392
N22840G1X-47.596Y-56.136
N22850G1X-47.857Y-57.613
N22860G1X-54.651Y-56.415
N22870G3X-56.406Y-57.766I-0.260J-1.477
N22880G1X-56.427Y-58.040
N22890G1X-56.500Y-60.039
N22900G1X-56.422Y-62.038
N22910G1X-56.406Y-62.234
N22920G3X-54.651Y-63.585I1.495J0.126
N22930G1X-47.857Y-62.387
N22940G1X-47.596Y-63.864
N22950G1X-54.390Y-65.062
N22960G3X-55.577Y-66.932I0.260J-1.477
N22970G3X-54.049Y-71.131I25.577J6.932
N22980G3X-51.938Y-71.800I1.361J0.630
N22990G1X-45.963Y-68.350
N23000G1X-45.213Y-69.650
N23010G1X-51.188Y-73.099
N23020G3X-51.664Y-75.262I0.750J-1.299
N23030G3X-48.792Y-78.685I21.664J15.262
N23040G3X-46.579Y-78.591I1.064J1.058
N23050G1X-42.145Y-73.307
N23060G1X-40.996Y-74.271
N23070G1X-45.430Y-79.555
N23080G3X-45.138Y-81.751I1.149J-0.964
N23090G3X-41.268Y-83.985I15.138J21.751
N23100G3X-39.221Y-83.140I0.638J1.358
N23110G1X-36.861Y-76.658
N23120G1X-35.452Y-77.171
N23130G1X-37.811Y-83.653
N23140G3X-36.786Y-85.617I1.410J-0.513
N23150G3X-32.385Y-86.392I6.786J25.617
N23160G3X-30.750Y-84.899I0.135J1.494
N23170G1Y-78.000
N23180G1X-29.250
N23190G1Y-84.899
N23200G3X-27.615Y-86.392I1.500J0.000
N23210G3X-23.214Y-85.617I-2.385J26.392
N23220G3X-22.189Y-83.653I-0.384J1.450
N23230G1X-24.548Y-77.171
N23240G1X-23.139Y-76.658
N23250G1X-20.779Y-83.140
N23260G3X-18.945Y-84.066I1.410J0.513
N23270G1X-18.732Y-83.985
N23280G1X-17.063Y-83.128
N23290G1X-15.459Y-82.154
N23300G3X-14.862Y-81.751I-14.541J22.154
N23310G3X-14.570Y-79.555I-0.857J1.231
N23320G1X-19.004Y-74.271
N23330G1X-17.855Y-73.307
N23340G1X-13.421Y-78.591
N23350G3X-11.208Y-78.685I1.149J0.964
N23360G3X-8.336Y-75.262I-18.792J18.685
N23370G3X-8.812Y-73.099I-1.226J0.864
N23380G1X-14.787Y-69.650
N23390G1X-14.037Y-68.350
N23400G1X-8.062Y-71.800
N23410G3X-5.951Y-71.131I0.750J1.299
N23420G3X-4.423Y-66.932I-24.049J11.131
N23430G3X-5.610Y-65.062I-1.448J0.392
N23440G1X-12.404Y-63.864
N23450G1X-12.143Y-62.387
N23460G1X-5.349Y-63.585
N23470G3X-3.594Y-62.234I0.260J1.477
N23480G3Y-57.766I-26.406J2.234
N23490G3X-5.349Y-56.415I-1.495J-0.126
N23500G1X-12.143Y-57.613
N23510G1X-12.404Y-56.136
N23520G1X-5.610Y-54.938
N23530G3X-4.423Y-53.068I-0.260J1.477
N23540G3X-5.951Y-48.869I-25.577J-6.932
N23550G3X-8.062Y-48.200I-1.361J-0.630
N23560G1X-14.037Y-51.650
N23570G1X-14.787Y-50.350
N23580G1X-8.812Y-46.901
N23590G3X-8.336Y-44.738I-0.750J1.299
N23600G3X-11.208Y-41.315I-21.664J-15.262
N23610G3X-13.421Y-41.409I-1.064J-1.058
N23620G1X-17.855Y-46.693
N23630G1X-19.004Y-45.729
N23640G1X-14.570Y-40.445
N23650G3X-14.862Y-38.249I-1.149J0.964
N23660G3X-15.685Y-37.699I-15.138J-21.751
N23670G1X-17.181Y-36.807
N23680G1X-18.732Y-36.015
N23690G1Z-0.300F30.0
N23700G1X-18.883Y-35.954F180.0
N23710G1X-19.040Y-35.909
N23720G1X-19.201Y-35.882
N23730G3X-20.779Y-36.860I-0.169J-1.490
N23740G1X-23.139Y-43.342
N23750G1X-24.548Y-42.829
N23760G1X-22.189Y-36.347
N23770G3X-23.214Y-34.383I-1.410J0.513
N23780G3X-27.615Y-33.608I-6.786J-25.617
N23790G3X-29.250Y-35.101I-0.135J-1.494
N23800G1Y-42.000
N23810G1X-30.750
N23820G1Y-35.101
N23830G3X-32.385Y-33.608I-1.500J0.000
N23840G3X-36.786Y-34.383I2.385J-26.392
N23850G3X-37.811Y-36.347I0.384J-1.450
N23860G1X-35.452Y-42.829
N23870G1X-36.861Y-43.342
N23880G1X-39.221Y-36.860
N23890G3X-41.268Y-36.015I-1.410J-0.513
N23900G3X-45.138Y-38.249I11.268J-23.985
N23910G3X-45.430Y-40.445I0.857J-1.231
N23920G1X-40.996Y-45.729
N23930G1X-42.145Y-46.693
N23940G1X-46.579Y-41.409
N23950G3X-48.792Y-41.315I-1.149J-0.964
N23960G3X-51.664Y-44.738I18.792J-18.685
N23970G3X-51.188Y-46.901I1.226J-0.864
N23980G1X-45.213Y-50.350
N23990G1X-45.963Y-51.650
N24000G1X-51.938Y-48.200
N24010G3X-54.049Y-48.869I-0.750J-1.299
N24020G3X-55.577Y-53.068I24.049J-11.131
N24030G3X-54.390Y-54.938I1.448J-0.392
N24040G1X-47.596Y-56.136
N24050G1X-47.857Y-57.613
N24060G1X-54.651Y-56.415
N24070G3X-56.406Y-57.766I-0.260J-1.477
N24080G1X-56.427Y-58.040
N24090G1X-56.500Y-60.039
N24100G1X-56.422Y-62.038
N24110G1X-56.406Y-62.234
N24120G3X-54.651Y-63.585I1.495J0.126
N24130G1X-47.857Y-62.387
N24140G1X-47.596Y-63.864
N24150G1X-54.390Y-65.062
N24160G3X-55.577Y-66.932I0.260J-1.477
N24170G3X-54.049Y-71.131I25.577J6.932
N24180G3X-51.938Y-71.800I1.361J0.630
N24190G1X-45.963Y-68.350
N24200G1X-45.213Y-69.650
N24210G1X-51.188Y-73.099
N24220G3X-51.664Y-75.262I0.750J-1.299
N24230G3X-48.792Y-78.685I21.664J15.262
N24240G3X-46.579Y-78.591I1.064J1.058
N24250G1X-42.145Y-73.307
N24260G1X-40.996Y-74.271
N24270G1X-45.430Y-79.555
N24280G3X-45.138Y-81.751I1.149J-0.964
N24290G3X-41.268Y-83.985I15.138J21.751
N24300G3X-39.221Y-83.140I0.638J1.358
N24310G1X-36.861Y-76.658
N24320G1X-35.452Y-77.171
N24330G1X-37.811Y-83.653
N24340G3X-36.786Y-85.617I1.410J-0.513
N24350G3X-32.385Y-86.392I6.786J25.617
N24360G3X-30.750Y-84.899I0.135J1.494
N24370G1Y-78.000
N24380G1X-29.250
N24390G1Y-84.899
N24400G3X-27.615Y-86.392I1.500J0.000
N24410G3X-23.214Y-85.617I-2.385J26.392
N24420G3X-22.189Y-83.653I-0.384J1.450
N24430G1X-24.548Y-77.171
N24440G1X-23.139Y-76.658
N24450G1X-20.779Y-83.140
N24460G3X-18.945Y-84.066I1.410J0.513
N24470G1X-18.732Y-83.985
N24480G1X-17.063Y-83.128
N24490G1X-15.459Y-82.154
N24500G3X-14.862Y-81.751I-14.541J22.154
N24510G3X-14.570Y-79.555I-0.857J1.231
N24520G1X-19.004Y-74.271
N24530G1X-17.855Y-73.307
N24540G1X-13.421Y-78.591
N24550G3X-11.208Y-78.685I1.149J0.964
N24560G3X-8.336Y-75.262I-18.792J18.685
N24570G3X-8.812Y-73.099I-1.226J0.864
N24580G1X-14.787Y-69.650
N24590G1X-14.037Y-68.350
N24600G1X-8.062Y-71.800
N24610G3X-5.951Y-71.131I0.750J1.299
N24620G3X-4.423Y-66.932I-24.049J11.131
N24630G3X-5.610Y-65.062I-1.448J0.392
N24640G1X-12.404Y-63.864
N24650G1X-12.143Y-62.387
N24660G1X-5.349Y-63.585
N24670G3X-3.594Y-62.234I0.260J1.477
N24680G3Y-57.766I-26.406J2.234
N24690G3X-5.349Y-56.415I-1.495J-0.126
N24700G1X-12.143Y-57.613
N24710G1X-12.404Y-56.136
N24720G1X-5.610Y-54.938
N24730G3X-4.423Y-53.068I-0.260J1.477
N24740G3X-5.951Y-48.869I-25.577J-6.932
N24750G3X-8.062Y-48.200I-1.361J-0.630
N24760G1X-14.037Y-51.650
N24770G1X-14.787Y-50.350
N24780G1X-8.812Y-46.901
N24790G3X-8.336Y-44.738I-0.750J1.299
N24800G3X-11.208Y-41.315I-21.664J-15.262
N24810G3X-13.421Y-41.409I-1.064J-1.058
N24820G1X-17.855Y-46.693
N24830G1X-19.004Y-45.729
N24840G1X-14.570Y-40.445
N24850G3X-14.862Y-38.249I-1.149J0.964
N24860G3X-15.685Y-37.699I-15.138J-21.751
N24870G1X-17.181Y-36.807
N24880G1X-18.732Y-36.015
N24890G1Z-0.400F30.0
N24900G1X-18.883Y-35.954F180.0
N24910G1X-19.040Y-35.909
N24920G1X-19.201Y-35.882
N24930G3X-20.779Y-36.860I-0.169J-1.490
N24940G1X-23.139Y-43.342
N24950G1X-24.548Y-42.829
N24960G1X-22.189Y-36.347
N24970G3X-23.214Y-34.383I-1.410J0.513
N24980G3X-27.615Y-33.608I-6.786J-25.617
N24990G3X-29.250Y-35.101I-0.135J-1.494
N25000G1Y-42.000
N25010G1X-30.750
N25020G1Y-35.101
N25030G3X-32.385Y-33.608I-1.500J0.000
N25040G3X-36.786Y-34.383I2.385J-26.392
N25050G3X-37.811Y-36.347I0.384J-1.450
N25060G1X-35.452Y-42.829
N25070G1X-36.861Y-43.342
N25080G1X-39.221Y-36.860
N25090G3X-41.268Y-36.015I-1.410J-0.513
N25100G3X-45.138Y-38.249I11.268J-23.985
N25110G3X-45.430Y-40.445I0.857J-1.231
N25120G1X-40.996Y-45.729
N25130G1X-42.145Y-46.693
N25140G1X-46.579Y-41.409
N25150G3X-48.792Y-41.315I-1.149J-0.964
N25160G3X-51.664Y-44.738I18.792J-18.685
N25170G3X-51.188Y-46.901I1.226J-0.864
N25180G1X-45.213Y-50.350
N25190G1X-45.963Y-51.650
N25200G1X-51.938Y-48.200
N25210G3X-54.049Y-48.869I-0.750J-1.299
N25220G3X-55.577Y-53.068I24.049J-11.131
N25230G3X-54.390Y-54.938I1.448J-0.392
N25240G1X-47.596Y-56.136
N25250G1X-47.857Y-57.613
N25260G1X-54.651Y-56.415
N25270G3X-56.406Y-57.766I-0.260J-1.477
N25280G1X-56.427Y-58.040
N25290G1X-56.500Y-60.039
N25300G1X-56.422Y-62.038
N25310G1X-56.406Y-62.234
N25320G3X-54.651Y-63.585I1.495J0.126
N25330G1X-47.857Y-62.387
N25340G1X-47.596Y-63.864
N25350G1X-54.390Y-65.062
N25360G3X-55.577Y-66.932I0.260J-1.477
N25370G3X-54.049Y-71.131I25.577J6.932
N25380G3X-51.938Y-71.800I1.361J0.630
N25390G1X-45.963Y-68.350
N25400G1X-45.213Y-69.650
N25410G1X-51.188Y-73.099
N25420G3X-51.664Y-75.262I0.750J-1.299
N25430G3X-48.792Y-78.685I21.664J15.262
N25440G3X-46.579Y-78.591I1.064J1.058
N25450G1X-42.145Y-73.307
N25460G1X-40.996Y-74.271
N25470G1X-45.430Y-79.555
N25480G3X-45.138Y-81.751I1.149J-0.964
N25490G3X-41.268Y-83.985I15.138J21.751
N25500G3X-39.221Y-83.140I0.638J1.358
N25510G1X-36.861Y-76.658
N25520G1X-35.452Y-77.171
N25530G1X-37.811Y-83.653
N25540G3X-36.786Y-85.617I1.410J-0.513
N25550G3X-32.385Y-86.392I6.786J25.617
N25560G3X-30.750Y-84.899I0.135J1.494
N25570G1Y-78.000
N25580G1X-29.250
N25590G1Y-84.899
N25600G3X-27.615Y-86.392I1.500J0.000
N25610G3X-23.214Y-85.617I-2.385J26.392
N25620G3X-22.189Y-83.653I-0.384J1.450
N25630G1X-24.548Y-77.171
N25640G1X-23.139Y-76.658
N25650G1X-20.779Y-83.140
N25660G3X-18.945Y-84.066I1.410J0.513
N25670G1X-18.732Y-83.985
N25680G1X-17.063Y-83.128
N25690G1X-15.459Y-82.154
N25700G3X-14.862Y-81.751I-14.541J22.154
N25710G3X-14.570Y-79.555I-0.857J1.231
N25720G1X-19.004Y-74.271
N25730G1X-17.855Y-73.307
N25740G1X-13.421Y-78.591
N25750G3X-11.208Y-78.685I1.149J0.964
N25760G3X-8.336Y-75.262I-18.792J18.685
N25770G3X-8.812Y-73.099I-1.226J0.864
N25780G1X-14.787Y-69.650
N25790G1X-14.037Y-68.350
N25800G1X-8.062Y-71.800
N25810G3X-5.951Y-71.131I0.750J1.299
N25820G3X-4.423Y-66.932I-24.049J11.131
N25830G3X-5.610Y-65.062I-1.448J0.392
N25840G1X-12.404Y-63.864
N25850G1X-12.143Y-62.387
N25860G1X-5.349Y-63.585
N25870G3X-3.594Y-62.234I0.260J1.477
N25880G3Y-57.766I-26.406J2.234
N25890G3X-5.349Y-56.415I-1.495J-0.126
N25900G1X-12.143Y-57.613
N25910G1X-12.404Y-56.136
N25920G1X-5.610Y-54.938
N25930G3X-4.423Y-53.068I-0.260J1.477
N25940G3X-5.951Y-48.869I-25.577J-6.932
N25950G3X-8.062Y-48.200I-1.361J-0.630
N25960G1X-14.037Y-51.650
N25970G1X-14.787Y-50.350
N25980G1X-8.812Y-46.901
N25990G3X-8.336Y-44.738I-0.750J1.299
N26000G3X-11.208Y-41.315I-21.664J-15.262
N26010G3X-13.421Y-41.409I-1.064J-1.058
N26020G1X-17.855Y-46.693
N26030G1X-19.004Y-45.729
N26040G1X-14.570Y-40.445
N26050G3X-14.862Y-38.249I-1.149J0.964
N26060G3X-15.685Y-37.699I-15.138J-21.751
N26070G1X-17.181Y-36.807
N26080G1X-18.732Y-36.015
N26090G1Z-0.500F30.0
N26100G1X-18.883Y-35.954F180.0
N26110G1X-19.040Y-35.909
N26120G1X-19.201Y-35.882
N26130G3X-20.779Y-36.860I-0.169J-1.490
N26140G1X-23.139Y-43.342
N26150G1X-24.548Y-42.829
N26160G1X-22.189Y-36.347
N26170G3X-23.214Y-34.383I-1.410J0.513
N26180G3X-27.615Y-33.608I-6.786J-25.617
N26190G3X-29.250Y-35.101I-0.135J-1.494
N26200G1Y-42.000
N26210G1X-30.750
N26220G1Y-35.101
N26230G3X-32.385Y-33.608I-1.500J0.000
N26240G3X-36.786Y-34.383I2.385J-26.392
N26250G3X-37.811Y-36.347I0.384J-1.450
N26260G1X-35.452Y-42.829
N26270G1X-36.861Y-43.342
N26280G1X-39.221Y-36.860
N26290G3X-41.268Y-36.015I-1.410J-0.513
N26300G3X-45.138Y-38.249I11.268J-23.985
N26310G3X-45.430Y-40.445I0.857J-1.231
N26320G1X-40.996Y-45.729
N26330G1X-42.145Y-46.693
N26340G1X-46.579Y-41.409
N26350G3X-48.792Y-41.315I-1.149J-0.964
N26360G3X-51.664Y-44.738I18.792J-18.685
N26370G3X-51.188Y-46.901I1.226J-0.864
N26380G1X-45.213Y-50.350
N26390G1X-45.963Y-51.650
N26400G1X-51.938Y-48.200
N26410G3X-54.049Y-48.869I-0.750J-1.299
N26420G3X-55.577Y-53.068I24.049J-11.131
N26430G3X-54.390Y-54.938I1.448J-0.392
N26440G1X-47.596Y-56.136
N26450G1X-47.857Y-57.613
N26460G1X-54.651Y-56.415
N26470G3X-56.406Y-57.766I-0.260J-1.477
N26480G1X-56.427Y-58.040
N26490G1X-56.500Y-60.039
N26500G1X-56.422Y-62.038
N26510G1X-56.406Y-62.234
N26520G3X-54.651Y-63.585I1.495J0.126
N26530G1X-47.857Y-62.387
N26540G1X-47.596Y-63.864
N26550G1X-54.390Y-65.062
N26560G3X-55.577Y-66.932I0.260J-1.477
N26570G3X-54.049Y-71.131I25.577J6.932
N26580G3X-51.938Y-71.800I1.361J0.630
N26590G1X-45.963Y-68.350
N26600G1X-45.213Y-69.650
N26610G1X-51.188Y-73.099
N26620G3X-51.664Y-75.262I0.750J-1.299
N26630G3X-48.792Y-78.685I21.664J15.262
N26640G3X-46.579Y-78.591I1.064J1.058
N26650G1X-42.145Y-73.307
N26660G1X-40.996Y-74.271
N26670G1X-45.430Y-79.555
N26680G3X-45.138Y-81.751I1.149J-0.964
N26690G3X-41.268Y-83.985I15.138J21.751
N26700G3X-39.221Y-83.140I0.638J1.358
N26710G1X-36.861Y-76.658
N26720G1X-35.452Y-77.171
N26730G1X-37.811Y-83.653
N26740G3X-36.786Y-85.617I1.410J-0.513
N26750G3X-32.385Y-86.392I6.786J25.617
N26760G3X-30.750Y-84.899I0.135J1.494
N26770G1Y-78.000
N26780G1X-29.250
N26790G1Y-84.899
N26800G3X-27.615Y-86.392I1.500J0.000
N26810G3X-23.214Y-85.617I-2.385J26.392
N26820G3X-22.189Y-83.653I-0.384J1.450
N26830G1X-24.548Y-77.171
N26840G1X-23.139Y-76.658
N26850G1X-20.779Y-83.140
N26860G3X-18.945Y-84.066I1.410J0.513
N26870G1X-18.732Y-83.985
N26880G1X-17.063Y-83.128
N26890G1X-15.459Y-82.154
N26900G3X-14.862Y-81.751I-14.541J22.154
N26910G3X-14.570Y-79.555I-0.857J1.231
N26920G1X-19.004Y-74.271
N26930G1X-17.855Y-73.307
N26940G1X-13.421Y-78.591
N26950G3X-11.208Y-78.685I1.149J0.964
N26960G3X-8.336Y-75.262I-18.792J18.685
N26970G3X-8.812Y-73.099I-1.226J0.864
N26980G1X-14.787Y-69.650
N26990G1X-14.037Y-68.350
N27000G1X-8.062Y-71.800
N27010G3X-5.951Y-71.131I0.750J1.299
N27020G3X-4.423Y-66.932I-24.049J11.131
N27030G3X-5.610Y-65.062I-1.448J0.392
N27040G1X-12.404Y-63.864
N27050G1X-12.143Y-62.387
N27060G1X-5.349Y-63.585
N27070G3X-3.594Y-62.234I0.260J1.477
N27080G3Y-57.766I-26.406J2.234
N27090G3X-5.349Y-56.415I-1.495J-0.126
N27100G1X-12.143Y-57.613
N27110G1X-12.404Y-56.136
N27120G1X-5.610Y-54.938
N27130G3X-4.423Y-53.068I-0.260J1.477
N27140G3X-5.951Y-48.869I-25.577J-6.932
N27150G3X-8.062Y-48.200I-1.361J-0.630
N27160G1X-14.037Y-51.650
N27170G1X-14.787Y-50.350
N27180G1X-8.812Y-46.901
N27190G3X-8.336Y-44.738I-0.750J1.299
N27200G3X-11.208Y-41.315I-21.664J-15.262
N27210G3X-13.421Y-41.409I-1.064J-1.058
N27220G1X-17.855Y-46.693
N27230G1X-19.004Y-45.729
N27240G1X-14.570Y-40.445
N27250G3X-14.862Y-38.249I-1.149J0.964
N27260G3X-15.685Y-37.699I-15.138J-21.751
N27270G1X-17.181Y-36.807
N27280G1X-18.732Y-36.015
N27290G1Z-0.600F30.0
N27300G1X-18.883Y-35.954F180.0
N27310G1X-19.040Y-35.909
N27320G1X-19.201Y-35.882
N27330G3X-20.779Y-36.860I-0.169J-1.490
N27340G1X-23.139Y-43.342
N27350G1X-24.548Y-42.829
N27360G1X-22.189Y-36.347
N27370G3X-23.214Y-34.383I-1.410J0.513
N27380G3X-27.615Y-33.608I-6.786J-25.617
N27390G3X-29.250Y-35.101I-0.135J-1.494
N27400G1Y-42.000
N27410G1X-30.750
N27420G1Y-35.101
N27430G3X-32.385Y-33.608I-1.500J0.000
N27440G3X-36.786Y-34.383I2.385J-26.392
N27450G3X-37.811Y-36.347I0.384J-1.450
N27460G1X-35.452Y-42.829
N27470G1X-36.861Y-43.342
N27480G1X-39.221Y-36.860
N27490G3X-41.268Y-36.015I-1.410J-0.513
N27500G3X-45.138Y-38.249I11.268J-23.985
N27510G3X-45.430Y-40.445I0.857J-1.231
N27520G1X-40.996Y-45.729
N27530G1X-42.145Y-46.693
N27540G1X-46.579Y-41.409
N27550G3X-48.792Y-41.315I-1.149J-0.964
N27560G3X-51.664Y-44.738I18.792J-18.685
N27570G3X-51.188Y-46.901I1.226J-0.864
N27580G1X-45.213Y-50.350
N27590G1X-45.963Y-51.650
N27600G1X-51.938Y-48.200
N27610G3X-54.049Y-48.869I-0.750J-1.299
N27620G3X-55.577Y-53.068I24.049J-11.131
N27630G3X-54.390Y-54.938I1.448J-0.392
N27640G1X-47.596Y-56.136
N27650G1X-47.857Y-57.613
N27660G1X-54.651Y-56.415
N27670G3X-56.406Y-57.766I-0.260J-1.477
N27680G1X-56.427Y-58.040
N27690G1X-56.500Y-60.039
N27700G1X-56.422Y-62.038
N27710G1X-56.406Y-62.234
N27720G3X-54.651Y-63.585I1.495J0.126
N27730G1X-47.857Y-62.387
N27740G1X-47.596Y-63.864
N27750G1X-54.390Y-65.062
N27760G3X-55.577Y-66.932I0.260J-1.477
N27770G3X-54.049Y-71.131I25.577J6.932
N27780G3X-51.938Y-71.800I1.361J0.630
N27790G1X-45.963Y-68.350
N27800G1X-45.213Y-69.650
N27810G1X-51.188Y-73.099
N27820G3X-51.664Y-75.262I0.750J-1.299
N27830G3X-48.792Y-78.685I21.664J15.262
N27840G3X-46.579Y-78.591I1.064J1.058
N27850G1X-42.145Y-73.307
N27860G1X-40.996Y-74.271
N27870G1X-45.430Y-79.555
N27880G3X-45.138Y-81.751I1.149J-0.964
N27890G3X-41.268Y-83.985I15.138J21.751
N27900G3X-39.221Y-83.140I0.638J1.358
N27910G1X-36.861Y-76.658
N27920G1X-35.452Y-77.171
N27930G1X-37.811Y-83.653
N27940G3X-36.786Y-85.617I1.410J-0.513
N27950G3X-32.385Y-86.392I6.786J25.617
N27960G3X-30.750Y-84.899I0.135J1.494
N27970G1Y-78.000
N27980G1X-29.250
N27990G1Y-84.899
N28000G3X-27.615Y-86.392I1.500J0.000
N28010G3X-23.214Y-85.617I-2.385J26.392
N28020G3X-22.189Y-83.653I-0.384J1.450
N28030G1X-24.548Y-77.171
N28040G1X-23.139Y-76.658
N28050G1X-20.779Y-83.140
N28060G3X-18.945Y-84.066I1.410J0.513
N28070G1X-18.732Y-83.985
N28080G1X-17.063Y-83.128
N28090G1X-15.459Y-82.154
N28100G3X-14.862Y-81.751I-14.541J22.154
N28110G3X-14.570Y-79.555I-0.857J1.231
N28120G1X-19.004Y-74.271
N28130G1X-17.855Y-73.307
N28140G1X-13.421Y-78.591
N28150G3X-11.208Y-78.685I1.149J0.964
N28160G3X-8.336Y-75.262I-18.792J18.685
N28170G3X-8.812Y-73.099I-1.226J0.864
N28180G1X-14.787Y-69.650
N28190G1X-14.037Y-68.350
N28200G1X-8.062Y-71.800
N28210G3X-5.951Y-71.131I0.750J1.299
N28220G3X-4.423Y-66.932I-24.049J11.131
N28230G3X-5.610Y-65.062I-1.448J0.392
N28240G1X-12.404Y-63.864
N28250G1X-12.143Y-62.387
N28260G1X-5.349Y-63.585
N28270G3X-3.594Y-62.234I0.260J1.477
N28280G3Y-57.766I-26.406J2.234
N28290G3X-5.349Y-56.415I-1.495J-0.126
N28300G1X-12.143Y-57.613
N28310G1X-12.404Y-56.136
N28320G1X-5.610Y-54.938
N28330G3X-4.423Y-53.068I-0.260J1.477
N28340G3X-5.951Y-48.869I-25.577J-6.932
N28350G3X-8.062Y-48.200I-1.361J-0.630
N28360G1X-14.037Y-51.650
N28370G1X-14.787Y-50.350
N28380G1X-8.812Y-46.901
N28390G3X-8.336Y-44.738I-0.750J1.299
N28400G3X-11.208Y-41.315I-21.664J-15.262
N28410G3X-13.421Y-41.409I-1.064J-1.058
N28420G1X-17.855Y-46.693
N28430G1X-19.004Y-45.729
N28440G1X-14.570Y-40.445
N28450G3X-14.862Y-38.249I-1.149J0.964
N28460G3X-15.685Y-37.699I-15.138J-21.751
N28470G1X-17.181Y-36.807
N28480G1X-18.732Y-36.015
N28490G1Z-0.700F30.0
N28500G1X-18.883Y-35.954F180.0
N28510G1X-19.040Y-35.909
N28520G1X-19.201Y-35.882
N28530G3X-20.779Y-36.860I-0.169J-1.490
N28540G1X-23.139Y-43.342
N28550G1X-24.548Y-42.829
N28560G1X-22.189Y-36.347
N28570G3X-23.214Y-34.383I-1.410J0.513
N28580G3X-27.615Y-33.608I-6.786J-25.617
N28590G3X-29.250Y-35.101I-0.135J-1.494
N28600G1Y-42.000
N28610G1X-30.750
N28620G1Y-35.101
N28630G3X-32.385Y-33.608I-1.500J0.000
N28640G3X-36.786Y-34.383I2.385J-26.392
N28650G3X-37.811Y-36.347I0.384J-1.450
N28660G1X-35.452Y-42.829
N28670G1X-36.861Y-43.342
N28680G1X-39.221Y-36.860
N28690G3X-41.268Y-36.015I-1.410J-0.513
N28700G3X-45.138Y-38.249I11.268J-23.985
N28710G3X-45.430Y-40.445I0.857J-1.231
N28720G1X-40.996Y-45.729
N28730G1X-42.145Y-46.693
N28740G1X-46.579Y-41.409
N28750G3X-48.792Y-41.315I-1.149J-0.964
N28760G3X-51.664Y-44.738I18.792J-18.685
N28770G3X-51.188Y-46.901I1.226J-0.864
N28780G1X-45.213Y-50.350
N28790G1X-45.963Y-51.650
N28800G1X-51.938Y-48.200
N28810G3X-54.049Y-48.869I-0.750J-1.299
N28820G3X-55.577Y-53.068I24.049J-11.131
N28830G3X-54.390Y-54.938I1.448J-0.392
N28840G1X-47.596Y-56.136
N28850G1X-47.857Y-57.613
N28860G1X-54.651Y-56.415
N28870G3X-56.406Y-57.766I-0.260J-1.477
N28880G1X-56.427Y-58.040
N28890G1X-56.500Y-60.039
N28900G1X-56.422Y-62.038
N28910G1X-56.406Y-62.234
N28920G3X-54.651Y-63.585I1.495J0.126
N28930G1X-47.857Y-62.387
N28940G1X-47.596Y-63.864
N28950G1X-54.390Y-65.062
N28960G3X-55.577Y-66.932I0.260J-1.477
N28970G3X-54.049Y-71.131I25.577J6.932
N28980G3X-51.938Y-71.800I1.361J0.630
N28990G1X-45.963Y-68.350
N29000G1X-45.213Y-69.650
N29010G1X-51.188Y-73.099
N29020G3X-51.664Y-75.262I0.750J-1.299
N29030G3X-48.792Y-78.685I21.664J15.262
N29040G3X-46.579Y-78.591I1.064J1.058
N29050G1X-42.145Y-73.307
N29060G1X-40.996Y-74.271
N29070G1X-45.430Y-79.555
N29080G3X-45.138Y-81.751I1.149J-0.964
N29090G3X-41.268Y-83.985I15.138J21.751
N29100G3X-39.221Y-83.140I0.638J1.358
N29110G1X-36.861Y-76.658
N29120G1X-35.452Y-77.171
N29130G1X-37.811Y-83.653
N29140G3X-36.786Y-85.617I1.410J-0.513
N29150G3X-32.385Y-86.392I6.786J25.617
N29160G3X-30.750Y-84.899I0.135J1.494
N29170G1Y-78.000
N29180G1X-29.250
N29190G1Y-84.899
N29200G3X-27.615Y-86.392I1.500J0.000
N29210G3X-23.214Y-85.617I-2.385J26.392
N29220G3X-22.189Y-83.653I-0.384J1.450
N29230G1X-24.548Y-77.171
N29240G1X-23.139Y-76.658
N29250G1X-20.779Y-83.140
N29260G3X-18.945Y-84.066I1.410J0.513
N29270G1X-18.732Y-83.985
N29280G1X-17.063Y-83.128
N29290G1X-15.459Y-82.154
N29300G3X-14.862Y-81.751I-14.541J22.154
N29310G3X-14.570Y-79.555I-0.857J1.231
N29320G1X-19.004Y-74.271
N29330G1X-17.855Y-73.307
N29340G1X-13.421Y-78.591
N29350G3X-11.208Y-78.685I1.149J0.964
N29360G3X-8.336Y-75.262I-18.792J18.685
N29370G3X-8.812Y-73.099I-1.226J0.864
N29380G1X-14.787Y-69.650
N29390G1X-14.037Y-68.350
N29400G1X-8.062Y-71.800
N29410G3X-5.951Y-71.131I0.750J1.299
N29420G3X-4.423Y-66.932I-24.049J11.131
N29430G3X-5.610Y-65.062I-1.448J0.392
N29440G1X-12.404Y-63.864
N29450G1X-12.143Y-62.387
N29460G1X-5.349Y-63.585
N29470G3X-3.594Y-62.234I0.260J1.477
N29480G3Y-57.766I-26.406J2.234
N29490G3X-5.349Y-56.415I-1.495J-0.126
N29500G1X-12.143Y-57.613
N29510G1X-12.404Y-56.136
N29520G1X-5.610Y-54.938
N29530G3X-4.423Y-53.068I-0.260J1.477
N29540G3X-5.951Y-48.869I-25.577J-6.932
N29550G3X-8.062Y-48.200I-1.361J-0.630
N29560G1X-14.037Y-51.650
N29570G1X-14.787Y-50.350
N29580G1X-8.812Y-46.901
N29590G3X-8.336Y-44.738I-0.750J1.299
N29600G3X-11.208Y-41.315I-21.664J-15.262
N29610G3X-13.421Y-41.409I-1.064J-1.058
N29620G1X-17.855Y-46.693
N29630G1X-19.004Y-45.729
N29640G1X-14.570Y-40.445
N29650G3X-14.862Y-38.249I-1.149J0.964
N29660G3X-15.685Y-37.699I-15.138J-21.751
N29670G1X-17.181Y-36.807
N29680G1X-18.732Y-36.015
N29690G1Z-0.800F30.0
N29700G1X-18.883Y-35.954F180.0
N29710G1X-19.040Y-35.909
N29720G1X-19.201Y-35.882
N29730G3X-20.779Y-36.860I-0.169J-1.490
N29740G1X-23.139Y-43.342
N29750G1X-24.548Y-42.829
N29760G1X-22.189Y-36.347
N29770G3X-23.214Y-34.383I-1.410J0.513
N29780G3X-27.615Y-33.608I-6.786J-25.617
N29790G3X-29.250Y-35.101I-0.135J-1.494
N29800G1Y-42.000
N29810G1X-30.750
N29820G1Y-35.101
N29830G3X-32.385Y-33.608I-1.500J0.000
N29840G3X-36.786Y-34.383I2.385J-26.392
N29850G3X-37.811Y-36.347I0.384J-1.450
N29860G1X-35.452Y-42.829
N29870G1X-36.861Y-43.342
N29880G1X-39.221Y-36.860
N29890G3X-41.268Y-36.015I-1.410J-0.513
N29900G3X-45.138Y-38.249I11.268J-23.985
N29910G3X-45.430Y-40.445I0.857J-1.231
N29920G1X-40.996Y-45.729
N29930G1X-42.145Y-46.693
N29940G1X-46.579Y-41.409
N29950G3X-48.792Y-41.315I-1.149J-0.964
N29960G3X-51.664Y-44.738I18.792J-18.685
N29970G3X-51.188Y-46.901I1.226J-0.864
N29980G1X-45.213Y-50.350
N29990G1X-45.963Y-51.650
N30000G1X-51.938Y-48.200
N30010G3X-54.049Y-48.869I-0.750J-1.299
N30020G3X-55.577Y-53.068I24.049J-11.131
N30030G3X-54.390Y-54.938I1.448J-0.392
N30040G1X-47.596Y-56.136
N30050G1X-47.857Y-57.613
N30060G1X-54.651Y-56.415
N30070G3X-56.406Y-57.766I-0.260J-1.477
N30080G1X-56.427Y-58.040
N30090G1X-56.500Y-60.039
N30100G1X-56.422Y-62.038
N30110G1X-56.406Y-62.234
N30120G3X-54.651Y-63.585I1.495J0.126
N30130G1X-47.857Y-62.387
N30140G1X-47.596Y-63.864
N30150G1X-54.390Y-65.062
N30160G3X-55.577Y-66.932I0.260J-1.477
N30170G3X-54.049Y-71.131I25.577J6.932
N30180G3X-51.938Y-71.800I1.361J0.630
N30190G1X-45.963Y-68.350
N30200G1X-45.213Y-69.650
N30210G1X-51.188Y-73.099
N30220G3X-51.664Y-75.262I0.750J-1.299
N30230G3X-48.792Y-78.685I21.664J15.262
N30240G3X-46.579Y-78.591I1.064J1.058
N30250G1X-42.145Y-73.307
N30260G1X-40.996Y-74.271
N30270G1X-45.430Y-79.555
N30280G3X-45.138Y-81.751I1.149J-0.964
N30290G3X-41.268Y-83.985I15.138J21.751
N30300G3X-39.221Y-83.140I0.638J1.358
N30310G1X-36.861Y-76.658
N30320G1X-35.452Y-77.171
N30330G1X-37.811Y-83.653
N30340G3X-36.786Y-85.617I1.410J-0.513
N30350G3X-32.385Y-86.392I6.786J25.617
N30360G3X-30.750Y-84.899I0.135J1.494
N30370G1Y-78.000
N30380G1X-29.250
N30390G1Y-84.899
N30400G3X-27.615Y-86.392I1.500J0.000
N30410G3X-23.214Y-85.617I-2.385J26.392
N30420G3X-22.189Y-83.653I-0.384J1.450
N30430G1X-24.548Y-77.171
N30440G1X-23.139Y-76.658
N30450G1X-20.779Y-83.140
N30460G3X-18.945Y-84.066I1.410J0.513
N30470G1X-18.732Y-83.985
N30480G1X-17.063Y-83.128
N30490G1X-15.459Y-82.154
N30500G3X-14.862Y-81.751I-14.541J22.154
N30510G3X-14.570Y-79.555I-0.857J1.231
N30520G1X-19.004Y-74.271
N30530G1X-17.855Y-73.307
N30540G1X-13.421Y-78.591
N30550G3X-11.208Y-78.685I1.149J0.964
N30560G3X-8.336Y-75.262I-18.792J18.685
N30570G3X-8.812Y-73.099I-1.226J0.864
N30580G1X-14.787Y-69.650
N30590G1X-14.037Y-68.350
N30600G1X-8.062Y-71.800
N30610G3X-5.951Y-71.131I0.750J1.299
N30620G3X-4.423Y-66.932I-24.049J11.131
N30630G3X-5.610Y-65.062I-1.448J0.392
N30640G1X-12.404Y-63.864
N30650G1X-12.143Y-62.387
N30660G1X-5.349Y-63.585
N30670G3X-3.594Y-62.234I0.260J1.477
N30680G3Y-57.766I-26.406J2.234
N30690G3X-5.349Y-56.415I-1.495J-0.126
N30700G1X-12.143Y-57.613
N30710G1X-12.404Y-56.136
N30720G1X-5.610Y-54.938
N30730G3X-4.423Y-53.068I-0.260J1.477
N30740G3X-5.951Y-48.869I-25.577J-6.932
N30750G3X-8.062Y-48.200I-1.361J-0.630
N30760G1X-14.037Y-51.650
N30770G1X-14.787Y-50.350
N30780G1X-8.812Y-46.901
N30790G3X-8.336Y-44.738I-0.750J1.299
N30800G3X-11.208Y-41.315I-21.664J-15.262
N30810G3X-13.421Y-41.409I-1.064J-1.058
N30820G1X-17.855Y-46.693
N30830G1X-19.004Y-45.729
N30840G1X-14.570Y-40.445
N30850G3X-14.862Y-38.249I-1.149J0.964
N30860G3X-15.685Y-37.699I-15.138J-21.751
N30870G1X-17.181Y-36.807
N30880G1X-18.732Y-36.015
N30890G1Z-0.900F30.0
N30900G1X-18.883Y-35.954F180.0
N30910G1X-19.040Y-35.909
N30920G1X-19.201Y-35.882
N30930G3X-20.779Y-36.860I-0.169J-1.490
N30940G1X-23.139Y-43.342
N30950G1X-24.548Y-42.829
N30960G1X-22.189Y-36.347
N30970G3X-23.214Y-34.383I-1.410J0.513
N30980G3X-27.615Y-33.608I-6.786J-25.617
N30990G3X-29.250Y-35.101I-0.135J-1.494
N31000G1Y-42.000
N31010G1X-30.750
N31020G1Y-35.101
N31030G3X-32.385Y-33.608I-1.500J0.000
N31040G3X-36.786Y-34.383I2.385J-26.392
N31050G3X-37.811Y-36.347I0.384J-1.450
N31060G1X-35.452Y-42.829
N31070G1X-36.861Y-43.342
N31080G1X-39.221Y-36.860
N31090G3X-41.268Y-36.015I-1.410J-0.513
N31100G3X-45.138Y-38.249I11.268J-23.985
N31110G3X-45.430Y-40.445I0.857J-1.231
N31120G1X-40.996Y-45.729
N31130G1X-42.145Y-46.693
N31140G1X-46.579Y-41.409
N31150G3X-48.792Y-41.315I-1.149J-0.964
N31160G3X-51.664Y-44.738I18.792J-18.685
N31170G3X-51.188Y-46.901I1.226J-0.864
N31180G1X-45.213Y-50.350
N31190G1X-45.963Y-51.650
N31200G1X-51.938Y-48.200
N31210G3X-54.049Y-48.869I-0.750J-1.299
N31220G3X-55.577Y-53.068I24.049J-11.131
N31230G3X-54.390Y-54.938I1.448J-0.392
N31240G1X-47.596Y-56.136
N31250G1X-47.857Y-57.613
N31260G1X-54.651Y-56.415
N31270G3X-56.406Y-57.766I-0.260J-1.477
N31280G1X-56.427Y-58.040
N31290G1X-56.500Y-60.039
N31300G1X-56.422Y-62.038
N31310G1X-56.406Y-62.234
N31320G3X-54.651Y-63.585I1.495J0.126
N31330G1X-47.857Y-62.387
N31340G1X-47.596Y-63.864
N31350G1X-54.390Y-65.062
N31360G3X-55.577Y-66.932I0.260J-1.477
N31370G3X-54.049Y-71.131I25.577J6.932
N31380G3X-51.938Y-71.800I1.361J0.630
N31390G1X-45.963Y-68.350
N31400G1X-45.213Y-69.650
N31410G1X-51.188Y-73.099
N31420G3X-51.664Y-75.262I0.750J-1.299
N31430G3X-48.792Y-78.685I21.664J15.262
N31440G3X-46.579Y-78.591I1.064J1.058
N31450G1X-42.145Y-73.307
N31460G1X-40.996Y-74.271
N31470G1X-45.430Y-79.555
N31480G3X-45.138Y-81.751I1.149J-0.964
N31490G3X-41.268Y-83.985I15.138J21.751
N31500G3X-39.221Y-83.140I0.638J1.358
N31510G1X-36.861Y-76.658
N31520G1X-35.452Y-77.171
N31530G1X-37.811Y-83.653
N31540G3X-36.786Y-85.617I1.410J-0.513
N31550G3X-32.385Y-86.392I6.786J25.617
N31560G3X-30.750Y-84.899I0.135J1.494
N31570G1Y-78.000
N31580G1X-29.250
N31590G1Y-84.899
N31600G3X-27.615Y-86.392I1.500J0.000
N31610G3X-23.214Y-85.617I-2.385J26.392
N31620G3X-22.189Y-83.653I-0.384J1.450
N31630G1X-24.548Y-77.171
N31640G1X-23.139Y-76.658
N31650G1X-20.779Y-83.140
N31660G3X-18.945Y-84.066I1.410J0.513
N31670G1X-18.732Y-83.985
N31680G1X-17.063Y-83.128
N31690G1X-15.459Y-82.154
N31700G3X-14.862Y-81.751I-14.541J22.154
N31710G3X-14.570Y-79.555I-0.857J1.231
N31720G1X-19.004Y-74.271
N31730G1X-17.855Y-73.307
N31740G1X-13.421Y-78.591
N31750G3X-11.208Y-78.685I1.149J0.964
N31760G3X-8.336Y-75.262I-18.792J18.685
N31770G3X-8.812Y-73.099I-1.226J0.864
N31780G1X-14.787Y-69.650
N31790G1X-14.037Y-68.350
N31800G1X-8.062Y-71.800
N31810G3X-5.951Y-71.131I0.750J1.299
N31820G3X-4.423Y-66.932I-24.049J11.131
N31830G3X-5.610Y-65.062I-1.448J0.392
N31840G1X-12.404Y-63.864
N31850G1X-12.143Y-62.387
N31860G1X-5.349Y-63.585
N31870G3X-3.594Y-62.234I0.260J1.477
N31880G3Y-57.766I-26.406J2.234
N31890G3X-5.349Y-56.415I-1.495J-0.126
N31900G1X-12.143Y-57.613
N31910G1X-12.404Y-56.136
N31920G1X-5.610Y-54.938
N31930G3X-4.423Y-53.068I-0.260J1.477
N31940G3X-5.951Y-48.869I-25.577J-6.932
N31950G3X-8.062Y-48.200I-1.361J-0.630
N31960G1X-14.037Y-51.650
N31970G1X-14.787Y-50.350
N31980G1X-8.812Y-46.901
N31990G3X-8.336Y-44.738I-0.750J1.299
N32000G3X-11.208Y-41.315I-21.664J-15.262
N32010G3X-13.421Y-41.409I-1.064J-1.058
N32020G1X-17.855Y-46.693
N32030G1X-19.004Y-45.729
N32040G1X-14.570Y-40.445
N32050G3X-14.862Y-38.249I-1.149J0.964
N32060G3X-15.685Y-37.699I-15.138J-21.751
N32070G1X-17.181Y-36.807
N32080G1X-18.732Y-36.015
N32090G1Z-1.000F30.0
N32100G1X-18.883Y-35.954F180.0
N32110G1X-19.040Y-35.909
N32120G1X-19.201Y-35.882
N32130G3X-20.779Y-36.860I-0.169J-1.490
N32140G1X-23.139Y-43.342
N32150G1X-24.548Y-42.829
N32160G1X-22.189Y-36.347
N32170G3X-23.214Y-34.383I-1.410J0.513
N32180G3X-27.615Y-33.608I-6.786J-25.617
N32190G3X-29.250Y-35.101I-0.135J-1.494
N32200G1Y-42.000
N32210G1X-30.750
N32220G1Y-35.101
N32230G3X-32.385Y-33.608I-1.500J0.000
N32240G3X-36.786Y-34.383I2.385J-26.392
N32250G3X-37.811Y-36.347I0.384J-1.450
N32260G1X-35.452Y-42.829
N32270G1X-36.861Y-43.342
N32280G1X-39.221Y-36.860
N32290G3X-41.268Y-36.015I-1.410J-0.513
N32300G3X-45.138Y-38.249I11.268J-23.985
N32310G3X-45.430Y-40.445I0.857J-1.231
N32320G1X-40.996Y-45.729
N32330G1X-42.145Y-46.693
N32340G1X-46.579Y-41.409
N32350G3X-48.792Y-41.315I-1.149J-0.964
N32360G3X-51.664Y-44.738I18.792J-18.685
N32370G3X-51.188Y-46.901I1.226J-0.864
N32380G1X-45.213Y-50.350
N32390G1X-45.963Y-51.650
N32400G1X-51.938Y-48.200
N32410G3X-54.049Y-48.869I-0.750J-1.299
N32420G3X-55.577Y-53.068I24.049J-11.131
N32430G3X-54.390Y-54.938I1.448J-0.392
N32440G1X-47.596Y-56.136
N32450G1X-47.857Y-57.613
N32460G1X-54.651Y-56.415
N32470G3X-56.406Y-57.766I-0.260J-1.477
N32480G1X-56.427Y-58.040
N32490G1X-56.500Y-60.039
N32500G1X-56.422Y-62.038
N32510G1X-56.406Y-62.234
N32520G3X-54.651Y-63.585I1.495J0.126
N32530G1X-47.857Y-62.387
N32540G1X-47.596Y-63.864
N32550G1X-54.390Y-65.062
N32560G3X-55.577Y-66.932I0.260J-1.477
N32570G3X-54.049Y-71.131I25.577J6.932
N32580G3X-51.938Y-71.800I1.361J0.630
N32590G1X-45.963Y-68.350
N32600G1X-45.213Y-69.650
N32610G1X-51.188Y-73.099
N32620G3X-51.664Y-75.262I0.750J-1.299
N32630G3X-48.792Y-78.685I21.664J15.262
N32640G3X-46.579Y-78.591I1.064J1.058
N32650G1X-42.145Y-73.307
N32660G1X-40.996Y-74.271
N32670G1X-45.430Y-79.555
N32680G3X-45.138Y-81.751I1.149J-0.964
N32690G3X-41.268Y-83.985I15.138J21.751
N32700G3X-39.221Y-83.140I0.638J1.358
N32710G1X-36.861Y-76.658
N32720G1X-35.452Y-77.171
N32730G1X-37.811Y-83.653
N32740G3X-36.786Y-85.617I1.410J-0.513
N32750G3X-32.385Y-86.392I6.786J25.617
N32760G3X-30.750Y-84.899I0.135J1.494
N32770G1Y-78.000
N32780G1X-29.250
N32790G1Y-84.899
N32800G3X-27.615Y-86.392I1.500J0.000
N32810G3X-23.214Y-85.617I-2.385J26.392
N32820G3X-22.189Y-83.653I-0.384J1.450
N32830G1X-24.548Y-77.171
N32840G1X-23.139Y-76.658
N32850G1X-20.779Y-83.140
N32860G3X-18.945Y-84.066I1.410J0.513
N32870G1X-18.732Y-83.985
N32880G1X-17.063Y-83.128
N32890G1X-15.459Y-82.154
N32900G3X-14.862Y-81.751I-14.541J22.154
N32910G3X-14.570Y-79.555I-0.857J1.231
N32920G1X-19.004Y-74.271
N32930G1X-17.855Y-73.307
N32940G1X-13.421Y-78.591
N32950G3X-11.208Y-78.685I1.149J0.964
N32960G3X-8.336Y-75.262I-18.792J18.685
N32970G3X-8.812Y-73.099I-1.226J0.864
N32980G1X-14.787Y-69.650
N32990G1X-14.037Y-68.350
N33000G1X-8.062Y-71.800
N33010G3X-5.951Y-71.131I0.750J1.299
N33020G3X-4.423Y-66.932I-24.049J11.131
N33030G3X-5.610Y-65.062I-1.448J0.392
N33040G1X-12.404Y-63.864
N33050G1X-12.143Y-62.387
N33060G1X-5.349Y-63.585
N33070G3X-3.594Y-62.234I0.260J1.477
N33080G3Y-57.766I-26.406J2.234
N33090G3X-5.349Y-56.415I-1.495J-0.126
N33100G1X-12.143Y-57.613
N33110G1X-12.404Y-56.136
N33120G1X-5.610Y-54.938
N33130G3X-4.423Y-53.068I-0.260J1.477
N33140G3X-5.951Y-48.869I-25.577J-6.932
N33150G3X-8.062Y-48.200I-1.361J-0.630
N33160G1X-14.037Y-51.650
N33170G1X-14.787Y-50.350
N33180G1X-8.812Y-46.901
N33190G3X-8.336Y-44.738I-0.750J1.299
N33200G3X-11.208Y-41.315I-21.664J-15.262
N33210G3X-13.421Y-41.409I-1.064J-1.058
N33220G1X-17.855Y-46.693
N33230G1X-19.004Y-45.729
N33240G1X-14.570Y-40.445
N33250G3X-14.862Y-38.249I-1.149J0.964
N33260G3X-15.685Y-37.699I-15.138J-21.751
N33270G1X-17.181Y-36.807
N33280G1X-18.732Y-36.015
N33290G1Z-1.100F30.0
N33300G1X-18.883Y-35.954F180.0
N33310G1X-19.040Y-35.909
N33320G1X-19.201Y-35.882
N33330G3X-20.779Y-36.860I-0.169J-1.490
N33340G1X-23.139Y-43.342
N33350G1X-24.548Y-42.829
N33360G1X-22.189Y-36.347
N33370G3X-23.214Y-34.383I-1.410J0.513
N33380G3X-27.615Y-33.608I-6.786J-25.617
N33390G3X-29.250Y-35.101I-0.135J-1.494
N33400G1Y-42.000
N33410G1X-30.750
N33420G1Y-35.101
N33430G3X-32.385Y-33.608I-1.500J0.000
N33440G3X-36.786Y-34.383I2.385J-26.392
N33450G3X-37.811Y-36.347I0.384J-1.450
N33460G1X-35.452Y-42.829
N33470G1X-36.861Y-43.342
N33480G1X-39.221Y-36.860
N33490G3X-41.268Y-36.015I-1.410J-0.513
N33500G3X-45.138Y-38.249I11.268J-23.985
N33510G3X-45.430Y-40.445I0.857J-1.231
N33520G1X-40.996Y-45.729
N33530G1X-42.145Y-46.693
N33540G1X-46.579Y-41.409
N33550G3X-48.792Y-41.315I-1.149J-0.964
N33560G3X-51.664Y-44.738I18.792J-18.685
N33570G3X-51.188Y-46.901I1.226J-0.864
N33580G1X-45.213Y-50.350
N33590G1X-45.963Y-51.650
N33600G1X-51.938Y-48.200
N33610G3X-54.049Y-48.869I-0.750J-1.299
N33620G3X-55.577Y-53.068I24.049J-11.131
N33630G3X-54.390Y-54.938I1.448J-0.392
N33640G1X-47.596Y-56.136
N33650G1X-47.857Y-57.613
N33660G1X-54.651Y-56.415
N33670G3X-56.406Y-57.766I-0.260J-1.477
N33680G1X-56.427Y-58.040
N33690G1X-56.500Y-60.039
N33700G1X-56.422Y-62.038
N33710G1X-56.406Y-62.234
N33720G3X-54.651Y-63.585I1.495J0.126
N33730G1X-47.857Y-62.387
N33740G1X-47.596Y-63.864
N33750G1X-54.390Y-65.062
N33760G3X-55.577Y-66.932I0.260J-1.477
N33770G3X-54.049Y-71.131I25.577J6.932
N33780G3X-51.938Y-71.800I1.361J0.630
N33790G1X-45.963Y-68.350
N33800G1X-45.213Y-69.650
N33810G1X-51.188Y-73.099
N33820G3X-51.664Y-75.262I0.750J-1.299
N33830G3X-48.792Y-78.685I21.664J15.262
N33840G3X-46.579Y-78.591I1.064J1.058
N33850G1X-42.145Y-73.307
N33860G1X-40.996Y-74.271
N33870G1X-45.430Y-79.555
N33880G3X-45.138Y-81.751I1.149J-0.964
N33890G3X-41.268Y-83.985I15.138J21.751
N33900G3X-39.221Y-83.140I0.638J1.358
N33910G1X-36.861Y-76.658
N33920G1X-35.452Y-77.171
N33930G1X-37.811Y-83.653
N33940G3X-36.786Y-85.617I1.410J-0.513
N33950G3X-32.385Y-86.392I6.786J25.617
N33960G3X-30.750Y-84.899I0.135J1.494
N33970G1Y-78.000
N33980G1X-29.250
N33990G1Y-84.899
N34000G3X-27.615Y-86.392I1.500J0.000
N34010G3X-23.214Y-85.617I-2.385J26.392
N34020G3X-22.189Y-83.653I-0.384J1.450
N34030G1X-24.548Y-77.171
N34040G1X-23.139Y-76.658
N34050G1X-20.779Y-83.140
N34060G3X-18.945Y-84.066I1.410J0.513
N34070G1X-18.732Y-83.985
N34080G1X-17.063Y-83.128
N34090G1X-15.459Y-82.154
N34100G3X-14.862Y-81.751I-14.541J22.154
N34110G3X-14.570Y-79.555I-0.857J1.231
N34120G1X-19.004Y-74.271
N34130G1X-17.855Y-73.307
N34140G1X-13.421Y-78.591
N34150G3X-11.208Y-78.685I1.149J0.964
N34160G3X-8.336Y-75.262I-18.792J18.685
N34170G3X-8.812Y-73.099I-1.226J0.864
N34180G1X-14.787Y-69.650
N34190G1X-14.037Y-68.350
N34200G1X-8.062Y-71.800
N34210G3X-5.951Y-71.131I0.750J1.299
N34220G3X-4.423Y-66.932I-24.049J11.131
N34230G3X-5.610Y-65.062I-1.448J0.392
N34240G1X-12.404Y-63.864
N34250G1X-12.143Y-62.387
N34260G1X-5.349Y-63.585
N34270G3X-3.594Y-62.234I0.260J1.477
N34280G3Y-57.766I-26.406J2.234
N34290G3X-5.349Y-56.415I-1.495J-0.126
N34300G1X-12.143Y-57.613
N34310G1X-12.404Y-56.136
N34320G1X-5.610Y-54.938
N34330G3X-4.423Y-53.068I-0.260J1.477
N34340G3X-5.951Y-48.869I-25.577J-6.932
N34350G3X-8.062Y-48.200I-1.361J-0.630
N34360G1X-14.037Y-51.650
N34370G1X-14.787Y-50.350
N34380G1X-8.812Y-46.901
N34390G3X-8.336Y-44.738I-0.750J1.299
N34400G3X-11.208Y-41.315I-21.664J-15.262
N34410G3X-13.421Y-41.409I-1.064J-1.058
N34420G1X-17.855Y-46.693
N34430G1X-19.004Y-45.729
N34440G1X-14.570Y-40.445
N34450G3X-14.862Y-38.249I-1.149J0.964
N34460G3X-15.685Y-37.699I-15.138J-21.751
N34470G1X-17.181Y-36.807
N34480G1X-18.732Y-36.015
N34490G1Z-1.200F30.0
N34500G1X-18.883Y-35.954F180.0
N34510G1X-19.040Y-35.909
N34520G1X-19.201Y-35.882
N34530G3X-20.779Y-36.860I-0.169J-1.490
N34540G1X-23.139Y-43.342
N34550G1X-24.548Y-42.829
N34560G1X-22.189Y-36.347
N34570G3X-23.214Y-34.383I-1.410J0.513
N34580G3X-27.615Y-33.608I-6.786J-25.617
N34590G3X-29.250Y-35.101I-0.135J-1.494
N34600G1Y-42.000
N34610G1X-30.750
N34620G1Y-35.101
N34630G3X-32.385Y-33.608I-1.500J0.000
N34640G3X-36.786Y-34.383I2.385J-26.392
N34650G3X-37.811Y-36.347I0.384J-1.450
N34660G1X-35.452Y-42.829
N34670G1X-36.861Y-43.342
N34680G1X-39.221Y-36.860
N34690G3X-41.268Y-36.015I-1.410J-0.513
N34700G3X-45.138Y-38.249I11.268J-23.985
N34710G3X-45.430Y-40.445I0.857J-1.231
N34720G1X-40.996Y-45.729
N34730G1X-42.145Y-46.693
N34740G1X-46.579Y-41.409
N34750G3X-48.792Y-41.315I-1.149J-0.964
N34760G3X-51.664Y-44.738I18.792J-18.685
N34770G3X-51.188Y-46.901I1.226J-0.864
N34780G1X-45.213Y-50.350
N34790G1X-45.963Y-51.650
N34800G1X-51.938Y-48.200
N34810G3X-54.049Y-48.869I-0.750J-1.299
N34820G3X-55.577Y-53.068I24.049J-11.131
N34830G3X-54.390Y-54.938I1.448J-0.392
N34840G1X-47.596Y-56.136
N34850G1X-47.857Y-57.613
N34860G1X-54.651Y-56.415
N34870G3X-56.406Y-57.766I-0.260J-1.477
N34880G1X-56.427Y-58.040
N34890G1X-56.500Y-60.039
N34900G1X-56.422Y-62.038
N34910G1X-56.406Y-62.234
N34920G3X-54.651Y-63.585I1.495J0.126
N34930G1X-47.857Y-62.387
N34940G1X-47.596Y-63.864
N34950G1X-54.390Y-65.062
N34960G3X-55.577Y-66.932I0.260J-1.477
N34970G3X-54.049Y-71.131I25.577J6.932
N34980G3X-51.938Y-71.800I1.361J0.630
N34990G1X-45.963Y-68.350
N35000G1X-45.213Y-69.650
N35010G1X-51.188Y-73.099
N35020G3X-51.664Y-75.262I0.750J-1.299
N35030G3X-48.792Y-78.685I21.664J15.262
N35040G3X-46.579Y-78.591I1.064J1.058
N35050G1X-42.145Y-73.307
N35060G1X-40.996Y-74.271
N35070G1X-45.430Y-79.555
