( [iot2][002][omni][maxon][misumi] )
( File created: Tuesday September 24 2024 - 04:41 PM)
( USBCNC Postprocessor )
( Material Size)
( X= 250.000, Y= 250.000, Z= 1.500)
()
(Toolpaths used in this file:)
(ŒŠ‚ ‚¯ 1)
(—ÖŠs 1)
(—ÖŠs 2)
(Tools used in this file: )
(2 = ƒGƒ“ƒhƒ~ƒ‹ {3 mm})
N120G00G21G17G90G40G49
N130G80
N140 (ƒGƒ“ƒhƒ~ƒ‹ {3 mm})
N150G00G43Z20.000H2
N160S3400M03
N170(Toolpath:- ŒŠ‚ ‚¯ 1)
N180()
N190G94
N200X0.000Y0.000F180.0
N210G00X-90.000Y-90.000Z6.000
N220G1Z-0.100F30.0
N230G00Z0.000
N240G1Z-0.200F30.0
N250G00Z0.000
N260G1Z-0.300F30.0
N270G00Z0.000
N280G1Z-0.400F30.0
N290G00Z0.000
N300G1Z-0.500F30.0
N310G00Z0.000
N320G1Z-0.600F30.0
N330G00Z0.000
N340G1Z-0.700F30.0
N350G00Z0.000
N360G1Z-0.800F30.0
N370G00Z0.000
N380G1Z-0.900F30.0
N390G00Z0.000
N400G1Z-1.000F30.0
N410G00Z0.000
N420G1Z-1.100F30.0
N430G00Z0.000
N440G1Z-1.200F30.0
N450G00Z0.000
N460G1Z-1.300F30.0
N470G00Z0.000
N480G1Z-1.400F30.0
N490G00Z0.000
N500G1Z-1.500F30.0
N510G00Z0.000
N520G1Z-1.600F30.0
N530G00Z0.000
N540G1Z-1.700F30.0
N550G00Z0.000
N560G1Z-1.800F30.0
N570G00Z6.000
N580G00X-93.889Y-93.889
N590G1Z-0.100F30.0
N600G00Z0.000
N610G1Z-0.200F30.0
N620G00Z0.000
N630G1Z-0.300F30.0
N640G00Z0.000
N650G1Z-0.400F30.0
N660G00Z0.000
N670G1Z-0.500F30.0
N680G00Z0.000
N690G1Z-0.600F30.0
N700G00Z0.000
N710G1Z-0.700F30.0
N720G00Z0.000
N730G1Z-0.800F30.0
N740G00Z0.000
N750G1Z-0.900F30.0
N760G00Z0.000
N770G1Z-1.000F30.0
N780G00Z0.000
N790G1Z-1.100F30.0
N800G00Z0.000
N810G1Z-1.200F30.0
N820G00Z0.000
N830G1Z-1.300F30.0
N840G00Z0.000
N850G1Z-1.400F30.0
N860G00Z0.000
N870G1Z-1.500F30.0
N880G00Z0.000
N890G1Z-1.600F30.0
N900G00Z0.000
N910G1Z-1.700F30.0
N920G00Z0.000
N930G1Z-1.800F30.0
N940G00Z6.000
N950G00Y-86.111
N960G1Z-0.100F30.0
N970G00Z0.000
N980G1Z-0.200F30.0
N990G00Z0.000
N1000G1Z-0.300F30.0
N1010G00Z0.000
N1020G1Z-0.400F30.0
N1030G00Z0.000
N1040G1Z-0.500F30.0
N1050G00Z0.000
N1060G1Z-0.600F30.0
N1070G00Z0.000
N1080G1Z-0.700F30.0
N1090G00Z0.000
N1100G1Z-0.800F30.0
N1110G00Z0.000
N1120G1Z-0.900F30.0
N1130G00Z0.000
N1140G1Z-1.000F30.0
N1150G00Z0.000
N1160G1Z-1.100F30.0
N1170G00Z0.000
N1180G1Z-1.200F30.0
N1190G00Z0.000
N1200G1Z-1.300F30.0
N1210G00Z0.000
N1220G1Z-1.400F30.0
N1230G00Z0.000
N1240G1Z-1.500F30.0
N1250G00Z0.000
N1260G1Z-1.600F30.0
N1270G00Z0.000
N1280G1Z-1.700F30.0
N1290G00Z0.000
N1300G1Z-1.800F30.0
N1310G00Z6.000
N1320G00X-86.111
N1330G1Z-0.100F30.0
N1340G00Z0.000
N1350G1Z-0.200F30.0
N1360G00Z0.000
N1370G1Z-0.300F30.0
N1380G00Z0.000
N1390G1Z-0.400F30.0
N1400G00Z0.000
N1410G1Z-0.500F30.0
N1420G00Z0.000
N1430G1Z-0.600F30.0
N1440G00Z0.000
N1450G1Z-0.700F30.0
N1460G00Z0.000
N1470G1Z-0.800F30.0
N1480G00Z0.000
N1490G1Z-0.900F30.0
N1500G00Z0.000
N1510G1Z-1.000F30.0
N1520G00Z0.000
N1530G1Z-1.100F30.0
N1540G00Z0.000
N1550G1Z-1.200F30.0
N1560G00Z0.000
N1570G1Z-1.300F30.0
N1580G00Z0.000
N1590G1Z-1.400F30.0
N1600G00Z0.000
N1610G1Z-1.500F30.0
N1620G00Z0.000
N1630G1Z-1.600F30.0
N1640G00Z0.000
N1650G1Z-1.700F30.0
N1660G00Z0.000
N1670G1Z-1.800F30.0
N1680G00Z6.000
N1690G00Y-93.889
N1700G1Z-0.100F30.0
N1710G00Z0.000
N1720G1Z-0.200F30.0
N1730G00Z0.000
N1740G1Z-0.300F30.0
N1750G00Z0.000
N1760G1Z-0.400F30.0
N1770G00Z0.000
N1780G1Z-0.500F30.0
N1790G00Z0.000
N1800G1Z-0.600F30.0
N1810G00Z0.000
N1820G1Z-0.700F30.0
N1830G00Z0.000
N1840G1Z-0.800F30.0
N1850G00Z0.000
N1860G1Z-0.900F30.0
N1870G00Z0.000
N1880G1Z-1.000F30.0
N1890G00Z0.000
N1900G1Z-1.100F30.0
N1910G00Z0.000
N1920G1Z-1.200F30.0
N1930G00Z0.000
N1940G1Z-1.300F30.0
N1950G00Z0.000
N1960G1Z-1.400F30.0
N1970G00Z0.000
N1980G1Z-1.500F30.0
N1990G00Z0.000
N2000G1Z-1.600F30.0
N2010G00Z0.000
N2020G1Z-1.700F30.0
N2030G00Z0.000
N2040G1Z-1.800F30.0
N2050G00Z6.000
N2060G00X-33.889
N2070G1Z-0.100F30.0
N2080G00Z0.000
N2090G1Z-0.200F30.0
N2100G00Z0.000
N2110G1Z-0.300F30.0
N2120G00Z0.000
N2130G1Z-0.400F30.0
N2140G00Z0.000
N2150G1Z-0.500F30.0
N2160G00Z0.000
N2170G1Z-0.600F30.0
N2180G00Z0.000
N2190G1Z-0.700F30.0
N2200G00Z0.000
N2210G1Z-0.800F30.0
N2220G00Z0.000
N2230G1Z-0.900F30.0
N2240G00Z0.000
N2250G1Z-1.000F30.0
N2260G00Z0.000
N2270G1Z-1.100F30.0
N2280G00Z0.000
N2290G1Z-1.200F30.0
N2300G00Z0.000
N2310G1Z-1.300F30.0
N2320G00Z0.000
N2330G1Z-1.400F30.0
N2340G00Z0.000
N2350G1Z-1.500F30.0
N2360G00Z0.000
N2370G1Z-1.600F30.0
N2380G00Z0.000
N2390G1Z-1.700F30.0
N2400G00Z0.000
N2410G1Z-1.800F30.0
N2420G00Z6.000
N2430G00Y-86.111
N2440G1Z-0.100F30.0
N2450G00Z0.000
N2460G1Z-0.200F30.0
N2470G00Z0.000
N2480G1Z-0.300F30.0
N2490G00Z0.000
N2500G1Z-0.400F30.0
N2510G00Z0.000
N2520G1Z-0.500F30.0
N2530G00Z0.000
N2540G1Z-0.600F30.0
N2550G00Z0.000
N2560G1Z-0.700F30.0
N2570G00Z0.000
N2580G1Z-0.800F30.0
N2590G00Z0.000
N2600G1Z-0.900F30.0
N2610G00Z0.000
N2620G1Z-1.000F30.0
N2630G00Z0.000
N2640G1Z-1.100F30.0
N2650G00Z0.000
N2660G1Z-1.200F30.0
N2670G00Z0.000
N2680G1Z-1.300F30.0
N2690G00Z0.000
N2700G1Z-1.400F30.0
N2710G00Z0.000
N2720G1Z-1.500F30.0
N2730G00Z0.000
N2740G1Z-1.600F30.0
N2750G00Z0.000
N2760G1Z-1.700F30.0
N2770G00Z0.000
N2780G1Z-1.800F30.0
N2790G00Z6.000
N2800G00X-30.000Y-90.000
N2810G1Z-0.100F30.0
N2820G00Z0.000
N2830G1Z-0.200F30.0
N2840G00Z0.000
N2850G1Z-0.300F30.0
N2860G00Z0.000
N2870G1Z-0.400F30.0
N2880G00Z0.000
N2890G1Z-0.500F30.0
N2900G00Z0.000
N2910G1Z-0.600F30.0
N2920G00Z0.000
N2930G1Z-0.700F30.0
N2940G00Z0.000
N2950G1Z-0.800F30.0
N2960G00Z0.000
N2970G1Z-0.900F30.0
N2980G00Z0.000
N2990G1Z-1.000F30.0
N3000G00Z0.000
N3010G1Z-1.100F30.0
N3020G00Z0.000
N3030G1Z-1.200F30.0
N3040G00Z0.000
N3050G1Z-1.300F30.0
N3060G00Z0.000
N3070G1Z-1.400F30.0
N3080G00Z0.000
N3090G1Z-1.500F30.0
N3100G00Z0.000
N3110G1Z-1.600F30.0
N3120G00Z0.000
N3130G1Z-1.700F30.0
N3140G00Z0.000
N3150G1Z-1.800F30.0
N3160G00Z6.000
N3170G00X-26.111Y-93.889
N3180G1Z-0.100F30.0
N3190G00Z0.000
N3200G1Z-0.200F30.0
N3210G00Z0.000
N3220G1Z-0.300F30.0
N3230G00Z0.000
N3240G1Z-0.400F30.0
N3250G00Z0.000
N3260G1Z-0.500F30.0
N3270G00Z0.000
N3280G1Z-0.600F30.0
N3290G00Z0.000
N3300G1Z-0.700F30.0
N3310G00Z0.000
N3320G1Z-0.800F30.0
N3330G00Z0.000
N3340G1Z-0.900F30.0
N3350G00Z0.000
N3360G1Z-1.000F30.0
N3370G00Z0.000
N3380G1Z-1.100F30.0
N3390G00Z0.000
N3400G1Z-1.200F30.0
N3410G00Z0.000
N3420G1Z-1.300F30.0
N3430G00Z0.000
N3440G1Z-1.400F30.0
N3450G00Z0.000
N3460G1Z-1.500F30.0
N3470G00Z0.000
N3480G1Z-1.600F30.0
N3490G00Z0.000
N3500G1Z-1.700F30.0
N3510G00Z0.000
N3520G1Z-1.800F30.0
N3530G00Z6.000
N3540G00Y-86.111
N3550G1Z-0.100F30.0
N3560G00Z0.000
N3570G1Z-0.200F30.0
N3580G00Z0.000
N3590G1Z-0.300F30.0
N3600G00Z0.000
N3610G1Z-0.400F30.0
N3620G00Z0.000
N3630G1Z-0.500F30.0
N3640G00Z0.000
N3650G1Z-0.600F30.0
N3660G00Z0.000
N3670G1Z-0.700F30.0
N3680G00Z0.000
N3690G1Z-0.800F30.0
N3700G00Z0.000
N3710G1Z-0.900F30.0
N3720G00Z0.000
N3730G1Z-1.000F30.0
N3740G00Z0.000
N3750G1Z-1.100F30.0
N3760G00Z0.000
N3770G1Z-1.200F30.0
N3780G00Z0.000
N3790G1Z-1.300F30.0
N3800G00Z0.000
N3810G1Z-1.400F30.0
N3820G00Z0.000
N3830G1Z-1.500F30.0
N3840G00Z0.000
N3850G1Z-1.600F30.0
N3860G00Z0.000
N3870G1Z-1.700F30.0
N3880G00Z0.000
N3890G1Z-1.800F30.0
N3900G00Z6.000
N3910S3400M03
(—ÖŠs 1)
()
N3940G00X-27.483Y-78.111Z6.000
N3950G1Z-0.100F30.0
N3960G2X-23.794Y-79.551I-2.517J-11.889F180.0
N3970G1X-25.404Y-81.161
N3980G3X-30.000Y-82.968I-0.707J-4.950
N3990G3X-34.596Y-81.161I-3.889J-3.142
N4000G1X-36.206Y-79.551
N4010G2X-31.482Y-77.938I6.206J-10.449
N4020G1X-30.147Y-77.848
N4030G1X-28.805Y-77.906
N4040G1X-27.483Y-78.111
N4050G1Z-0.200F30.0
N4060G2X-23.794Y-79.551I-2.517J-11.889F180.0
N4070G1X-25.404Y-81.161
N4080G3X-30.000Y-82.968I-0.707J-4.950
N4090G3X-34.596Y-81.161I-3.889J-3.142
N4100G1X-36.206Y-79.551
N4110G2X-31.482Y-77.938I6.206J-10.449
N4120G1X-30.147Y-77.848
N4130G1X-28.805Y-77.906
N4140G1X-27.483Y-78.111
N4150G1Z-0.300F30.0
N4160G2X-23.794Y-79.551I-2.517J-11.889F180.0
N4170G1X-25.404Y-81.161
N4180G3X-30.000Y-82.968I-0.707J-4.950
N4190G3X-34.596Y-81.161I-3.889J-3.142
N4200G1X-36.206Y-79.551
N4210G2X-31.482Y-77.938I6.206J-10.449
N4220G1X-30.147Y-77.848
N4230G1X-28.805Y-77.906
N4240G1X-27.483Y-78.111
N4250G1Z-0.400F30.0
N4260G2X-23.794Y-79.551I-2.517J-11.889F180.0
N4270G1X-25.404Y-81.161
N4280G3X-30.000Y-82.968I-0.707J-4.950
N4290G3X-34.596Y-81.161I-3.889J-3.142
N4300G1X-36.206Y-79.551
N4310G2X-31.482Y-77.938I6.206J-10.449
N4320G1X-30.147Y-77.848
N4330G1X-28.805Y-77.906
N4340G1X-27.483Y-78.111
N4350G1Z-0.500F30.0
N4360G2X-23.794Y-79.551I-2.517J-11.889F180.0
N4370G1X-25.404Y-81.161
N4380G3X-30.000Y-82.968I-0.707J-4.950
N4390G3X-34.596Y-81.161I-3.889J-3.142
N4400G1X-36.206Y-79.551
N4410G2X-31.482Y-77.938I6.206J-10.449
N4420G1X-30.147Y-77.848
N4430G1X-28.805Y-77.906
N4440G1X-27.483Y-78.111
N4450G1Z-0.600F30.0
N4460G2X-23.794Y-79.551I-2.517J-11.889F180.0
N4470G1X-25.404Y-81.161
N4480G3X-30.000Y-82.968I-0.707J-4.950
N4490G3X-34.596Y-81.161I-3.889J-3.142
N4500G1X-36.206Y-79.551
N4510G2X-31.482Y-77.938I6.206J-10.449
N4520G1X-30.147Y-77.848
N4530G1X-28.805Y-77.906
N4540G1X-27.483Y-78.111
N4550G1Z-0.700F30.0
N4560G2X-23.794Y-79.551I-2.517J-11.889F180.0
N4570G1X-25.404Y-81.161
N4580G3X-30.000Y-82.968I-0.707J-4.950
N4590G3X-34.596Y-81.161I-3.889J-3.142
N4600G1X-36.206Y-79.551
N4610G2X-31.482Y-77.938I6.206J-10.449
N4620G1X-30.147Y-77.848
N4630G1X-28.805Y-77.906
N4640G1X-27.483Y-78.111
N4650G1Z-0.800F30.0
N4660G2X-23.794Y-79.551I-2.517J-11.889F180.0
N4670G1X-25.404Y-81.161
N4680G3X-30.000Y-82.968I-0.707J-4.950
N4690G3X-34.596Y-81.161I-3.889J-3.142
N4700G1X-36.206Y-79.551
N4710G2X-31.482Y-77.938I6.206J-10.449
N4720G1X-30.147Y-77.848
N4730G1X-28.805Y-77.906
N4740G1X-27.483Y-78.111
N4750G1Z-0.900F30.0
N4760G2X-23.794Y-79.551I-2.517J-11.889F180.0
N4770G1X-25.404Y-81.161
N4780G3X-30.000Y-82.968I-0.707J-4.950
N4790G3X-34.596Y-81.161I-3.889J-3.142
N4800G1X-36.206Y-79.551
N4810G2X-31.482Y-77.938I6.206J-10.449
N4820G1X-30.147Y-77.848
N4830G1X-28.805Y-77.906
N4840G1X-27.483Y-78.111
N4850G1Z-1.000F30.0
N4860G2X-23.794Y-79.551I-2.517J-11.889F180.0
N4870G1X-25.404Y-81.161
N4880G3X-30.000Y-82.968I-0.707J-4.950
N4890G3X-34.596Y-81.161I-3.889J-3.142
N4900G1X-36.206Y-79.551
N4910G2X-31.482Y-77.938I6.206J-10.449
N4920G1X-30.147Y-77.848
N4930G1X-28.805Y-77.906
N4940G1X-27.483Y-78.111
N4950G1Z-1.100F30.0
N4960G2X-23.794Y-79.551I-2.517J-11.889F180.0
N4970G1X-25.404Y-81.161
N4980G3X-30.000Y-82.968I-0.707J-4.950
N4990G3X-34.596Y-81.161I-3.889J-3.142
N5000G1X-36.206Y-79.551
N5010G2X-31.482Y-77.938I6.206J-10.449
N5020G1X-30.147Y-77.848
N5030G1X-28.805Y-77.906
N5040G1X-27.483Y-78.111
N5050G1Z-1.200F30.0
N5060G2X-23.794Y-79.551I-2.517J-11.889F180.0
N5070G1X-25.404Y-81.161
N5080G3X-30.000Y-82.968I-0.707J-4.950
N5090G3X-34.596Y-81.161I-3.889J-3.142
N5100G1X-36.206Y-79.551
N5110G2X-31.482Y-77.938I6.206J-10.449
N5120G1X-30.147Y-77.848Z-1.200
N5130G1X-28.805Y-77.906
N5140G1X-27.483Y-78.111
N5150G1Z-1.300F30.0
N5160G2X-23.794Y-79.551I-2.517J-11.889F180.0
N5170G1X-25.404Y-81.161
N5180G3X-30.000Y-82.968I-0.707J-4.950
N5190G3X-34.596Y-81.161I-3.889J-3.142
N5200G1X-36.206Y-79.551
N5210G2X-31.482Y-77.938I6.206J-10.449
N5220G1Z-1.200
N5230G1X-30.147Y-77.848
N5240G1X-28.805Y-77.906
N5250G1X-27.483Y-78.111
N5260G1Z-1.400F30.0
N5270G2X-23.794Y-79.551I-2.517J-11.889F180.0
N5280G1X-25.404Y-81.161
N5290G3X-30.000Y-82.968I-0.707J-4.950
N5300G3X-34.596Y-81.161I-3.889J-3.142
N5310G1X-36.206Y-79.551
N5320G2X-31.482Y-77.938I6.206J-10.449
N5330G1Z-1.200
N5340G1X-30.147Y-77.848
N5350G1X-28.805Y-77.906
N5360G1X-27.483Y-78.111
N5370G1Z-1.500F30.0
N5380G2X-23.794Y-79.551I-2.517J-11.889F180.0
N5390G1X-25.404Y-81.161
N5400G3X-30.000Y-82.968I-0.707J-4.950
N5410G3X-34.596Y-81.161I-3.889J-3.142
N5420G1X-36.206Y-79.551
N5430G2X-31.482Y-77.938I6.206J-10.449
N5440G1Z-1.200
N5450G1X-30.147Y-77.848
N5460G1X-28.805Y-77.906
N5470G1X-27.483Y-78.111
N5480G1Z-1.600F30.0
N5490G2X-23.794Y-79.551I-2.517J-11.889F180.0
N5500G1X-25.404Y-81.161
N5510G3X-30.000Y-82.968I-0.707J-4.950
N5520G3X-34.596Y-81.161I-3.889J-3.142
N5530G1X-36.206Y-79.551
N5540G2X-31.482Y-77.938I6.206J-10.449
N5550G1Z-1.200
N5560G1X-30.147Y-77.848
N5570G1X-28.805Y-77.906
N5580G1X-27.483Y-78.111
N5590G1Z-1.700F30.0
N5600G2X-23.794Y-79.551I-2.517J-11.889F180.0
N5610G1X-25.404Y-81.161
N5620G3X-30.000Y-82.968I-0.707J-4.950
N5630G3X-34.596Y-81.161I-3.889J-3.142
N5640G1X-36.206Y-79.551
N5650G2X-31.482Y-77.938I6.206J-10.449
N5660G1Z-1.200
N5670G1X-30.147Y-77.848
N5680G1X-28.805Y-77.906
N5690G1X-27.483Y-78.111
N5700G1Z-1.800F30.0
N5710G2X-23.794Y-79.551I-2.517J-11.889F180.0
N5720G1X-25.404Y-81.161
N5730G3X-30.000Y-82.968I-0.707J-4.950
N5740G3X-34.596Y-81.161I-3.889J-3.142
N5750G1X-36.206Y-79.551
N5760G2X-31.482Y-77.938I6.206J-10.449
N5770G1Z-1.200
N5780G1X-30.147Y-77.848
N5790G1X-28.805Y-77.906
N5800G1X-27.483Y-78.111
N5810G1Z-1.900F30.0
N5820G2X-23.794Y-79.551I-2.517J-11.889F180.0
N5830G1X-25.404Y-81.161
N5840G3X-30.000Y-82.968I-0.707J-4.950
N5850G3X-34.596Y-81.161I-3.889J-3.142
N5860G1X-36.206Y-79.551
N5870G2X-31.482Y-77.938I6.206J-10.449
N5880G1Z-1.200
N5890G1X-30.147Y-77.848
N5900G1X-28.805Y-77.906
N5910G1X-27.483Y-78.111
N5920G00Z6.000
N5930G00X-21.161Y-85.404
N5940G1Z-0.100F30.0
N5950G1X-19.551Y-83.794F180.0
N5960G2X-18.004Y-88.056I-10.449J-6.206
N5970G1X-17.863Y-89.387
N5980G1X-17.869Y-90.730
N5990G1X-18.023Y-92.059
N6000G2X-19.551Y-96.206I-11.977J2.059
N6010G1X-21.161Y-94.596
N6020G3X-22.968Y-90.000I-4.950J0.707
N6030G3X-21.161Y-85.404I-3.142J3.889
N6040G1Z-0.200F30.0
N6050G1X-19.551Y-83.794F180.0
N6060G2X-18.004Y-88.056I-10.449J-6.206
N6070G1X-17.863Y-89.387
N6080G1X-17.869Y-90.730
N6090G1X-18.023Y-92.059
N6100G2X-19.551Y-96.206I-11.977J2.059
N6110G1X-21.161Y-94.596
N6120G3X-22.968Y-90.000I-4.950J0.707
N6130G3X-21.161Y-85.404I-3.142J3.889
N6140G1Z-0.300F30.0
N6150G1X-19.551Y-83.794F180.0
N6160G2X-18.004Y-88.056I-10.449J-6.206
N6170G1X-17.863Y-89.387
N6180G1X-17.869Y-90.730
N6190G1X-18.023Y-92.059
N6200G2X-19.551Y-96.206I-11.977J2.059
N6210G1X-21.161Y-94.596
N6220G3X-22.968Y-90.000I-4.950J0.707
N6230G3X-21.161Y-85.404I-3.142J3.889
N6240G1Z-0.400F30.0
N6250G1X-19.551Y-83.794F180.0
N6260G2X-18.004Y-88.056I-10.449J-6.206
N6270G1X-17.863Y-89.387
N6280G1X-17.869Y-90.730
N6290G1X-18.023Y-92.059
N6300G2X-19.551Y-96.206I-11.977J2.059
N6310G1X-21.161Y-94.596
N6320G3X-22.968Y-90.000I-4.950J0.707
N6330G3X-21.161Y-85.404I-3.142J3.889
N6340G1Z-0.500F30.0
N6350G1X-19.551Y-83.794F180.0
N6360G2X-18.004Y-88.056I-10.449J-6.206
N6370G1X-17.863Y-89.387
N6380G1X-17.869Y-90.730
N6390G1X-18.023Y-92.059
N6400G2X-19.551Y-96.206I-11.977J2.059
N6410G1X-21.161Y-94.596
N6420G3X-22.968Y-90.000I-4.950J0.707
N6430G3X-21.161Y-85.404I-3.142J3.889
N6440G1Z-0.600F30.0
N6450G1X-19.551Y-83.794F180.0
N6460G2X-18.004Y-88.056I-10.449J-6.206
N6470G1X-17.863Y-89.387
N6480G1X-17.869Y-90.730
N6490G1X-18.023Y-92.059
N6500G2X-19.551Y-96.206I-11.977J2.059
N6510G1X-21.161Y-94.596
N6520G3X-22.968Y-90.000I-4.950J0.707
N6530G3X-21.161Y-85.404I-3.142J3.889
N6540G1Z-0.700F30.0
N6550G1X-19.551Y-83.794F180.0
N6560G2X-18.004Y-88.056I-10.449J-6.206
N6570G1X-17.863Y-89.387
N6580G1X-17.869Y-90.730
N6590G1X-18.023Y-92.059
N6600G2X-19.551Y-96.206I-11.977J2.059
N6610G1X-21.161Y-94.596
N6620G3X-22.968Y-90.000I-4.950J0.707
N6630G3X-21.161Y-85.404I-3.142J3.889
N6640G1Z-0.800F30.0
N6650G1X-19.551Y-83.794F180.0
N6660G2X-18.004Y-88.056I-10.449J-6.206
N6670G1X-17.863Y-89.387
N6680G1X-17.869Y-90.730
N6690G1X-18.023Y-92.059
N6700G2X-19.551Y-96.206I-11.977J2.059
N6710G1X-21.161Y-94.596
N6720G3X-22.968Y-90.000I-4.950J0.707
N6730G3X-21.161Y-85.404I-3.142J3.889
N6740G1Z-0.900F30.0
N6750G1X-19.551Y-83.794F180.0
N6760G2X-18.004Y-88.056I-10.449J-6.206
N6770G1X-17.863Y-89.387
N6780G1X-17.869Y-90.730
N6790G1X-18.023Y-92.059
N6800G2X-19.551Y-96.206I-11.977J2.059
N6810G1X-21.161Y-94.596
N6820G3X-22.968Y-90.000I-4.950J0.707
N6830G3X-21.161Y-85.404I-3.142J3.889
N6840G1Z-1.000F30.0
N6850G1X-19.551Y-83.794F180.0
N6860G2X-18.004Y-88.056I-10.449J-6.206
N6870G1X-17.863Y-89.387
N6880G1X-17.869Y-90.730
N6890G1X-18.023Y-92.059
N6900G2X-19.551Y-96.206I-11.977J2.059
N6910G1X-21.161Y-94.596
N6920G3X-22.968Y-90.000I-4.950J0.707
N6930G3X-21.161Y-85.404I-3.142J3.889
N6940G1Z-1.100F30.0
N6950G1X-19.551Y-83.794F180.0
N6960G2X-18.004Y-88.056I-10.449J-6.206
N6970G1X-17.863Y-89.387
N6980G1X-17.869Y-90.730
N6990G1X-18.023Y-92.059
N7000G2X-19.551Y-96.206I-11.977J2.059
N7010G1X-21.161Y-94.596
N7020G3X-22.968Y-90.000I-4.950J0.707
N7030G3X-21.161Y-85.404I-3.142J3.889
N7040G1Z-1.200F30.0
N7050G1X-19.551Y-83.794F180.0
N7060G2X-18.004Y-88.056I-10.449J-6.206
N7070G1X-17.863Y-89.387Z-1.200
N7080G1X-17.869Y-90.730
N7090G1X-18.023Y-92.059
N7100G2X-19.551Y-96.206I-11.977J2.059
N7110G1X-21.161Y-94.596
N7120G3X-22.968Y-90.000I-4.950J0.707
N7130G3X-21.161Y-85.404I-3.142J3.889
N7140G1Z-1.300F30.0
N7150G1X-19.551Y-83.794F180.0
N7160G2X-18.004Y-88.056I-10.449J-6.206
N7170G1Z-1.200
N7180G1X-17.863Y-89.387
N7190G1X-17.869Y-90.730
N7200G1X-18.023Y-92.059
N7210G1Z-1.300F30.0
N7220G2X-19.551Y-96.206I-11.977J2.059F180.0
N7230G1X-21.161Y-94.596
N7240G3X-22.968Y-90.000I-4.950J0.707
N7250G3X-21.161Y-85.404I-3.142J3.889
N7260G1Z-1.400F30.0
N7270G1X-19.551Y-83.794F180.0
N7280G2X-18.004Y-88.056I-10.449J-6.206
N7290G1Z-1.200
N7300G1X-17.863Y-89.387
N7310G1X-17.869Y-90.730
N7320G1X-18.023Y-92.059
N7330G1Z-1.400F30.0
N7340G2X-19.551Y-96.206I-11.977J2.059F180.0
N7350G1X-21.161Y-94.596
N7360G3X-22.968Y-90.000I-4.950J0.707
N7370G3X-21.161Y-85.404I-3.142J3.889
N7380G1Z-1.500F30.0
N7390G1X-19.551Y-83.794F180.0
N7400G2X-18.004Y-88.056I-10.449J-6.206
N7410G1Z-1.200
N7420G1X-17.863Y-89.387
N7430G1X-17.869Y-90.730
N7440G1X-18.023Y-92.059
N7450G1Z-1.500F30.0
N7460G2X-19.551Y-96.206I-11.977J2.059F180.0
N7470G1X-21.161Y-94.596
N7480G3X-22.968Y-90.000I-4.950J0.707
N7490G3X-21.161Y-85.404I-3.142J3.889
N7500G1Z-1.600F30.0
N7510G1X-19.551Y-83.794F180.0
N7520G2X-18.004Y-88.056I-10.449J-6.206
N7530G1Z-1.200
N7540G1X-17.863Y-89.387
N7550G1X-17.869Y-90.730
N7560G1X-18.023Y-92.059
N7570G1Z-1.600F30.0
N7580G2X-19.551Y-96.206I-11.977J2.059F180.0
N7590G1X-21.161Y-94.596
N7600G3X-22.968Y-90.000I-4.950J0.707
N7610G3X-21.161Y-85.404I-3.142J3.889
N7620G1Z-1.700F30.0
N7630G1X-19.551Y-83.794F180.0
N7640G2X-18.004Y-88.056I-10.449J-6.206
N7650G1Z-1.200
N7660G1X-17.863Y-89.387
N7670G1X-17.869Y-90.730
N7680G1X-18.023Y-92.059
N7690G1Z-1.700F30.0
N7700G2X-19.551Y-96.206I-11.977J2.059F180.0
N7710G1X-21.161Y-94.596
N7720G3X-22.968Y-90.000I-4.950J0.707
N7730G3X-21.161Y-85.404I-3.142J3.889
N7740G1Z-1.800F30.0
N7750G1X-19.551Y-83.794F180.0
N7760G2X-18.004Y-88.056I-10.449J-6.206
N7770G1Z-1.200
N7780G1X-17.863Y-89.387
N7790G1X-17.869Y-90.730
N7800G1X-18.023Y-92.059
N7810G1Z-1.800F30.0
N7820G2X-19.551Y-96.206I-11.977J2.059F180.0
N7830G1X-21.161Y-94.596
N7840G3X-22.968Y-90.000I-4.950J0.707
N7850G3X-21.161Y-85.404I-3.142J3.889
N7860G1Z-1.900F30.0
N7870G1X-19.551Y-83.794F180.0
N7880G2X-18.004Y-88.056I-10.449J-6.206
N7890G1Z-1.200
N7900G1X-17.863Y-89.387
N7910G1X-17.869Y-90.730
N7920G1X-18.023Y-92.059
N7930G1Z-1.900F30.0
N7940G2X-19.551Y-96.206I-11.977J2.059F180.0
N7950G1X-21.161Y-94.596
N7960G3X-22.968Y-90.000I-4.950J0.707
N7970G3X-21.161Y-85.404I-3.142J3.889
N7980G00Z6.000
N7990G00X-25.439Y-98.844
N8000G1Z-0.100F30.0
N8010G1X-23.794Y-100.449F180.0
N8020G2X-27.553Y-101.904I-6.206J10.449
N8030G1X-28.877Y-102.101
N8040G1X-30.218Y-102.151
N8050G1X-31.553Y-102.053
N8060G2X-36.206Y-100.449I1.553J12.053
N8070G1X-34.596Y-98.839
N8080G3X-30.000Y-97.032I0.707J4.950
N8090G3X-25.439Y-98.844I3.889J3.142
N8100G1Z-0.200F30.0
N8110G1X-23.794Y-100.449F180.0
N8120G2X-27.553Y-101.904I-6.206J10.449
N8130G1X-28.877Y-102.101
N8140G1X-30.218Y-102.151
N8150G1X-31.553Y-102.053
N8160G2X-36.206Y-100.449I1.553J12.053
N8170G1X-34.596Y-98.839
N8180G3X-30.000Y-97.032I0.707J4.950
N8190G3X-25.439Y-98.844I3.889J3.142
N8200G1Z-0.300F30.0
N8210G1X-23.794Y-100.449F180.0
N8220G2X-27.553Y-101.904I-6.206J10.449
N8230G1X-28.877Y-102.101
N8240G1X-30.218Y-102.151
N8250G1X-31.553Y-102.053
N8260G2X-36.206Y-100.449I1.553J12.053
N8270G1X-34.596Y-98.839
N8280G3X-30.000Y-97.032I0.707J4.950
N8290G3X-25.439Y-98.844I3.889J3.142
N8300G1Z-0.400F30.0
N8310G1X-23.794Y-100.449F180.0
N8320G2X-27.553Y-101.904I-6.206J10.449
N8330G1X-28.877Y-102.101
N8340G1X-30.218Y-102.151
N8350G1X-31.553Y-102.053
N8360G2X-36.206Y-100.449I1.553J12.053
N8370G1X-34.596Y-98.839
N8380G3X-30.000Y-97.032I0.707J4.950
N8390G3X-25.439Y-98.844I3.889J3.142
N8400G1Z-0.500F30.0
N8410G1X-23.794Y-100.449F180.0
N8420G2X-27.553Y-101.904I-6.206J10.449
N8430G1X-28.877Y-102.101
N8440G1X-30.218Y-102.151
N8450G1X-31.553Y-102.053
N8460G2X-36.206Y-100.449I1.553J12.053
N8470G1X-34.596Y-98.839
N8480G3X-30.000Y-97.032I0.707J4.950
N8490G3X-25.439Y-98.844I3.889J3.142
N8500G1Z-0.600F30.0
N8510G1X-23.794Y-100.449F180.0
N8520G2X-27.553Y-101.904I-6.206J10.449
N8530G1X-28.877Y-102.101
N8540G1X-30.218Y-102.151
N8550G1X-31.553Y-102.053
N8560G2X-36.206Y-100.449I1.553J12.053
N8570G1X-34.596Y-98.839
N8580G3X-30.000Y-97.032I0.707J4.950
N8590G3X-25.439Y-98.844I3.889J3.142
N8600G1Z-0.700F30.0
N8610G1X-23.794Y-100.449F180.0
N8620G2X-27.553Y-101.904I-6.206J10.449
N8630G1X-28.877Y-102.101
N8640G1X-30.218Y-102.151
N8650G1X-31.553Y-102.053
N8660G2X-36.206Y-100.449I1.553J12.053
N8670G1X-34.596Y-98.839
N8680G3X-30.000Y-97.032I0.707J4.950
N8690G3X-25.439Y-98.844I3.889J3.142
N8700G1Z-0.800F30.0
N8710G1X-23.794Y-100.449F180.0
N8720G2X-27.553Y-101.904I-6.206J10.449
N8730G1X-28.877Y-102.101
N8740G1X-30.218Y-102.151
N8750G1X-31.553Y-102.053
N8760G2X-36.206Y-100.449I1.553J12.053
N8770G1X-34.596Y-98.839
N8780G3X-30.000Y-97.032I0.707J4.950
N8790G3X-25.439Y-98.844I3.889J3.142
N8800G1Z-0.900F30.0
N8810G1X-23.794Y-100.449F180.0
N8820G2X-27.553Y-101.904I-6.206J10.449
N8830G1X-28.877Y-102.101
N8840G1X-30.218Y-102.151
N8850G1X-31.553Y-102.053
N8860G2X-36.206Y-100.449I1.553J12.053
N8870G1X-34.596Y-98.839
N8880G3X-30.000Y-97.032I0.707J4.950
N8890G3X-25.439Y-98.844I3.889J3.142
N8900G1Z-1.000F30.0
N8910G1X-23.794Y-100.449F180.0
N8920G2X-27.553Y-101.904I-6.206J10.449
N8930G1X-28.877Y-102.101
N8940G1X-30.218Y-102.151
N8950G1X-31.553Y-102.053
N8960G2X-36.206Y-100.449I1.553J12.053
N8970G1X-34.596Y-98.839
N8980G3X-30.000Y-97.032I0.707J4.950
N8990G3X-25.439Y-98.844I3.889J3.142
N9000G1Z-1.100F30.0
N9010G1X-23.794Y-100.449F180.0
N9020G2X-27.553Y-101.904I-6.206J10.449
N9030G1X-28.877Y-102.101
N9040G1X-30.218Y-102.151
N9050G1X-31.553Y-102.053
N9060G2X-36.206Y-100.449I1.553J12.053
N9070G1X-34.596Y-98.839
N9080G3X-30.000Y-97.032I0.707J4.950
N9090G3X-25.439Y-98.844I3.889J3.142
N9100G1Z-1.200F30.0
N9110G1X-23.794Y-100.449F180.0
N9120G2X-27.553Y-101.904I-6.206J10.449
N9130G1X-28.877Y-102.101Z-1.200
N9140G1X-30.218Y-102.151
N9150G1X-31.553Y-102.053
N9160G2X-36.206Y-100.449I1.553J12.053
N9170G1X-34.596Y-98.839
N9180G3X-30.000Y-97.032I0.707J4.950
N9190G3X-25.439Y-98.844I3.889J3.142
N9200G1Z-1.300F30.0
N9210G1X-23.794Y-100.449F180.0
N9220G2X-27.553Y-101.904I-6.206J10.449
N9230G1Z-1.200
N9240G1X-28.877Y-102.101
N9250G1X-30.218Y-102.151
N9260G1X-31.553Y-102.053
N9270G1Z-1.300F30.0
N9280G2X-36.206Y-100.449I1.553J12.053F180.0
N9290G1X-34.596Y-98.839
N9300G3X-30.000Y-97.032I0.707J4.950
N9310G3X-25.439Y-98.844I3.889J3.142
N9320G1Z-1.400F30.0
N9330G1X-23.794Y-100.449F180.0
N9340G2X-27.553Y-101.904I-6.206J10.449
N9350G1Z-1.200
N9360G1X-28.877Y-102.101
N9370G1X-30.218Y-102.151
N9380G1X-31.553Y-102.053
N9390G1Z-1.400F30.0
N9400G2X-36.206Y-100.449I1.553J12.053F180.0
N9410G1X-34.596Y-98.839
N9420G3X-30.000Y-97.032I0.707J4.950
N9430G3X-25.439Y-98.844I3.889J3.142
N9440G1Z-1.500F30.0
N9450G1X-23.794Y-100.449F180.0
N9460G2X-27.553Y-101.904I-6.206J10.449
N9470G1Z-1.200
N9480G1X-28.877Y-102.101
N9490G1X-30.218Y-102.151
N9500G1X-31.553Y-102.053
N9510G1Z-1.500F30.0
N9520G2X-36.206Y-100.449I1.553J12.053F180.0
N9530G1X-34.596Y-98.839
N9540G3X-30.000Y-97.032I0.707J4.950
N9550G3X-25.439Y-98.844I3.889J3.142
N9560G1Z-1.600F30.0
N9570G1X-23.794Y-100.449F180.0
N9580G2X-27.553Y-101.904I-6.206J10.449
N9590G1Z-1.200
N9600G1X-28.877Y-102.101
N9610G1X-30.218Y-102.151
N9620G1X-31.553Y-102.053
N9630G1Z-1.600F30.0
N9640G2X-36.206Y-100.449I1.553J12.053F180.0
N9650G1X-34.596Y-98.839
N9660G3X-30.000Y-97.032I0.707J4.950
N9670G3X-25.439Y-98.844I3.889J3.142
N9680G1Z-1.700F30.0
N9690G1X-23.794Y-100.449F180.0
N9700G2X-27.553Y-101.904I-6.206J10.449
N9710G1Z-1.200
N9720G1X-28.877Y-102.101
N9730G1X-30.218Y-102.151
N9740G1X-31.553Y-102.053
N9750G1Z-1.700F30.0
N9760G2X-36.206Y-100.449I1.553J12.053F180.0
N9770G1X-34.596Y-98.839
N9780G3X-30.000Y-97.032I0.707J4.950
N9790G3X-25.439Y-98.844I3.889J3.142
N9800G1Z-1.800F30.0
N9810G1X-23.794Y-100.449F180.0
N9820G2X-27.553Y-101.904I-6.206J10.449
N9830G1Z-1.200
N9840G1X-28.877Y-102.101
N9850G1X-30.218Y-102.151
N9860G1X-31.553Y-102.053
N9870G1Z-1.800F30.0
N9880G2X-36.206Y-100.449I1.553J12.053F180.0
N9890G1X-34.596Y-98.839
N9900G3X-30.000Y-97.032I0.707J4.950
N9910G3X-25.439Y-98.844I3.889J3.142
N9920G1Z-1.900F30.0
N9930G1X-23.794Y-100.449F180.0
N9940G2X-27.553Y-101.904I-6.206J10.449
N9950G1Z-1.200
N9960G1X-28.877Y-102.101
N9970G1X-30.218Y-102.151
N9980G1X-31.553Y-102.053
N9990G1Z-1.900F30.0
N10000G2X-36.206Y-100.449I1.553J12.053F180.0
N10010G1X-34.596Y-98.839
N10020G3X-30.000Y-97.032I0.707J4.950
N10030G3X-25.439Y-98.844I3.889J3.142
N10040G00Z6.000
N10050G00X-38.839Y-94.596
N10060G1Z-0.100F30.0
N10070G1X-40.449Y-96.206F180.0
N10080G2X-41.870Y-92.605I10.449J6.206
N10090G1X-42.085Y-91.284
N10100G1X-42.153Y-89.943
N10110G1X-42.073Y-88.608
N10120G2X-40.449Y-83.794I12.073J-1.392
N10130G1X-38.839Y-85.404
N10140G3X-37.032Y-90.000I4.950J-0.707
N10150G3X-38.839Y-94.596I3.142J-3.889
N10160G1Z-0.200F30.0
N10170G1X-40.449Y-96.206F180.0
N10180G2X-41.870Y-92.605I10.449J6.206
N10190G1X-42.085Y-91.284
N10200G1X-42.153Y-89.943
N10210G1X-42.073Y-88.608
N10220G2X-40.449Y-83.794I12.073J-1.392
N10230G1X-38.839Y-85.404
N10240G3X-37.032Y-90.000I4.950J-0.707
N10250G3X-38.839Y-94.596I3.142J-3.889
N10260G1Z-0.300F30.0
N10270G1X-40.449Y-96.206F180.0
N10280G2X-41.870Y-92.605I10.449J6.206
N10290G1X-42.085Y-91.284
N10300G1X-42.153Y-89.943
N10310G1X-42.073Y-88.608
N10320G2X-40.449Y-83.794I12.073J-1.392
N10330G1X-38.839Y-85.404
N10340G3X-37.032Y-90.000I4.950J-0.707
N10350G3X-38.839Y-94.596I3.142J-3.889
N10360G1Z-0.400F30.0
N10370G1X-40.449Y-96.206F180.0
N10380G2X-41.870Y-92.605I10.449J6.206
N10390G1X-42.085Y-91.284
N10400G1X-42.153Y-89.943
N10410G1X-42.073Y-88.608
N10420G2X-40.449Y-83.794I12.073J-1.392
N10430G1X-38.839Y-85.404
N10440G3X-37.032Y-90.000I4.950J-0.707
N10450G3X-38.839Y-94.596I3.142J-3.889
N10460G1Z-0.500F30.0
N10470G1X-40.449Y-96.206F180.0
N10480G2X-41.870Y-92.605I10.449J6.206
N10490G1X-42.085Y-91.284
N10500G1X-42.153Y-89.943
N10510G1X-42.073Y-88.608
N10520G2X-40.449Y-83.794I12.073J-1.392
N10530G1X-38.839Y-85.404
N10540G3X-37.032Y-90.000I4.950J-0.707
N10550G3X-38.839Y-94.596I3.142J-3.889
N10560G1Z-0.600F30.0
N10570G1X-40.449Y-96.206F180.0
N10580G2X-41.870Y-92.605I10.449J6.206
N10590G1X-42.085Y-91.284
N10600G1X-42.153Y-89.943
N10610G1X-42.073Y-88.608
N10620G2X-40.449Y-83.794I12.073J-1.392
N10630G1X-38.839Y-85.404
N10640G3X-37.032Y-90.000I4.950J-0.707
N10650G3X-38.839Y-94.596I3.142J-3.889
N10660G1Z-0.700F30.0
N10670G1X-40.449Y-96.206F180.0
N10680G2X-41.870Y-92.605I10.449J6.206
N10690G1X-42.085Y-91.284
N10700G1X-42.153Y-89.943
N10710G1X-42.073Y-88.608
N10720G2X-40.449Y-83.794I12.073J-1.392
N10730G1X-38.839Y-85.404
N10740G3X-37.032Y-90.000I4.950J-0.707
N10750G3X-38.839Y-94.596I3.142J-3.889
N10760G1Z-0.800F30.0
N10770G1X-40.449Y-96.206F180.0
N10780G2X-41.870Y-92.605I10.449J6.206
N10790G1X-42.085Y-91.284
N10800G1X-42.153Y-89.943
N10810G1X-42.073Y-88.608
N10820G2X-40.449Y-83.794I12.073J-1.392
N10830G1X-38.839Y-85.404
N10840G3X-37.032Y-90.000I4.950J-0.707
N10850G3X-38.839Y-94.596I3.142J-3.889
N10860G1Z-0.900F30.0
N10870G1X-40.449Y-96.206F180.0
N10880G2X-41.870Y-92.605I10.449J6.206
N10890G1X-42.085Y-91.284
N10900G1X-42.153Y-89.943
N10910G1X-42.073Y-88.608
N10920G2X-40.449Y-83.794I12.073J-1.392
N10930G1X-38.839Y-85.404
N10940G3X-37.032Y-90.000I4.950J-0.707
N10950G3X-38.839Y-94.596I3.142J-3.889
N10960G1Z-1.000F30.0
N10970G1X-40.449Y-96.206F180.0
N10980G2X-41.870Y-92.605I10.449J6.206
N10990G1X-42.085Y-91.284
N11000G1X-42.153Y-89.943
N11010G1X-42.073Y-88.608
N11020G2X-40.449Y-83.794I12.073J-1.392
N11030G1X-38.839Y-85.404
N11040G3X-37.032Y-90.000I4.950J-0.707
N11050G3X-38.839Y-94.596I3.142J-3.889
N11060G1Z-1.100F30.0
N11070G1X-40.449Y-96.206F180.0
N11080G2X-41.870Y-92.605I10.449J6.206
N11090G1X-42.085Y-91.284
N11100G1X-42.153Y-89.943
N11110G1X-42.073Y-88.608
N11120G2X-40.449Y-83.794I12.073J-1.392
N11130G1X-38.839Y-85.404
N11140G3X-37.032Y-90.000I4.950J-0.707
N11150G3X-38.839Y-94.596I3.142J-3.889
N11160G1Z-1.200F30.0
N11170G1X-40.449Y-96.206F180.0
N11180G2X-41.870Y-92.605I10.449J6.206
N11190G1X-42.085Y-91.284Z-1.200
N11200G1X-42.153Y-89.943
N11210G1X-42.073Y-88.608
N11220G2X-40.449Y-83.794I12.073J-1.392
N11230G1X-38.839Y-85.404
N11240G3X-37.032Y-90.000I4.950J-0.707
N11250G3X-38.839Y-94.596I3.142J-3.889
N11260G1Z-1.300F30.0
N11270G1X-40.449Y-96.206F180.0
N11280G2X-41.870Y-92.605I10.449J6.206
N11290G1Z-1.200
N11300G1X-42.085Y-91.284
N11310G1X-42.153Y-89.943
N11320G1X-42.073Y-88.608
N11330G1Z-1.300F30.0
N11340G2X-40.449Y-83.794I12.073J-1.392F180.0
N11350G1X-38.839Y-85.404
N11360G3X-37.032Y-90.000I4.950J-0.707
N11370G3X-38.839Y-94.596I3.142J-3.889
N11380G1Z-1.400F30.0
N11390G1X-40.449Y-96.206F180.0
N11400G2X-41.870Y-92.605I10.449J6.206
N11410G1Z-1.200
N11420G1X-42.085Y-91.284
N11430G1X-42.153Y-89.943
N11440G1X-42.073Y-88.608
N11450G1Z-1.400F30.0
N11460G2X-40.449Y-83.794I12.073J-1.392F180.0
N11470G1X-38.839Y-85.404
N11480G3X-37.032Y-90.000I4.950J-0.707
N11490G3X-38.839Y-94.596I3.142J-3.889
N11500G1Z-1.500F30.0
N11510G1X-40.449Y-96.206F180.0
N11520G2X-41.870Y-92.605I10.449J6.206
N11530G1Z-1.200
N11540G1X-42.085Y-91.284
N11550G1X-42.153Y-89.943
N11560G1X-42.073Y-88.608
N11570G1Z-1.500F30.0
N11580G2X-40.449Y-83.794I12.073J-1.392F180.0
N11590G1X-38.839Y-85.404
N11600G3X-37.032Y-90.000I4.950J-0.707
N11610G3X-38.839Y-94.596I3.142J-3.889
N11620G1Z-1.600F30.0
N11630G1X-40.449Y-96.206F180.0
N11640G2X-41.870Y-92.605I10.449J6.206
N11650G1Z-1.200
N11660G1X-42.085Y-91.284
N11670G1X-42.153Y-89.943
N11680G1X-42.073Y-88.608
N11690G1Z-1.600F30.0
N11700G2X-40.449Y-83.794I12.073J-1.392F180.0
N11710G1X-38.839Y-85.404
N11720G3X-37.032Y-90.000I4.950J-0.707
N11730G3X-38.839Y-94.596I3.142J-3.889
N11740G1Z-1.700F30.0
N11750G1X-40.449Y-96.206F180.0
N11760G2X-41.870Y-92.605I10.449J6.206
N11770G1Z-1.200
N11780G1X-42.085Y-91.284
N11790G1X-42.153Y-89.943
N11800G1X-42.073Y-88.608
N11810G1Z-1.700F30.0
N11820G2X-40.449Y-83.794I12.073J-1.392F180.0
N11830G1X-38.839Y-85.404
N11840G3X-37.032Y-90.000I4.950J-0.707
N11850G3X-38.839Y-94.596I3.142J-3.889
N11860G1Z-1.800F30.0
N11870G1X-40.449Y-96.206F180.0
N11880G2X-41.870Y-92.605I10.449J6.206
N11890G1Z-1.200
N11900G1X-42.085Y-91.284
N11910G1X-42.153Y-89.943
N11920G1X-42.073Y-88.608
N11930G1Z-1.800F30.0
N11940G2X-40.449Y-83.794I12.073J-1.392F180.0
N11950G1X-38.839Y-85.404
N11960G3X-37.032Y-90.000I4.950J-0.707
N11970G3X-38.839Y-94.596I3.142J-3.889
N11980G1Z-1.900F30.0
N11990G1X-40.449Y-96.206F180.0
N12000G2X-41.870Y-92.605I10.449J6.206
N12010G1Z-1.200
N12020G1X-42.085Y-91.284
N12030G1X-42.153Y-89.943
N12040G1X-42.073Y-88.608
N12050G1Z-1.900F30.0
N12060G2X-40.449Y-83.794I12.073J-1.392F180.0
N12070G1X-38.839Y-85.404
N12080G3X-37.032Y-90.000I4.950J-0.707
N12090G3X-38.839Y-94.596I3.142J-3.889
N12100G00Z6.000
N12110G00X-77.962Y-91.666
N12120G1Z-0.100F30.0
N12130G2X-79.551Y-96.206I-12.038J1.666F180.0
N12140G1X-81.161Y-94.596
N12150G3X-82.968Y-90.000I-4.950J0.707
N12160G3X-81.161Y-85.404I-3.142J3.889
N12170G1X-79.551Y-83.794
N12180G2X-78.074Y-87.665I-10.449J-6.206
N12190G1X-77.889Y-88.990
N12200G1X-77.852Y-90.332
N12210G1X-77.962Y-91.666
N12220G1Z-0.200F30.0
N12230G2X-79.551Y-96.206I-12.038J1.666F180.0
N12240G1X-81.161Y-94.596
N12250G3X-82.968Y-90.000I-4.950J0.707
N12260G3X-81.161Y-85.404I-3.142J3.889
N12270G1X-79.551Y-83.794
N12280G2X-78.074Y-87.665I-10.449J-6.206
N12290G1X-77.889Y-88.990
N12300G1X-77.852Y-90.332
N12310G1X-77.962Y-91.666
N12320G1Z-0.300F30.0
N12330G2X-79.551Y-96.206I-12.038J1.666F180.0
N12340G1X-81.161Y-94.596
N12350G3X-82.968Y-90.000I-4.950J0.707
N12360G3X-81.161Y-85.404I-3.142J3.889
N12370G1X-79.551Y-83.794
N12380G2X-78.074Y-87.665I-10.449J-6.206
N12390G1X-77.889Y-88.990
N12400G1X-77.852Y-90.332
N12410G1X-77.962Y-91.666
N12420G1Z-0.400F30.0
N12430G2X-79.551Y-96.206I-12.038J1.666F180.0
N12440G1X-81.161Y-94.596
N12450G3X-82.968Y-90.000I-4.950J0.707
N12460G3X-81.161Y-85.404I-3.142J3.889
N12470G1X-79.551Y-83.794
N12480G2X-78.074Y-87.665I-10.449J-6.206
N12490G1X-77.889Y-88.990
N12500G1X-77.852Y-90.332
N12510G1X-77.962Y-91.666
N12520G1Z-0.500F30.0
N12530G2X-79.551Y-96.206I-12.038J1.666F180.0
N12540G1X-81.161Y-94.596
N12550G3X-82.968Y-90.000I-4.950J0.707
N12560G3X-81.161Y-85.404I-3.142J3.889
N12570G1X-79.551Y-83.794
N12580G2X-78.074Y-87.665I-10.449J-6.206
N12590G1X-77.889Y-88.990
N12600G1X-77.852Y-90.332
N12610G1X-77.962Y-91.666
N12620G1Z-0.600F30.0
N12630G2X-79.551Y-96.206I-12.038J1.666F180.0
N12640G1X-81.161Y-94.596
N12650G3X-82.968Y-90.000I-4.950J0.707
N12660G3X-81.161Y-85.404I-3.142J3.889
N12670G1X-79.551Y-83.794
N12680G2X-78.074Y-87.665I-10.449J-6.206
N12690G1X-77.889Y-88.990
N12700G1X-77.852Y-90.332
N12710G1X-77.962Y-91.666
N12720G1Z-0.700F30.0
N12730G2X-79.551Y-96.206I-12.038J1.666F180.0
N12740G1X-81.161Y-94.596
N12750G3X-82.968Y-90.000I-4.950J0.707
N12760G3X-81.161Y-85.404I-3.142J3.889
N12770G1X-79.551Y-83.794
N12780G2X-78.074Y-87.665I-10.449J-6.206
N12790G1X-77.889Y-88.990
N12800G1X-77.852Y-90.332
N12810G1X-77.962Y-91.666
N12820G1Z-0.800F30.0
N12830G2X-79.551Y-96.206I-12.038J1.666F180.0
N12840G1X-81.161Y-94.596
N12850G3X-82.968Y-90.000I-4.950J0.707
N12860G3X-81.161Y-85.404I-3.142J3.889
N12870G1X-79.551Y-83.794
N12880G2X-78.074Y-87.665I-10.449J-6.206
N12890G1X-77.889Y-88.990
N12900G1X-77.852Y-90.332
N12910G1X-77.962Y-91.666
N12920G1Z-0.900F30.0
N12930G2X-79.551Y-96.206I-12.038J1.666F180.0
N12940G1X-81.161Y-94.596
N12950G3X-82.968Y-90.000I-4.950J0.707
N12960G3X-81.161Y-85.404I-3.142J3.889
N12970G1X-79.551Y-83.794
N12980G2X-78.074Y-87.665I-10.449J-6.206
N12990G1X-77.889Y-88.990
N13000G1X-77.852Y-90.332
N13010G1X-77.962Y-91.666
N13020G1Z-1.000F30.0
N13030G2X-79.551Y-96.206I-12.038J1.666F180.0
N13040G1X-81.161Y-94.596
N13050G3X-82.968Y-90.000I-4.950J0.707
N13060G3X-81.161Y-85.404I-3.142J3.889
N13070G1X-79.551Y-83.794
N13080G2X-78.074Y-87.665I-10.449J-6.206
N13090G1X-77.889Y-88.990
N13100G1X-77.852Y-90.332
N13110G1X-77.962Y-91.666
N13120G1Z-1.100F30.0
N13130G2X-79.551Y-96.206I-12.038J1.666F180.0
N13140G1X-81.161Y-94.596
N13150G3X-82.968Y-90.000I-4.950J0.707
N13160G3X-81.161Y-85.404I-3.142J3.889
N13170G1X-79.551Y-83.794
N13180G2X-78.074Y-87.665I-10.449J-6.206
N13190G1X-77.889Y-88.990
N13200G1X-77.852Y-90.332
N13210G1X-77.962Y-91.666
N13220G1Z-1.200F30.0
N13230G2X-79.551Y-96.206I-12.038J1.666F180.0
N13240G1X-81.161Y-94.596
N13250G3X-82.968Y-90.000I-4.950J0.707
N13260G3X-81.161Y-85.404I-3.142J3.889
N13270G1X-79.551Y-83.794
N13280G2X-78.074Y-87.665I-10.449J-6.206
N13290G1X-77.889Y-88.990Z-1.200
N13300G1X-77.852Y-90.332
N13310G1X-77.962Y-91.666
N13320G1Z-1.300F30.0
N13330G2X-79.551Y-96.206I-12.038J1.666F180.0
N13340G1X-81.161Y-94.596
N13350G3X-82.968Y-90.000I-4.950J0.707
N13360G3X-81.161Y-85.404I-3.142J3.889
N13370G1X-79.551Y-83.794
N13380G2X-78.074Y-87.665I-10.449J-6.206
N13390G1Z-1.200
N13400G1X-77.889Y-88.990
N13410G1X-77.852Y-90.332
N13420G1X-77.962Y-91.666
N13430G1Z-1.400F30.0
N13440G2X-79.551Y-96.206I-12.038J1.666F180.0
N13450G1X-81.161Y-94.596
N13460G3X-82.968Y-90.000I-4.950J0.707
N13470G3X-81.161Y-85.404I-3.142J3.889
N13480G1X-79.551Y-83.794
N13490G2X-78.074Y-87.665I-10.449J-6.206
N13500G1Z-1.200
N13510G1X-77.889Y-88.990
N13520G1X-77.852Y-90.332
N13530G1X-77.962Y-91.666
N13540G1Z-1.500F30.0
N13550G2X-79.551Y-96.206I-12.038J1.666F180.0
N13560G1X-81.161Y-94.596
N13570G3X-82.968Y-90.000I-4.950J0.707
N13580G3X-81.161Y-85.404I-3.142J3.889
N13590G1X-79.551Y-83.794
N13600G2X-78.074Y-87.665I-10.449J-6.206
N13610G1Z-1.200
N13620G1X-77.889Y-88.990
N13630G1X-77.852Y-90.332
N13640G1X-77.962Y-91.666
N13650G1Z-1.600F30.0
N13660G2X-79.551Y-96.206I-12.038J1.666F180.0
N13670G1X-81.161Y-94.596
N13680G3X-82.968Y-90.000I-4.950J0.707
N13690G3X-81.161Y-85.404I-3.142J3.889
N13700G1X-79.551Y-83.794
N13710G2X-78.074Y-87.665I-10.449J-6.206
N13720G1Z-1.200
N13730G1X-77.889Y-88.990
N13740G1X-77.852Y-90.332
N13750G1X-77.962Y-91.666
N13760G1Z-1.700F30.0
N13770G2X-79.551Y-96.206I-12.038J1.666F180.0
N13780G1X-81.161Y-94.596
N13790G3X-82.968Y-90.000I-4.950J0.707
N13800G3X-81.161Y-85.404I-3.142J3.889
N13810G1X-79.551Y-83.794
N13820G2X-78.074Y-87.665I-10.449J-6.206
N13830G1Z-1.200
N13840G1X-77.889Y-88.990
N13850G1X-77.852Y-90.332
N13860G1X-77.962Y-91.666
N13870G1Z-1.800F30.0
N13880G2X-79.551Y-96.206I-12.038J1.666F180.0
N13890G1X-81.161Y-94.596
N13900G3X-82.968Y-90.000I-4.950J0.707
N13910G3X-81.161Y-85.404I-3.142J3.889
N13920G1X-79.551Y-83.794
N13930G2X-78.074Y-87.665I-10.449J-6.206
N13940G1Z-1.200
N13950G1X-77.889Y-88.990
N13960G1X-77.852Y-90.332
N13970G1X-77.962Y-91.666
N13980G1Z-1.900F30.0
N13990G2X-79.551Y-96.206I-12.038J1.666F180.0
N14000G1X-81.161Y-94.596
N14010G3X-82.968Y-90.000I-4.950J0.707
N14020G3X-81.161Y-85.404I-3.142J3.889
N14030G1X-79.551Y-83.794
N14040G2X-78.074Y-87.665I-10.449J-6.206
N14050G1Z-1.200
N14060G1X-77.889Y-88.990
N14070G1X-77.852Y-90.332
N14080G1X-77.962Y-91.666
N14090G00Z6.000
N14100G00X-85.439Y-98.844
N14110G1Z-0.100F30.0
N14120G1X-83.794Y-100.449F180.0
N14130G2X-88.231Y-102.023I-6.206J10.449
N14140G1X-89.565Y-102.145
N14150G1X-90.907Y-102.119
N14160G1X-92.234Y-101.946
N14170G2X-96.206Y-100.449I2.234J11.946
N14180G1X-94.596Y-98.839
N14190G3X-90.000Y-97.032I0.707J4.950
N14200G3X-85.439Y-98.844I3.889J3.142
N14210G1Z-0.200F30.0
N14220G1X-83.794Y-100.449F180.0
N14230G2X-88.231Y-102.023I-6.206J10.449
N14240G1X-89.565Y-102.145
N14250G1X-90.907Y-102.119
N14260G1X-92.234Y-101.946
N14270G2X-96.206Y-100.449I2.234J11.946
N14280G1X-94.596Y-98.839
N14290G3X-90.000Y-97.032I0.707J4.950
N14300G3X-85.439Y-98.844I3.889J3.142
N14310G1Z-0.300F30.0
N14320G1X-83.794Y-100.449F180.0
N14330G2X-88.231Y-102.023I-6.206J10.449
N14340G1X-89.565Y-102.145
N14350G1X-90.907Y-102.119
N14360G1X-92.234Y-101.946
N14370G2X-96.206Y-100.449I2.234J11.946
N14380G1X-94.596Y-98.839
N14390G3X-90.000Y-97.032I0.707J4.950
N14400G3X-85.439Y-98.844I3.889J3.142
N14410G1Z-0.400F30.0
N14420G1X-83.794Y-100.449F180.0
N14430G2X-88.231Y-102.023I-6.206J10.449
N14440G1X-89.565Y-102.145
N14450G1X-90.907Y-102.119
N14460G1X-92.234Y-101.946
N14470G2X-96.206Y-100.449I2.234J11.946
N14480G1X-94.596Y-98.839
N14490G3X-90.000Y-97.032I0.707J4.950
N14500G3X-85.439Y-98.844I3.889J3.142
N14510G1Z-0.500F30.0
N14520G1X-83.794Y-100.449F180.0
N14530G2X-88.231Y-102.023I-6.206J10.449
N14540G1X-89.565Y-102.145
N14550G1X-90.907Y-102.119
N14560G1X-92.234Y-101.946
N14570G2X-96.206Y-100.449I2.234J11.946
N14580G1X-94.596Y-98.839
N14590G3X-90.000Y-97.032I0.707J4.950
N14600G3X-85.439Y-98.844I3.889J3.142
N14610G1Z-0.600F30.0
N14620G1X-83.794Y-100.449F180.0
N14630G2X-88.231Y-102.023I-6.206J10.449
N14640G1X-89.565Y-102.145
N14650G1X-90.907Y-102.119
N14660G1X-92.234Y-101.946
N14670G2X-96.206Y-100.449I2.234J11.946
N14680G1X-94.596Y-98.839
N14690G3X-90.000Y-97.032I0.707J4.950
N14700G3X-85.439Y-98.844I3.889J3.142
N14710G1Z-0.700F30.0
N14720G1X-83.794Y-100.449F180.0
N14730G2X-88.231Y-102.023I-6.206J10.449
N14740G1X-89.565Y-102.145
N14750G1X-90.907Y-102.119
N14760G1X-92.234Y-101.946
N14770G2X-96.206Y-100.449I2.234J11.946
N14780G1X-94.596Y-98.839
N14790G3X-90.000Y-97.032I0.707J4.950
N14800G3X-85.439Y-98.844I3.889J3.142
N14810G1Z-0.800F30.0
N14820G1X-83.794Y-100.449F180.0
N14830G2X-88.231Y-102.023I-6.206J10.449
N14840G1X-89.565Y-102.145
N14850G1X-90.907Y-102.119
N14860G1X-92.234Y-101.946
N14870G2X-96.206Y-100.449I2.234J11.946
N14880G1X-94.596Y-98.839
N14890G3X-90.000Y-97.032I0.707J4.950
N14900G3X-85.439Y-98.844I3.889J3.142
N14910G1Z-0.900F30.0
N14920G1X-83.794Y-100.449F180.0
N14930G2X-88.231Y-102.023I-6.206J10.449
N14940G1X-89.565Y-102.145
N14950G1X-90.907Y-102.119
N14960G1X-92.234Y-101.946
N14970G2X-96.206Y-100.449I2.234J11.946
N14980G1X-94.596Y-98.839
N14990G3X-90.000Y-97.032I0.707J4.950
N15000G3X-85.439Y-98.844I3.889J3.142
N15010G1Z-1.000F30.0
N15020G1X-83.794Y-100.449F180.0
N15030G2X-88.231Y-102.023I-6.206J10.449
N15040G1X-89.565Y-102.145
N15050G1X-90.907Y-102.119
N15060G1X-92.234Y-101.946
N15070G2X-96.206Y-100.449I2.234J11.946
N15080G1X-94.596Y-98.839
N15090G3X-90.000Y-97.032I0.707J4.950
N15100G3X-85.439Y-98.844I3.889J3.142
N15110G1Z-1.100F30.0
N15120G1X-83.794Y-100.449F180.0
N15130G2X-88.231Y-102.023I-6.206J10.449
N15140G1X-89.565Y-102.145
N15150G1X-90.907Y-102.119
N15160G1X-92.234Y-101.946
N15170G2X-96.206Y-100.449I2.234J11.946
N15180G1X-94.596Y-98.839
N15190G3X-90.000Y-97.032I0.707J4.950
N15200G3X-85.439Y-98.844I3.889J3.142
N15210G1Z-1.200F30.0
N15220G1X-83.794Y-100.449F180.0
N15230G2X-88.231Y-102.023I-6.206J10.449
N15240G1X-89.565Y-102.145Z-1.200
N15250G1X-90.907Y-102.119
N15260G1X-92.234Y-101.946
N15270G2X-96.206Y-100.449I2.234J11.946
N15280G1X-94.596Y-98.839
N15290G3X-90.000Y-97.032I0.707J4.950
N15300G3X-85.439Y-98.844I3.889J3.142
N15310G1Z-1.300F30.0
N15320G1X-83.794Y-100.449F180.0
N15330G2X-88.231Y-102.023I-6.206J10.449
N15340G1Z-1.200
N15350G1X-89.565Y-102.145
N15360G1X-90.907Y-102.119
N15370G1X-92.234Y-101.946
N15380G1Z-1.300F30.0
N15390G2X-96.206Y-100.449I2.234J11.946F180.0
N15400G1X-94.596Y-98.839
N15410G3X-90.000Y-97.032I0.707J4.950
N15420G3X-85.439Y-98.844I3.889J3.142
N15430G1Z-1.400F30.0
N15440G1X-83.794Y-100.449F180.0
N15450G2X-88.231Y-102.023I-6.206J10.449
N15460G1Z-1.200
N15470G1X-89.565Y-102.145
N15480G1X-90.907Y-102.119
N15490G1X-92.234Y-101.946
N15500G1Z-1.400F30.0
N15510G2X-96.206Y-100.449I2.234J11.946F180.0
N15520G1X-94.596Y-98.839
N15530G3X-90.000Y-97.032I0.707J4.950
N15540G3X-85.439Y-98.844I3.889J3.142
N15550G1Z-1.500F30.0
N15560G1X-83.794Y-100.449F180.0
N15570G2X-88.231Y-102.023I-6.206J10.449
N15580G1Z-1.200
N15590G1X-89.565Y-102.145
N15600G1X-90.907Y-102.119
N15610G1X-92.234Y-101.946
N15620G1Z-1.500F30.0
N15630G2X-96.206Y-100.449I2.234J11.946F180.0
N15640G1X-94.596Y-98.839
N15650G3X-90.000Y-97.032I0.707J4.950
N15660G3X-85.439Y-98.844I3.889J3.142
N15670G1Z-1.600F30.0
N15680G1X-83.794Y-100.449F180.0
N15690G2X-88.231Y-102.023I-6.206J10.449
N15700G1Z-1.200
N15710G1X-89.565Y-102.145
N15720G1X-90.907Y-102.119
N15730G1X-92.234Y-101.946
N15740G1Z-1.600F30.0
N15750G2X-96.206Y-100.449I2.234J11.946F180.0
N15760G1X-94.596Y-98.839
N15770G3X-90.000Y-97.032I0.707J4.950
N15780G3X-85.439Y-98.844I3.889J3.142
N15790G1Z-1.700F30.0
N15800G1X-83.794Y-100.449F180.0
N15810G2X-88.231Y-102.023I-6.206J10.449
N15820G1Z-1.200
N15830G1X-89.565Y-102.145
N15840G1X-90.907Y-102.119
N15850G1X-92.234Y-101.946
N15860G1Z-1.700F30.0
N15870G2X-96.206Y-100.449I2.234J11.946F180.0
N15880G1X-94.596Y-98.839
N15890G3X-90.000Y-97.032I0.707J4.950
N15900G3X-85.439Y-98.844I3.889J3.142
N15910G1Z-1.800F30.0
N15920G1X-83.794Y-100.449F180.0
N15930G2X-88.231Y-102.023I-6.206J10.449
N15940G1Z-1.200
N15950G1X-89.565Y-102.145
N15960G1X-90.907Y-102.119
N15970G1X-92.234Y-101.946
N15980G1Z-1.800F30.0
N15990G2X-96.206Y-100.449I2.234J11.946F180.0
N16000G1X-94.596Y-98.839
N16010G3X-90.000Y-97.032I0.707J4.950
N16020G3X-85.439Y-98.844I3.889J3.142
N16030G1Z-1.900F30.0
N16040G1X-83.794Y-100.449F180.0
N16050G2X-88.231Y-102.023I-6.206J10.449
N16060G1Z-1.200
N16070G1X-89.565Y-102.145
N16080G1X-90.907Y-102.119
N16090G1X-92.234Y-101.946
N16100G1Z-1.900F30.0
N16110G2X-96.206Y-100.449I2.234J11.946F180.0
N16120G1X-94.596Y-98.839
N16130G3X-90.000Y-97.032I0.707J4.950
N16140G3X-85.439Y-98.844I3.889J3.142
N16150G00Z6.000
N16160G00X-98.839Y-94.596
N16170G1Z-0.100F30.0
N16180G1X-100.449Y-96.206F180.0
N16190G2X-101.954Y-92.190I10.449J6.206
N16200G1X-102.122Y-90.862
N16210G1X-102.143Y-89.520
N16220G1X-102.017Y-88.187
N16230G2X-100.449Y-83.794I12.017J-1.813
N16240G1X-98.839Y-85.404
N16250G3X-97.032Y-90.000I4.950J-0.707
N16260G3X-98.839Y-94.596I3.142J-3.889
N16270G1Z-0.200F30.0
N16280G1X-100.449Y-96.206F180.0
N16290G2X-101.954Y-92.190I10.449J6.206
N16300G1X-102.122Y-90.862
N16310G1X-102.143Y-89.520
N16320G1X-102.017Y-88.187
N16330G2X-100.449Y-83.794I12.017J-1.813
N16340G1X-98.839Y-85.404
N16350G3X-97.032Y-90.000I4.950J-0.707
N16360G3X-98.839Y-94.596I3.142J-3.889
N16370G1Z-0.300F30.0
N16380G1X-100.449Y-96.206F180.0
N16390G2X-101.954Y-92.190I10.449J6.206
N16400G1X-102.122Y-90.862
N16410G1X-102.143Y-89.520
N16420G1X-102.017Y-88.187
N16430G2X-100.449Y-83.794I12.017J-1.813
N16440G1X-98.839Y-85.404
N16450G3X-97.032Y-90.000I4.950J-0.707
N16460G3X-98.839Y-94.596I3.142J-3.889
N16470G1Z-0.400F30.0
N16480G1X-100.449Y-96.206F180.0
N16490G2X-101.954Y-92.190I10.449J6.206
N16500G1X-102.122Y-90.862
N16510G1X-102.143Y-89.520
N16520G1X-102.017Y-88.187
N16530G2X-100.449Y-83.794I12.017J-1.813
N16540G1X-98.839Y-85.404
N16550G3X-97.032Y-90.000I4.950J-0.707
N16560G3X-98.839Y-94.596I3.142J-3.889
N16570G1Z-0.500F30.0
N16580G1X-100.449Y-96.206F180.0
N16590G2X-101.954Y-92.190I10.449J6.206
N16600G1X-102.122Y-90.862
N16610G1X-102.143Y-89.520
N16620G1X-102.017Y-88.187
N16630G2X-100.449Y-83.794I12.017J-1.813
N16640G1X-98.839Y-85.404
N16650G3X-97.032Y-90.000I4.950J-0.707
N16660G3X-98.839Y-94.596I3.142J-3.889
N16670G1Z-0.600F30.0
N16680G1X-100.449Y-96.206F180.0
N16690G2X-101.954Y-92.190I10.449J6.206
N16700G1X-102.122Y-90.862
N16710G1X-102.143Y-89.520
N16720G1X-102.017Y-88.187
N16730G2X-100.449Y-83.794I12.017J-1.813
N16740G1X-98.839Y-85.404
N16750G3X-97.032Y-90.000I4.950J-0.707
N16760G3X-98.839Y-94.596I3.142J-3.889
N16770G1Z-0.700F30.0
N16780G1X-100.449Y-96.206F180.0
N16790G2X-101.954Y-92.190I10.449J6.206
N16800G1X-102.122Y-90.862
N16810G1X-102.143Y-89.520
N16820G1X-102.017Y-88.187
N16830G2X-100.449Y-83.794I12.017J-1.813
N16840G1X-98.839Y-85.404
N16850G3X-97.032Y-90.000I4.950J-0.707
N16860G3X-98.839Y-94.596I3.142J-3.889
N16870G1Z-0.800F30.0
N16880G1X-100.449Y-96.206F180.0
N16890G2X-101.954Y-92.190I10.449J6.206
N16900G1X-102.122Y-90.862
N16910G1X-102.143Y-89.520
N16920G1X-102.017Y-88.187
N16930G2X-100.449Y-83.794I12.017J-1.813
N16940G1X-98.839Y-85.404
N16950G3X-97.032Y-90.000I4.950J-0.707
N16960G3X-98.839Y-94.596I3.142J-3.889
N16970G1Z-0.900F30.0
N16980G1X-100.449Y-96.206F180.0
N16990G2X-101.954Y-92.190I10.449J6.206
N17000G1X-102.122Y-90.862
N17010G1X-102.143Y-89.520
N17020G1X-102.017Y-88.187
N17030G2X-100.449Y-83.794I12.017J-1.813
N17040G1X-98.839Y-85.404
N17050G3X-97.032Y-90.000I4.950J-0.707
N17060G3X-98.839Y-94.596I3.142J-3.889
N17070G1Z-1.000F30.0
N17080G1X-100.449Y-96.206F180.0
N17090G2X-101.954Y-92.190I10.449J6.206
N17100G1X-102.122Y-90.862
N17110G1X-102.143Y-89.520
N17120G1X-102.017Y-88.187
N17130G2X-100.449Y-83.794I12.017J-1.813
N17140G1X-98.839Y-85.404
N17150G3X-97.032Y-90.000I4.950J-0.707
N17160G3X-98.839Y-94.596I3.142J-3.889
N17170G1Z-1.100F30.0
N17180G1X-100.449Y-96.206F180.0
N17190G2X-101.954Y-92.190I10.449J6.206
N17200G1X-102.122Y-90.862
N17210G1X-102.143Y-89.520
N17220G1X-102.017Y-88.187
N17230G2X-100.449Y-83.794I12.017J-1.813
N17240G1X-98.839Y-85.404
N17250G3X-97.032Y-90.000I4.950J-0.707
N17260G3X-98.839Y-94.596I3.142J-3.889
N17270G1Z-1.200F30.0
N17280G1X-100.449Y-96.206F180.0
N17290G2X-101.954Y-92.190I10.449J6.206
N17300G1X-102.122Y-90.862Z-1.200
N17310G1X-102.143Y-89.520
N17320G1X-102.017Y-88.187
N17330G2X-100.449Y-83.794I12.017J-1.813
N17340G1X-98.839Y-85.404
N17350G3X-97.032Y-90.000I4.950J-0.707
N17360G3X-98.839Y-94.596I3.142J-3.889
N17370G1Z-1.300F30.0
N17380G1X-100.449Y-96.206F180.0
N17390G2X-101.954Y-92.190I10.449J6.206
N17400G1Z-1.200
N17410G1X-102.122Y-90.862
N17420G1X-102.143Y-89.520
N17430G1X-102.017Y-88.187
N17440G1Z-1.300F30.0
N17450G2X-100.449Y-83.794I12.017J-1.813F180.0
N17460G1X-98.839Y-85.404
N17470G3X-97.032Y-90.000I4.950J-0.707
N17480G3X-98.839Y-94.596I3.142J-3.889
N17490G1Z-1.400F30.0
N17500G1X-100.449Y-96.206F180.0
N17510G2X-101.954Y-92.190I10.449J6.206
N17520G1Z-1.200
N17530G1X-102.122Y-90.862
N17540G1X-102.143Y-89.520
N17550G1X-102.017Y-88.187
N17560G1Z-1.400F30.0
N17570G2X-100.449Y-83.794I12.017J-1.813F180.0
N17580G1X-98.839Y-85.404
N17590G3X-97.032Y-90.000I4.950J-0.707
N17600G3X-98.839Y-94.596I3.142J-3.889
N17610G1Z-1.500F30.0
N17620G1X-100.449Y-96.206F180.0
N17630G2X-101.954Y-92.190I10.449J6.206
N17640G1Z-1.200
N17650G1X-102.122Y-90.862
N17660G1X-102.143Y-89.520
N17670G1X-102.017Y-88.187
N17680G1Z-1.500F30.0
N17690G2X-100.449Y-83.794I12.017J-1.813F180.0
N17700G1X-98.839Y-85.404
N17710G3X-97.032Y-90.000I4.950J-0.707
N17720G3X-98.839Y-94.596I3.142J-3.889
N17730G1Z-1.600F30.0
N17740G1X-100.449Y-96.206F180.0
N17750G2X-101.954Y-92.190I10.449J6.206
N17760G1Z-1.200
N17770G1X-102.122Y-90.862
N17780G1X-102.143Y-89.520
N17790G1X-102.017Y-88.187
N17800G1Z-1.600F30.0
N17810G2X-100.449Y-83.794I12.017J-1.813F180.0
N17820G1X-98.839Y-85.404
N17830G3X-97.032Y-90.000I4.950J-0.707
N17840G3X-98.839Y-94.596I3.142J-3.889
N17850G1Z-1.700F30.0
N17860G1X-100.449Y-96.206F180.0
N17870G2X-101.954Y-92.190I10.449J6.206
N17880G1Z-1.200
N17890G1X-102.122Y-90.862
N17900G1X-102.143Y-89.520
N17910G1X-102.017Y-88.187
N17920G1Z-1.700F30.0
N17930G2X-100.449Y-83.794I12.017J-1.813F180.0
N17940G1X-98.839Y-85.404
N17950G3X-97.032Y-90.000I4.950J-0.707
N17960G3X-98.839Y-94.596I3.142J-3.889
N17970G1Z-1.800F30.0
N17980G1X-100.449Y-96.206F180.0
N17990G2X-101.954Y-92.190I10.449J6.206
N18000G1Z-1.200
N18010G1X-102.122Y-90.862
N18020G1X-102.143Y-89.520
N18030G1X-102.017Y-88.187
N18040G1Z-1.800F30.0
N18050G2X-100.449Y-83.794I12.017J-1.813F180.0
N18060G1X-98.839Y-85.404
N18070G3X-97.032Y-90.000I4.950J-0.707
N18080G3X-98.839Y-94.596I3.142J-3.889
N18090G1Z-1.900F30.0
N18100G1X-100.449Y-96.206F180.0
N18110G2X-101.954Y-92.190I10.449J6.206
N18120G1Z-1.200
N18130G1X-102.122Y-90.862
N18140G1X-102.143Y-89.520
N18150G1X-102.017Y-88.187
N18160G1Z-1.900F30.0
N18170G2X-100.449Y-83.794I12.017J-1.813F180.0
N18180G1X-98.839Y-85.404
N18190G3X-97.032Y-90.000I4.950J-0.707
N18200G3X-98.839Y-94.596I3.142J-3.889
N18210G00Z6.000
N18220G00X-94.596Y-81.161
N18230G1Z-0.100F30.0
N18240G1X-96.206Y-79.551F180.0
N18250G2X-91.953Y-78.005I6.206J-10.449
N18260G1X-90.622Y-77.863
N18270G1X-89.280Y-77.869
N18280G1X-87.950Y-78.022
N18290G2X-83.794Y-79.551I-2.050J-11.978
N18300G1X-85.404Y-81.161
N18310G3X-90.000Y-82.968I-0.707J-4.950
N18320G3X-94.596Y-81.161I-3.889J-3.142
N18330G1Z-0.200F30.0
N18340G1X-96.206Y-79.551F180.0
N18350G2X-91.953Y-78.005I6.206J-10.449
N18360G1X-90.622Y-77.863
N18370G1X-89.280Y-77.869
N18380G1X-87.950Y-78.022
N18390G2X-83.794Y-79.551I-2.050J-11.978
N18400G1X-85.404Y-81.161
N18410G3X-90.000Y-82.968I-0.707J-4.950
N18420G3X-94.596Y-81.161I-3.889J-3.142
N18430G1Z-0.300F30.0
N18440G1X-96.206Y-79.551F180.0
N18450G2X-91.953Y-78.005I6.206J-10.449
N18460G1X-90.622Y-77.863
N18470G1X-89.280Y-77.869
N18480G1X-87.950Y-78.022
N18490G2X-83.794Y-79.551I-2.050J-11.978
N18500G1X-85.404Y-81.161
N18510G3X-90.000Y-82.968I-0.707J-4.950
N18520G3X-94.596Y-81.161I-3.889J-3.142
N18530G1Z-0.400F30.0
N18540G1X-96.206Y-79.551F180.0
N18550G2X-91.953Y-78.005I6.206J-10.449
N18560G1X-90.622Y-77.863
N18570G1X-89.280Y-77.869
N18580G1X-87.950Y-78.022
N18590G2X-83.794Y-79.551I-2.050J-11.978
N18600G1X-85.404Y-81.161
N18610G3X-90.000Y-82.968I-0.707J-4.950
N18620G3X-94.596Y-81.161I-3.889J-3.142
N18630G1Z-0.500F30.0
N18640G1X-96.206Y-79.551F180.0
N18650G2X-91.953Y-78.005I6.206J-10.449
N18660G1X-90.622Y-77.863
N18670G1X-89.280Y-77.869
N18680G1X-87.950Y-78.022
N18690G2X-83.794Y-79.551I-2.050J-11.978
N18700G1X-85.404Y-81.161
N18710G3X-90.000Y-82.968I-0.707J-4.950
N18720G3X-94.596Y-81.161I-3.889J-3.142
N18730G1Z-0.600F30.0
N18740G1X-96.206Y-79.551F180.0
N18750G2X-91.953Y-78.005I6.206J-10.449
N18760G1X-90.622Y-77.863
N18770G1X-89.280Y-77.869
N18780G1X-87.950Y-78.022
N18790G2X-83.794Y-79.551I-2.050J-11.978
N18800G1X-85.404Y-81.161
N18810G3X-90.000Y-82.968I-0.707J-4.950
N18820G3X-94.596Y-81.161I-3.889J-3.142
N18830G1Z-0.700F30.0
N18840G1X-96.206Y-79.551F180.0
N18850G2X-91.953Y-78.005I6.206J-10.449
N18860G1X-90.622Y-77.863
N18870G1X-89.280Y-77.869
N18880G1X-87.950Y-78.022
N18890G2X-83.794Y-79.551I-2.050J-11.978
N18900G1X-85.404Y-81.161
N18910G3X-90.000Y-82.968I-0.707J-4.950
N18920G3X-94.596Y-81.161I-3.889J-3.142
N18930G1Z-0.800F30.0
N18940G1X-96.206Y-79.551F180.0
N18950G2X-91.953Y-78.005I6.206J-10.449
N18960G1X-90.622Y-77.863
N18970G1X-89.280Y-77.869
N18980G1X-87.950Y-78.022
N18990G2X-83.794Y-79.551I-2.050J-11.978
N19000G1X-85.404Y-81.161
N19010G3X-90.000Y-82.968I-0.707J-4.950
N19020G3X-94.596Y-81.161I-3.889J-3.142
N19030G1Z-0.900F30.0
N19040G1X-96.206Y-79.551F180.0
N19050G2X-91.953Y-78.005I6.206J-10.449
N19060G1X-90.622Y-77.863
N19070G1X-89.280Y-77.869
N19080G1X-87.950Y-78.022
N19090G2X-83.794Y-79.551I-2.050J-11.978
N19100G1X-85.404Y-81.161
N19110G3X-90.000Y-82.968I-0.707J-4.950
N19120G3X-94.596Y-81.161I-3.889J-3.142
N19130G1Z-1.000F30.0
N19140G1X-96.206Y-79.551F180.0
N19150G2X-91.953Y-78.005I6.206J-10.449
N19160G1X-90.622Y-77.863
N19170G1X-89.280Y-77.869
N19180G1X-87.950Y-78.022
N19190G2X-83.794Y-79.551I-2.050J-11.978
N19200G1X-85.404Y-81.161
N19210G3X-90.000Y-82.968I-0.707J-4.950
N19220G3X-94.596Y-81.161I-3.889J-3.142
N19230G1Z-1.100F30.0
N19240G1X-96.206Y-79.551F180.0
N19250G2X-91.953Y-78.005I6.206J-10.449
N19260G1X-90.622Y-77.863
N19270G1X-89.280Y-77.869
N19280G1X-87.950Y-78.022
N19290G2X-83.794Y-79.551I-2.050J-11.978
N19300G1X-85.404Y-81.161
N19310G3X-90.000Y-82.968I-0.707J-4.950
N19320G3X-94.596Y-81.161I-3.889J-3.142
N19330G1Z-1.200F30.0
N19340G1X-96.206Y-79.551F180.0
N19350G2X-91.953Y-78.005I6.206J-10.449
N19360G1X-90.622Y-77.863Z-1.200
N19370G1X-89.280Y-77.869
N19380G1X-87.950Y-78.022
N19390G2X-83.794Y-79.551I-2.050J-11.978
N19400G1X-85.404Y-81.161
N19410G3X-90.000Y-82.968I-0.707J-4.950
N19420G3X-94.596Y-81.161I-3.889J-3.142
N19430G1Z-1.300F30.0
N19440G1X-96.206Y-79.551F180.0
N19450G2X-91.953Y-78.005I6.206J-10.449
N19460G1Z-1.200
N19470G1X-90.622Y-77.863
N19480G1X-89.280Y-77.869
N19490G1X-87.950Y-78.022
N19500G1Z-1.300F30.0
N19510G2X-83.794Y-79.551I-2.050J-11.978F180.0
N19520G1X-85.404Y-81.161
N19530G3X-90.000Y-82.968I-0.707J-4.950
N19540G3X-94.596Y-81.161I-3.889J-3.142
N19550G1Z-1.400F30.0
N19560G1X-96.206Y-79.551F180.0
N19570G2X-91.953Y-78.005I6.206J-10.449
N19580G1Z-1.200
N19590G1X-90.622Y-77.863
N19600G1X-89.280Y-77.869
N19610G1X-87.950Y-78.022
N19620G1Z-1.400F30.0
N19630G2X-83.794Y-79.551I-2.050J-11.978F180.0
N19640G1X-85.404Y-81.161
N19650G3X-90.000Y-82.968I-0.707J-4.950
N19660G3X-94.596Y-81.161I-3.889J-3.142
N19670G1Z-1.500F30.0
N19680G1X-96.206Y-79.551F180.0
N19690G2X-91.953Y-78.005I6.206J-10.449
N19700G1Z-1.200
N19710G1X-90.622Y-77.863
N19720G1X-89.280Y-77.869
N19730G1X-87.950Y-78.022
N19740G1Z-1.500F30.0
N19750G2X-83.794Y-79.551I-2.050J-11.978F180.0
N19760G1X-85.404Y-81.161
N19770G3X-90.000Y-82.968I-0.707J-4.950
N19780G3X-94.596Y-81.161I-3.889J-3.142
N19790G1Z-1.600F30.0
N19800G1X-96.206Y-79.551F180.0
N19810G2X-91.953Y-78.005I6.206J-10.449
N19820G1Z-1.200
N19830G1X-90.622Y-77.863
N19840G1X-89.280Y-77.869
N19850G1X-87.950Y-78.022
N19860G1Z-1.600F30.0
N19870G2X-83.794Y-79.551I-2.050J-11.978F180.0
N19880G1X-85.404Y-81.161
N19890G3X-90.000Y-82.968I-0.707J-4.950
N19900G3X-94.596Y-81.161I-3.889J-3.142
N19910G1Z-1.700F30.0
N19920G1X-96.206Y-79.551F180.0
N19930G2X-91.953Y-78.005I6.206J-10.449
N19940G1Z-1.200
N19950G1X-90.622Y-77.863
N19960G1X-89.280Y-77.869
N19970G1X-87.950Y-78.022
N19980G1Z-1.700F30.0
N19990G2X-83.794Y-79.551I-2.050J-11.978F180.0
N20000G1X-85.404Y-81.161
N20010G3X-90.000Y-82.968I-0.707J-4.950
N20020G3X-94.596Y-81.161I-3.889J-3.142
N20030G1Z-1.800F30.0
N20040G1X-96.206Y-79.551F180.0
N20050G2X-91.953Y-78.005I6.206J-10.449
N20060G1Z-1.200
N20070G1X-90.622Y-77.863
N20080G1X-89.280Y-77.869
N20090G1X-87.950Y-78.022
N20100G1Z-1.800F30.0
N20110G2X-83.794Y-79.551I-2.050J-11.978F180.0
N20120G1X-85.404Y-81.161
N20130G3X-90.000Y-82.968I-0.707J-4.950
N20140G3X-94.596Y-81.161I-3.889J-3.142
N20150G1Z-1.900F30.0
N20160G1X-96.206Y-79.551F180.0
N20170G2X-91.953Y-78.005I6.206J-10.449
N20180G1Z-1.200
N20190G1X-90.622Y-77.863
N20200G1X-89.280Y-77.869
N20210G1X-87.950Y-78.022
N20220G1Z-1.900F30.0
N20230G2X-83.794Y-79.551I-2.050J-11.978F180.0
N20240G1X-85.404Y-81.161
N20250G3X-90.000Y-82.968I-0.707J-4.950
N20260G3X-94.596Y-81.161I-3.889J-3.142
N20270G00Z6.000
N20280S3400M03
(—ÖŠs 2)
()
N20310G00X-23.214Y-64.383Z6.000
N20320G1Z-0.100F30.0
N20330G3X-27.615Y-63.608I-6.786J-25.617F180.0
N20340G3X-29.250Y-65.101I-0.135J-1.494
N20350G1Y-72.000
N20360G1X-30.750
N20370G1Y-65.101
N20380G3X-32.385Y-63.608I-1.500J0.000
N20390G3X-36.786Y-64.383I2.385J-26.392
N20400G3X-37.811Y-66.347I0.384J-1.450
N20410G1X-35.452Y-72.829
N20420G1X-36.861Y-73.342
N20430G1X-39.221Y-66.860
N20440G3X-41.268Y-66.015I-1.410J-0.513
N20450G3X-45.138Y-68.249I11.268J-23.985
N20460G3X-45.430Y-70.445I0.857J-1.231
N20470G1X-40.996Y-75.729
N20480G1X-42.145Y-76.693
N20490G1X-46.579Y-71.409
N20500G3X-48.792Y-71.315I-1.149J-0.964
N20510G3X-51.664Y-74.738I18.792J-18.685
N20520G3X-51.188Y-76.901I1.226J-0.864
N20530G1X-45.213Y-80.350
N20540G1X-45.963Y-81.650
N20550G1X-51.938Y-78.200
N20560G3X-54.049Y-78.869I-0.750J-1.299
N20570G3X-55.577Y-83.068I24.049J-11.131
N20580G3X-54.390Y-84.938I1.448J-0.392
N20590G1X-47.596Y-86.136
N20600G1X-47.857Y-87.613
N20610G1X-54.651Y-86.415
N20620G3X-56.406Y-87.766I-0.260J-1.477
N20630G1X-56.426Y-88.027
N20640G1X-56.500Y-90.026
N20650G1X-56.423Y-92.025
N20660G1X-56.406Y-92.234
N20670G3X-54.651Y-93.585I1.495J0.126
N20680G1X-47.857Y-92.387
N20690G1X-47.596Y-93.864
N20700G1X-54.390Y-95.062
N20710G3X-55.577Y-96.932I0.260J-1.477
N20720G3X-54.049Y-101.131I25.577J6.932
N20730G3X-51.938Y-101.800I1.361J0.630
N20740G1X-45.963Y-98.350
N20750G1X-45.213Y-99.650
N20760G1X-51.188Y-103.099
N20770G3X-51.664Y-105.262I0.750J-1.299
N20780G3X-48.792Y-108.685I21.664J15.262
N20790G3X-46.579Y-108.591I1.064J1.058
N20800G1X-42.145Y-103.307
N20810G1X-40.996Y-104.271
N20820G1X-45.430Y-109.555
N20830G3X-45.138Y-111.751I1.149J-0.964
N20840G3X-41.268Y-113.985I15.138J21.751
N20850G3X-39.221Y-113.140I0.638J1.358
N20860G1X-36.861Y-106.658
N20870G1X-35.452Y-107.171
N20880G1X-37.811Y-113.653
N20890G3X-36.786Y-115.617I1.410J-0.513
N20900G3X-32.385Y-116.392I6.786J25.617
N20910G3X-30.750Y-114.899I0.135J1.494
N20920G1Y-108.000
N20930G1X-29.250
N20940G1Y-114.899
N20950G3X-27.615Y-116.392I1.500J0.000
N20960G3X-23.214Y-115.617I-2.385J26.392
N20970G3X-22.189Y-113.653I-0.384J1.450
N20980G1X-24.548Y-107.171
N20990G1X-23.139Y-106.658
N21000G1X-20.779Y-113.140
N21010G3X-18.732Y-113.985I1.410J0.513
N21020G1X-18.538Y-113.893
N21030G1X-16.768Y-112.960
N21040G1X-15.074Y-111.897
N21050G1X-14.862Y-111.751
N21060G3X-14.570Y-109.555I-0.857J1.231
N21070G1X-19.004Y-104.271
N21080G1X-17.855Y-103.307
N21090G1X-13.421Y-108.591
N21100G3X-11.208Y-108.685I1.149J0.964
N21110G3X-8.336Y-105.262I-18.792J18.685
N21120G3X-8.812Y-103.099I-1.226J0.864
N21130G1X-14.787Y-99.650
N21140G1X-14.037Y-98.350
N21150G1X-8.062Y-101.800
N21160G3X-5.951Y-101.131I0.750J1.299
N21170G3X-4.423Y-96.932I-24.049J11.131
N21180G3X-5.610Y-95.062I-1.448J0.392
N21190G1X-12.404Y-93.864
N21200G1X-12.143Y-92.387
N21210G1X-5.349Y-93.585
N21220G3X-3.594Y-92.234I0.260J1.477
N21230G3Y-87.766I-26.406J2.234
N21240G3X-5.349Y-86.415I-1.495J-0.126
N21250G1X-12.143Y-87.613
N21260G1X-12.404Y-86.136
N21270G1X-5.610Y-84.938
N21280G3X-4.423Y-83.068I-0.260J1.477
N21290G3X-5.951Y-78.869I-25.577J-6.932
N21300G3X-8.062Y-78.200I-1.361J-0.630
N21310G1X-14.037Y-81.650
N21320G1X-14.787Y-80.350
N21330G1X-8.812Y-76.901
N21340G3X-8.336Y-74.738I-0.750J1.299
N21350G3X-11.208Y-71.315I-21.664J-15.262
N21360G3X-13.421Y-71.409I-1.064J-1.058
N21370G1X-17.855Y-76.693
N21380G1X-19.004Y-75.729
N21390G1X-14.570Y-70.445
N21400G3X-14.862Y-68.249I-1.149J0.964
N21410G3X-15.261Y-67.977I-15.138J-21.751
N21420G1X-16.960Y-66.930
N21430G1X-18.732Y-66.015
N21440G1X-18.741Y-66.011
N21450G3X-20.779Y-66.860I-0.629J-1.362
N21460G1X-23.139Y-73.342
N21470G1X-24.548Y-72.829
N21480G1X-22.189Y-66.347
N21490G3X-23.214Y-64.383I-1.410J0.513
N21500G1Z-0.200F30.0
N21510G3X-27.615Y-63.608I-6.786J-25.617F180.0
N21520G3X-29.250Y-65.101I-0.135J-1.494
N21530G1Y-72.000
N21540G1X-30.750
N21550G1Y-65.101
N21560G3X-32.385Y-63.608I-1.500J0.000
N21570G3X-36.786Y-64.383I2.385J-26.392
N21580G3X-37.811Y-66.347I0.384J-1.450
N21590G1X-35.452Y-72.829
N21600G1X-36.861Y-73.342
N21610G1X-39.221Y-66.860
N21620G3X-41.268Y-66.015I-1.410J-0.513
N21630G3X-45.138Y-68.249I11.268J-23.985
N21640G3X-45.430Y-70.445I0.857J-1.231
N21650G1X-40.996Y-75.729
N21660G1X-42.145Y-76.693
N21670G1X-46.579Y-71.409
N21680G3X-48.792Y-71.315I-1.149J-0.964
N21690G3X-51.664Y-74.738I18.792J-18.685
N21700G3X-51.188Y-76.901I1.226J-0.864
N21710G1X-45.213Y-80.350
N21720G1X-45.963Y-81.650
N21730G1X-51.938Y-78.200
N21740G3X-54.049Y-78.869I-0.750J-1.299
N21750G3X-55.577Y-83.068I24.049J-11.131
N21760G3X-54.390Y-84.938I1.448J-0.392
N21770G1X-47.596Y-86.136
N21780G1X-47.857Y-87.613
N21790G1X-54.651Y-86.415
N21800G3X-56.406Y-87.766I-0.260J-1.477
N21810G1X-56.426Y-88.027
N21820G1X-56.500Y-90.026
N21830G1X-56.423Y-92.025
N21840G1X-56.406Y-92.234
N21850G3X-54.651Y-93.585I1.495J0.126
N21860G1X-47.857Y-92.387
N21870G1X-47.596Y-93.864
N21880G1X-54.390Y-95.062
N21890G3X-55.577Y-96.932I0.260J-1.477
N21900G3X-54.049Y-101.131I25.577J6.932
N21910G3X-51.938Y-101.800I1.361J0.630
N21920G1X-45.963Y-98.350
N21930G1X-45.213Y-99.650
N21940G1X-51.188Y-103.099
N21950G3X-51.664Y-105.262I0.750J-1.299
N21960G3X-48.792Y-108.685I21.664J15.262
N21970G3X-46.579Y-108.591I1.064J1.058
N21980G1X-42.145Y-103.307
N21990G1X-40.996Y-104.271
N22000G1X-45.430Y-109.555
N22010G3X-45.138Y-111.751I1.149J-0.964
N22020G3X-41.268Y-113.985I15.138J21.751
N22030G3X-39.221Y-113.140I0.638J1.358
N22040G1X-36.861Y-106.658
N22050G1X-35.452Y-107.171
N22060G1X-37.811Y-113.653
N22070G3X-36.786Y-115.617I1.410J-0.513
N22080G3X-32.385Y-116.392I6.786J25.617
N22090G3X-30.750Y-114.899I0.135J1.494
N22100G1Y-108.000
N22110G1X-29.250
N22120G1Y-114.899
N22130G3X-27.615Y-116.392I1.500J0.000
N22140G3X-23.214Y-115.617I-2.385J26.392
N22150G3X-22.189Y-113.653I-0.384J1.450
N22160G1X-24.548Y-107.171
N22170G1X-23.139Y-106.658
N22180G1X-20.779Y-113.140
N22190G3X-18.732Y-113.985I1.410J0.513
N22200G1X-18.538Y-113.893
N22210G1X-16.768Y-112.960
N22220G1X-15.074Y-111.897
N22230G1X-14.862Y-111.751
N22240G3X-14.570Y-109.555I-0.857J1.231
N22250G1X-19.004Y-104.271
N22260G1X-17.855Y-103.307
N22270G1X-13.421Y-108.591
N22280G3X-11.208Y-108.685I1.149J0.964
N22290G3X-8.336Y-105.262I-18.792J18.685
N22300G3X-8.812Y-103.099I-1.226J0.864
N22310G1X-14.787Y-99.650
N22320G1X-14.037Y-98.350
N22330G1X-8.062Y-101.800
N22340G3X-5.951Y-101.131I0.750J1.299
N22350G3X-4.423Y-96.932I-24.049J11.131
N22360G3X-5.610Y-95.062I-1.448J0.392
N22370G1X-12.404Y-93.864
N22380G1X-12.143Y-92.387
N22390G1X-5.349Y-93.585
N22400G3X-3.594Y-92.234I0.260J1.477
N22410G3Y-87.766I-26.406J2.234
N22420G3X-5.349Y-86.415I-1.495J-0.126
N22430G1X-12.143Y-87.613
N22440G1X-12.404Y-86.136
N22450G1X-5.610Y-84.938
N22460G3X-4.423Y-83.068I-0.260J1.477
N22470G3X-5.951Y-78.869I-25.577J-6.932
N22480G3X-8.062Y-78.200I-1.361J-0.630
N22490G1X-14.037Y-81.650
N22500G1X-14.787Y-80.350
N22510G1X-8.812Y-76.901
N22520G3X-8.336Y-74.738I-0.750J1.299
N22530G3X-11.208Y-71.315I-21.664J-15.262
N22540G3X-13.421Y-71.409I-1.064J-1.058
N22550G1X-17.855Y-76.693
N22560G1X-19.004Y-75.729
N22570G1X-14.570Y-70.445
N22580G3X-14.862Y-68.249I-1.149J0.964
N22590G3X-15.261Y-67.977I-15.138J-21.751
N22600G1X-16.960Y-66.930
N22610G1X-18.732Y-66.015
N22620G1X-18.741Y-66.011
N22630G3X-20.779Y-66.860I-0.629J-1.362
N22640G1X-23.139Y-73.342
N22650G1X-24.548Y-72.829
N22660G1X-22.189Y-66.347
N22670G3X-23.214Y-64.383I-1.410J0.513
N22680G1Z-0.300F30.0
N22690G3X-27.615Y-63.608I-6.786J-25.617F180.0
N22700G3X-29.250Y-65.101I-0.135J-1.494
N22710G1Y-72.000
N22720G1X-30.750
N22730G1Y-65.101
N22740G3X-32.385Y-63.608I-1.500J0.000
N22750G3X-36.786Y-64.383I2.385J-26.392
N22760G3X-37.811Y-66.347I0.384J-1.450
N22770G1X-35.452Y-72.829
N22780G1X-36.861Y-73.342
N22790G1X-39.221Y-66.860
N22800G3X-41.268Y-66.015I-1.410J-0.513
N22810G3X-45.138Y-68.249I11.268J-23.985
N22820G3X-45.430Y-70.445I0.857J-1.231
N22830G1X-40.996Y-75.729
N22840G1X-42.145Y-76.693
N22850G1X-46.579Y-71.409
N22860G3X-48.792Y-71.315I-1.149J-0.964
N22870G3X-51.664Y-74.738I18.792J-18.685
N22880G3X-51.188Y-76.901I1.226J-0.864
N22890G1X-45.213Y-80.350
N22900G1X-45.963Y-81.650
N22910G1X-51.938Y-78.200
N22920G3X-54.049Y-78.869I-0.750J-1.299
N22930G3X-55.577Y-83.068I24.049J-11.131
N22940G3X-54.390Y-84.938I1.448J-0.392
N22950G1X-47.596Y-86.136
N22960G1X-47.857Y-87.613
N22970G1X-54.651Y-86.415
N22980G3X-56.406Y-87.766I-0.260J-1.477
N22990G1X-56.426Y-88.027
N23000G1X-56.500Y-90.026
N23010G1X-56.423Y-92.025
N23020G1X-56.406Y-92.234
N23030G3X-54.651Y-93.585I1.495J0.126
N23040G1X-47.857Y-92.387
N23050G1X-47.596Y-93.864
N23060G1X-54.390Y-95.062
N23070G3X-55.577Y-96.932I0.260J-1.477
N23080G3X-54.049Y-101.131I25.577J6.932
N23090G3X-51.938Y-101.800I1.361J0.630
N23100G1X-45.963Y-98.350
N23110G1X-45.213Y-99.650
N23120G1X-51.188Y-103.099
N23130G3X-51.664Y-105.262I0.750J-1.299
N23140G3X-48.792Y-108.685I21.664J15.262
N23150G3X-46.579Y-108.591I1.064J1.058
N23160G1X-42.145Y-103.307
N23170G1X-40.996Y-104.271
N23180G1X-45.430Y-109.555
N23190G3X-45.138Y-111.751I1.149J-0.964
N23200G3X-41.268Y-113.985I15.138J21.751
N23210G3X-39.221Y-113.140I0.638J1.358
N23220G1X-36.861Y-106.658
N23230G1X-35.452Y-107.171
N23240G1X-37.811Y-113.653
N23250G3X-36.786Y-115.617I1.410J-0.513
N23260G3X-32.385Y-116.392I6.786J25.617
N23270G3X-30.750Y-114.899I0.135J1.494
N23280G1Y-108.000
N23290G1X-29.250
N23300G1Y-114.899
N23310G3X-27.615Y-116.392I1.500J0.000
N23320G3X-23.214Y-115.617I-2.385J26.392
N23330G3X-22.189Y-113.653I-0.384J1.450
N23340G1X-24.548Y-107.171
N23350G1X-23.139Y-106.658
N23360G1X-20.779Y-113.140
N23370G3X-18.732Y-113.985I1.410J0.513
N23380G1X-18.538Y-113.893
N23390G1X-16.768Y-112.960
N23400G1X-15.074Y-111.897
N23410G1X-14.862Y-111.751
N23420G3X-14.570Y-109.555I-0.857J1.231
N23430G1X-19.004Y-104.271
N23440G1X-17.855Y-103.307
N23450G1X-13.421Y-108.591
N23460G3X-11.208Y-108.685I1.149J0.964
N23470G3X-8.336Y-105.262I-18.792J18.685
N23480G3X-8.812Y-103.099I-1.226J0.864
N23490G1X-14.787Y-99.650
N23500G1X-14.037Y-98.350
N23510G1X-8.062Y-101.800
N23520G3X-5.951Y-101.131I0.750J1.299
N23530G3X-4.423Y-96.932I-24.049J11.131
N23540G3X-5.610Y-95.062I-1.448J0.392
N23550G1X-12.404Y-93.864
N23560G1X-12.143Y-92.387
N23570G1X-5.349Y-93.585
N23580G3X-3.594Y-92.234I0.260J1.477
N23590G3Y-87.766I-26.406J2.234
N23600G3X-5.349Y-86.415I-1.495J-0.126
N23610G1X-12.143Y-87.613
N23620G1X-12.404Y-86.136
N23630G1X-5.610Y-84.938
N23640G3X-4.423Y-83.068I-0.260J1.477
N23650G3X-5.951Y-78.869I-25.577J-6.932
N23660G3X-8.062Y-78.200I-1.361J-0.630
N23670G1X-14.037Y-81.650
N23680G1X-14.787Y-80.350
N23690G1X-8.812Y-76.901
N23700G3X-8.336Y-74.738I-0.750J1.299
N23710G3X-11.208Y-71.315I-21.664J-15.262
N23720G3X-13.421Y-71.409I-1.064J-1.058
N23730G1X-17.855Y-76.693
N23740G1X-19.004Y-75.729
N23750G1X-14.570Y-70.445
N23760G3X-14.862Y-68.249I-1.149J0.964
N23770G3X-15.261Y-67.977I-15.138J-21.751
N23780G1X-16.960Y-66.930
N23790G1X-18.732Y-66.015
N23800G1X-18.741Y-66.011
N23810G3X-20.779Y-66.860I-0.629J-1.362
N23820G1X-23.139Y-73.342
N23830G1X-24.548Y-72.829
N23840G1X-22.189Y-66.347
N23850G3X-23.214Y-64.383I-1.410J0.513
N23860G1Z-0.400F30.0
N23870G3X-27.615Y-63.608I-6.786J-25.617F180.0
N23880G3X-29.250Y-65.101I-0.135J-1.494
N23890G1Y-72.000
N23900G1X-30.750
N23910G1Y-65.101
N23920G3X-32.385Y-63.608I-1.500J0.000
N23930G3X-36.786Y-64.383I2.385J-26.392
N23940G3X-37.811Y-66.347I0.384J-1.450
N23950G1X-35.452Y-72.829
N23960G1X-36.861Y-73.342
N23970G1X-39.221Y-66.860
N23980G3X-41.268Y-66.015I-1.410J-0.513
N23990G3X-45.138Y-68.249I11.268J-23.985
N24000G3X-45.430Y-70.445I0.857J-1.231
N24010G1X-40.996Y-75.729
N24020G1X-42.145Y-76.693
N24030G1X-46.579Y-71.409
N24040G3X-48.792Y-71.315I-1.149J-0.964
N24050G3X-51.664Y-74.738I18.792J-18.685
N24060G3X-51.188Y-76.901I1.226J-0.864
N24070G1X-45.213Y-80.350
N24080G1X-45.963Y-81.650
N24090G1X-51.938Y-78.200
N24100G3X-54.049Y-78.869I-0.750J-1.299
N24110G3X-55.577Y-83.068I24.049J-11.131
N24120G3X-54.390Y-84.938I1.448J-0.392
N24130G1X-47.596Y-86.136
N24140G1X-47.857Y-87.613
N24150G1X-54.651Y-86.415
N24160G3X-56.406Y-87.766I-0.260J-1.477
N24170G1X-56.426Y-88.027
N24180G1X-56.500Y-90.026
N24190G1X-56.423Y-92.025
N24200G1X-56.406Y-92.234
N24210G3X-54.651Y-93.585I1.495J0.126
N24220G1X-47.857Y-92.387
N24230G1X-47.596Y-93.864
N24240G1X-54.390Y-95.062
N24250G3X-55.577Y-96.932I0.260J-1.477
N24260G3X-54.049Y-101.131I25.577J6.932
N24270G3X-51.938Y-101.800I1.361J0.630
N24280G1X-45.963Y-98.350
N24290G1X-45.213Y-99.650
N24300G1X-51.188Y-103.099
N24310G3X-51.664Y-105.262I0.750J-1.299
N24320G3X-48.792Y-108.685I21.664J15.262
N24330G3X-46.579Y-108.591I1.064J1.058
N24340G1X-42.145Y-103.307
N24350G1X-40.996Y-104.271
N24360G1X-45.430Y-109.555
N24370G3X-45.138Y-111.751I1.149J-0.964
N24380G3X-41.268Y-113.985I15.138J21.751
N24390G3X-39.221Y-113.140I0.638J1.358
N24400G1X-36.861Y-106.658
N24410G1X-35.452Y-107.171
N24420G1X-37.811Y-113.653
N24430G3X-36.786Y-115.617I1.410J-0.513
N24440G3X-32.385Y-116.392I6.786J25.617
N24450G3X-30.750Y-114.899I0.135J1.494
N24460G1Y-108.000
N24470G1X-29.250
N24480G1Y-114.899
N24490G3X-27.615Y-116.392I1.500J0.000
N24500G3X-23.214Y-115.617I-2.385J26.392
N24510G3X-22.189Y-113.653I-0.384J1.450
N24520G1X-24.548Y-107.171
N24530G1X-23.139Y-106.658
N24540G1X-20.779Y-113.140
N24550G3X-18.732Y-113.985I1.410J0.513
N24560G1X-18.538Y-113.893
N24570G1X-16.768Y-112.960
N24580G1X-15.074Y-111.897
N24590G1X-14.862Y-111.751
N24600G3X-14.570Y-109.555I-0.857J1.231
N24610G1X-19.004Y-104.271
N24620G1X-17.855Y-103.307
N24630G1X-13.421Y-108.591
N24640G3X-11.208Y-108.685I1.149J0.964
N24650G3X-8.336Y-105.262I-18.792J18.685
N24660G3X-8.812Y-103.099I-1.226J0.864
N24670G1X-14.787Y-99.650
N24680G1X-14.037Y-98.350
N24690G1X-8.062Y-101.800
N24700G3X-5.951Y-101.131I0.750J1.299
N24710G3X-4.423Y-96.932I-24.049J11.131
N24720G3X-5.610Y-95.062I-1.448J0.392
N24730G1X-12.404Y-93.864
N24740G1X-12.143Y-92.387
N24750G1X-5.349Y-93.585
N24760G3X-3.594Y-92.234I0.260J1.477
N24770G3Y-87.766I-26.406J2.234
N24780G3X-5.349Y-86.415I-1.495J-0.126
N24790G1X-12.143Y-87.613
N24800G1X-12.404Y-86.136
N24810G1X-5.610Y-84.938
N24820G3X-4.423Y-83.068I-0.260J1.477
N24830G3X-5.951Y-78.869I-25.577J-6.932
N24840G3X-8.062Y-78.200I-1.361J-0.630
N24850G1X-14.037Y-81.650
N24860G1X-14.787Y-80.350
N24870G1X-8.812Y-76.901
N24880G3X-8.336Y-74.738I-0.750J1.299
N24890G3X-11.208Y-71.315I-21.664J-15.262
N24900G3X-13.421Y-71.409I-1.064J-1.058
N24910G1X-17.855Y-76.693
N24920G1X-19.004Y-75.729
N24930G1X-14.570Y-70.445
N24940G3X-14.862Y-68.249I-1.149J0.964
N24950G3X-15.261Y-67.977I-15.138J-21.751
N24960G1X-16.960Y-66.930
N24970G1X-18.732Y-66.015
N24980G1X-18.741Y-66.011
N24990G3X-20.779Y-66.860I-0.629J-1.362
N25000G1X-23.139Y-73.342
N25010G1X-24.548Y-72.829
N25020G1X-22.189Y-66.347
N25030G3X-23.214Y-64.383I-1.410J0.513
N25040G1Z-0.500F30.0
N25050G3X-27.615Y-63.608I-6.786J-25.617F180.0
N25060G3X-29.250Y-65.101I-0.135J-1.494
N25070G1Y-72.000
N25080G1X-30.750
N25090G1Y-65.101
N25100G3X-32.385Y-63.608I-1.500J0.000
N25110G3X-36.786Y-64.383I2.385J-26.392
N25120G3X-37.811Y-66.347I0.384J-1.450
N25130G1X-35.452Y-72.829
N25140G1X-36.861Y-73.342
N25150G1X-39.221Y-66.860
N25160G3X-41.268Y-66.015I-1.410J-0.513
N25170G3X-45.138Y-68.249I11.268J-23.985
N25180G3X-45.430Y-70.445I0.857J-1.231
N25190G1X-40.996Y-75.729
N25200G1X-42.145Y-76.693
N25210G1X-46.579Y-71.409
N25220G3X-48.792Y-71.315I-1.149J-0.964
N25230G3X-51.664Y-74.738I18.792J-18.685
N25240G3X-51.188Y-76.901I1.226J-0.864
N25250G1X-45.213Y-80.350
N25260G1X-45.963Y-81.650
N25270G1X-51.938Y-78.200
N25280G3X-54.049Y-78.869I-0.750J-1.299
N25290G3X-55.577Y-83.068I24.049J-11.131
N25300G3X-54.390Y-84.938I1.448J-0.392
N25310G1X-47.596Y-86.136
N25320G1X-47.857Y-87.613
N25330G1X-54.651Y-86.415
N25340G3X-56.406Y-87.766I-0.260J-1.477
N25350G1X-56.426Y-88.027
N25360G1X-56.500Y-90.026
N25370G1X-56.423Y-92.025
N25380G1X-56.406Y-92.234
N25390G3X-54.651Y-93.585I1.495J0.126
N25400G1X-47.857Y-92.387
N25410G1X-47.596Y-93.864
N25420G1X-54.390Y-95.062
N25430G3X-55.577Y-96.932I0.260J-1.477
N25440G3X-54.049Y-101.131I25.577J6.932
N25450G3X-51.938Y-101.800I1.361J0.630
N25460G1X-45.963Y-98.350
N25470G1X-45.213Y-99.650
N25480G1X-51.188Y-103.099
N25490G3X-51.664Y-105.262I0.750J-1.299
N25500G3X-48.792Y-108.685I21.664J15.262
N25510G3X-46.579Y-108.591I1.064J1.058
N25520G1X-42.145Y-103.307
N25530G1X-40.996Y-104.271
N25540G1X-45.430Y-109.555
N25550G3X-45.138Y-111.751I1.149J-0.964
N25560G3X-41.268Y-113.985I15.138J21.751
N25570G3X-39.221Y-113.140I0.638J1.358
N25580G1X-36.861Y-106.658
N25590G1X-35.452Y-107.171
N25600G1X-37.811Y-113.653
N25610G3X-36.786Y-115.617I1.410J-0.513
N25620G3X-32.385Y-116.392I6.786J25.617
N25630G3X-30.750Y-114.899I0.135J1.494
N25640G1Y-108.000
N25650G1X-29.250
N25660G1Y-114.899
N25670G3X-27.615Y-116.392I1.500J0.000
N25680G3X-23.214Y-115.617I-2.385J26.392
N25690G3X-22.189Y-113.653I-0.384J1.450
N25700G1X-24.548Y-107.171
N25710G1X-23.139Y-106.658
N25720G1X-20.779Y-113.140
N25730G3X-18.732Y-113.985I1.410J0.513
N25740G1X-18.538Y-113.893
N25750G1X-16.768Y-112.960
N25760G1X-15.074Y-111.897
N25770G1X-14.862Y-111.751
N25780G3X-14.570Y-109.555I-0.857J1.231
N25790G1X-19.004Y-104.271
N25800G1X-17.855Y-103.307
N25810G1X-13.421Y-108.591
N25820G3X-11.208Y-108.685I1.149J0.964
N25830G3X-8.336Y-105.262I-18.792J18.685
N25840G3X-8.812Y-103.099I-1.226J0.864
N25850G1X-14.787Y-99.650
N25860G1X-14.037Y-98.350
N25870G1X-8.062Y-101.800
N25880G3X-5.951Y-101.131I0.750J1.299
N25890G3X-4.423Y-96.932I-24.049J11.131
N25900G3X-5.610Y-95.062I-1.448J0.392
N25910G1X-12.404Y-93.864
N25920G1X-12.143Y-92.387
N25930G1X-5.349Y-93.585
N25940G3X-3.594Y-92.234I0.260J1.477
N25950G3Y-87.766I-26.406J2.234
N25960G3X-5.349Y-86.415I-1.495J-0.126
N25970G1X-12.143Y-87.613
N25980G1X-12.404Y-86.136
N25990G1X-5.610Y-84.938
N26000G3X-4.423Y-83.068I-0.260J1.477
N26010G3X-5.951Y-78.869I-25.577J-6.932
N26020G3X-8.062Y-78.200I-1.361J-0.630
N26030G1X-14.037Y-81.650
N26040G1X-14.787Y-80.350
N26050G1X-8.812Y-76.901
N26060G3X-8.336Y-74.738I-0.750J1.299
N26070G3X-11.208Y-71.315I-21.664J-15.262
N26080G3X-13.421Y-71.409I-1.064J-1.058
N26090G1X-17.855Y-76.693
N26100G1X-19.004Y-75.729
N26110G1X-14.570Y-70.445
N26120G3X-14.862Y-68.249I-1.149J0.964
N26130G3X-15.261Y-67.977I-15.138J-21.751
N26140G1X-16.960Y-66.930
N26150G1X-18.732Y-66.015
N26160G1X-18.741Y-66.011
N26170G3X-20.779Y-66.860I-0.629J-1.362
N26180G1X-23.139Y-73.342
N26190G1X-24.548Y-72.829
N26200G1X-22.189Y-66.347
N26210G3X-23.214Y-64.383I-1.410J0.513
N26220G1Z-0.600F30.0
N26230G3X-27.615Y-63.608I-6.786J-25.617F180.0
N26240G3X-29.250Y-65.101I-0.135J-1.494
N26250G1Y-72.000
N26260G1X-30.750
N26270G1Y-65.101
N26280G3X-32.385Y-63.608I-1.500J0.000
N26290G3X-36.786Y-64.383I2.385J-26.392
N26300G3X-37.811Y-66.347I0.384J-1.450
N26310G1X-35.452Y-72.829
N26320G1X-36.861Y-73.342
N26330G1X-39.221Y-66.860
N26340G3X-41.268Y-66.015I-1.410J-0.513
N26350G3X-45.138Y-68.249I11.268J-23.985
N26360G3X-45.430Y-70.445I0.857J-1.231
N26370G1X-40.996Y-75.729
N26380G1X-42.145Y-76.693
N26390G1X-46.579Y-71.409
N26400G3X-48.792Y-71.315I-1.149J-0.964
N26410G3X-51.664Y-74.738I18.792J-18.685
N26420G3X-51.188Y-76.901I1.226J-0.864
N26430G1X-45.213Y-80.350
N26440G1X-45.963Y-81.650
N26450G1X-51.938Y-78.200
N26460G3X-54.049Y-78.869I-0.750J-1.299
N26470G3X-55.577Y-83.068I24.049J-11.131
N26480G3X-54.390Y-84.938I1.448J-0.392
N26490G1X-47.596Y-86.136
N26500G1X-47.857Y-87.613
N26510G1X-54.651Y-86.415
N26520G3X-56.406Y-87.766I-0.260J-1.477
N26530G1X-56.426Y-88.027
N26540G1X-56.500Y-90.026
N26550G1X-56.423Y-92.025
N26560G1X-56.406Y-92.234
N26570G3X-54.651Y-93.585I1.495J0.126
N26580G1X-47.857Y-92.387
N26590G1X-47.596Y-93.864
N26600G1X-54.390Y-95.062
N26610G3X-55.577Y-96.932I0.260J-1.477
N26620G3X-54.049Y-101.131I25.577J6.932
N26630G3X-51.938Y-101.800I1.361J0.630
N26640G1X-45.963Y-98.350
N26650G1X-45.213Y-99.650
N26660G1X-51.188Y-103.099
N26670G3X-51.664Y-105.262I0.750J-1.299
N26680G3X-48.792Y-108.685I21.664J15.262
N26690G3X-46.579Y-108.591I1.064J1.058
N26700G1X-42.145Y-103.307
N26710G1X-40.996Y-104.271
N26720G1X-45.430Y-109.555
N26730G3X-45.138Y-111.751I1.149J-0.964
N26740G3X-41.268Y-113.985I15.138J21.751
N26750G3X-39.221Y-113.140I0.638J1.358
N26760G1X-36.861Y-106.658
N26770G1X-35.452Y-107.171
N26780G1X-37.811Y-113.653
N26790G3X-36.786Y-115.617I1.410J-0.513
N26800G3X-32.385Y-116.392I6.786J25.617
N26810G3X-30.750Y-114.899I0.135J1.494
N26820G1Y-108.000
N26830G1X-29.250
N26840G1Y-114.899
N26850G3X-27.615Y-116.392I1.500J0.000
N26860G3X-23.214Y-115.617I-2.385J26.392
N26870G3X-22.189Y-113.653I-0.384J1.450
N26880G1X-24.548Y-107.171
N26890G1X-23.139Y-106.658
N26900G1X-20.779Y-113.140
N26910G3X-18.732Y-113.985I1.410J0.513
N26920G1X-18.538Y-113.893
N26930G1X-16.768Y-112.960
N26940G1X-15.074Y-111.897
N26950G1X-14.862Y-111.751
N26960G3X-14.570Y-109.555I-0.857J1.231
N26970G1X-19.004Y-104.271
N26980G1X-17.855Y-103.307
N26990G1X-13.421Y-108.591
N27000G3X-11.208Y-108.685I1.149J0.964
N27010G3X-8.336Y-105.262I-18.792J18.685
N27020G3X-8.812Y-103.099I-1.226J0.864
N27030G1X-14.787Y-99.650
N27040G1X-14.037Y-98.350
N27050G1X-8.062Y-101.800
N27060G3X-5.951Y-101.131I0.750J1.299
N27070G3X-4.423Y-96.932I-24.049J11.131
N27080G3X-5.610Y-95.062I-1.448J0.392
N27090G1X-12.404Y-93.864
N27100G1X-12.143Y-92.387
N27110G1X-5.349Y-93.585
N27120G3X-3.594Y-92.234I0.260J1.477
N27130G3Y-87.766I-26.406J2.234
N27140G3X-5.349Y-86.415I-1.495J-0.126
N27150G1X-12.143Y-87.613
N27160G1X-12.404Y-86.136
N27170G1X-5.610Y-84.938
N27180G3X-4.423Y-83.068I-0.260J1.477
N27190G3X-5.951Y-78.869I-25.577J-6.932
N27200G3X-8.062Y-78.200I-1.361J-0.630
N27210G1X-14.037Y-81.650
N27220G1X-14.787Y-80.350
N27230G1X-8.812Y-76.901
N27240G3X-8.336Y-74.738I-0.750J1.299
N27250G3X-11.208Y-71.315I-21.664J-15.262
N27260G3X-13.421Y-71.409I-1.064J-1.058
N27270G1X-17.855Y-76.693
N27280G1X-19.004Y-75.729
N27290G1X-14.570Y-70.445
N27300G3X-14.862Y-68.249I-1.149J0.964
N27310G3X-15.261Y-67.977I-15.138J-21.751
N27320G1X-16.960Y-66.930
N27330G1X-18.732Y-66.015
N27340G1X-18.741Y-66.011
N27350G3X-20.779Y-66.860I-0.629J-1.362
N27360G1X-23.139Y-73.342
N27370G1X-24.548Y-72.829
N27380G1X-22.189Y-66.347
N27390G3X-23.214Y-64.383I-1.410J0.513
N27400G1Z-0.700F30.0
N27410G3X-27.615Y-63.608I-6.786J-25.617F180.0
N27420G3X-29.250Y-65.101I-0.135J-1.494
N27430G1Y-72.000
N27440G1X-30.750
N27450G1Y-65.101
N27460G3X-32.385Y-63.608I-1.500J0.000
N27470G3X-36.786Y-64.383I2.385J-26.392
N27480G3X-37.811Y-66.347I0.384J-1.450
N27490G1X-35.452Y-72.829
N27500G1X-36.861Y-73.342
N27510G1X-39.221Y-66.860
N27520G3X-41.268Y-66.015I-1.410J-0.513
N27530G3X-45.138Y-68.249I11.268J-23.985
N27540G3X-45.430Y-70.445I0.857J-1.231
N27550G1X-40.996Y-75.729
N27560G1X-42.145Y-76.693
N27570G1X-46.579Y-71.409
N27580G3X-48.792Y-71.315I-1.149J-0.964
N27590G3X-51.664Y-74.738I18.792J-18.685
N27600G3X-51.188Y-76.901I1.226J-0.864
N27610G1X-45.213Y-80.350
N27620G1X-45.963Y-81.650
N27630G1X-51.938Y-78.200
N27640G3X-54.049Y-78.869I-0.750J-1.299
N27650G3X-55.577Y-83.068I24.049J-11.131
N27660G3X-54.390Y-84.938I1.448J-0.392
N27670G1X-47.596Y-86.136
N27680G1X-47.857Y-87.613
N27690G1X-54.651Y-86.415
N27700G3X-56.406Y-87.766I-0.260J-1.477
N27710G1X-56.426Y-88.027
N27720G1X-56.500Y-90.026
N27730G1X-56.423Y-92.025
N27740G1X-56.406Y-92.234
N27750G3X-54.651Y-93.585I1.495J0.126
N27760G1X-47.857Y-92.387
N27770G1X-47.596Y-93.864
N27780G1X-54.390Y-95.062
N27790G3X-55.577Y-96.932I0.260J-1.477
N27800G3X-54.049Y-101.131I25.577J6.932
N27810G3X-51.938Y-101.800I1.361J0.630
N27820G1X-45.963Y-98.350
N27830G1X-45.213Y-99.650
N27840G1X-51.188Y-103.099
N27850G3X-51.664Y-105.262I0.750J-1.299
N27860G3X-48.792Y-108.685I21.664J15.262
N27870G3X-46.579Y-108.591I1.064J1.058
N27880G1X-42.145Y-103.307
N27890G1X-40.996Y-104.271
N27900G1X-45.430Y-109.555
N27910G3X-45.138Y-111.751I1.149J-0.964
N27920G3X-41.268Y-113.985I15.138J21.751
N27930G3X-39.221Y-113.140I0.638J1.358
N27940G1X-36.861Y-106.658
N27950G1X-35.452Y-107.171
N27960G1X-37.811Y-113.653
N27970G3X-36.786Y-115.617I1.410J-0.513
N27980G3X-32.385Y-116.392I6.786J25.617
N27990G3X-30.750Y-114.899I0.135J1.494
N28000G1Y-108.000
N28010G1X-29.250
N28020G1Y-114.899
N28030G3X-27.615Y-116.392I1.500J0.000
N28040G3X-23.214Y-115.617I-2.385J26.392
N28050G3X-22.189Y-113.653I-0.384J1.450
N28060G1X-24.548Y-107.171
N28070G1X-23.139Y-106.658
N28080G1X-20.779Y-113.140
N28090G3X-18.732Y-113.985I1.410J0.513
N28100G1X-18.538Y-113.893
N28110G1X-16.768Y-112.960
N28120G1X-15.074Y-111.897
N28130G1X-14.862Y-111.751
N28140G3X-14.570Y-109.555I-0.857J1.231
N28150G1X-19.004Y-104.271
N28160G1X-17.855Y-103.307
N28170G1X-13.421Y-108.591
N28180G3X-11.208Y-108.685I1.149J0.964
N28190G3X-8.336Y-105.262I-18.792J18.685
N28200G3X-8.812Y-103.099I-1.226J0.864
N28210G1X-14.787Y-99.650
N28220G1X-14.037Y-98.350
N28230G1X-8.062Y-101.800
N28240G3X-5.951Y-101.131I0.750J1.299
N28250G3X-4.423Y-96.932I-24.049J11.131
N28260G3X-5.610Y-95.062I-1.448J0.392
N28270G1X-12.404Y-93.864
N28280G1X-12.143Y-92.387
N28290G1X-5.349Y-93.585
N28300G3X-3.594Y-92.234I0.260J1.477
N28310G3Y-87.766I-26.406J2.234
N28320G3X-5.349Y-86.415I-1.495J-0.126
N28330G1X-12.143Y-87.613
N28340G1X-12.404Y-86.136
N28350G1X-5.610Y-84.938
N28360G3X-4.423Y-83.068I-0.260J1.477
N28370G3X-5.951Y-78.869I-25.577J-6.932
N28380G3X-8.062Y-78.200I-1.361J-0.630
N28390G1X-14.037Y-81.650
N28400G1X-14.787Y-80.350
N28410G1X-8.812Y-76.901
N28420G3X-8.336Y-74.738I-0.750J1.299
N28430G3X-11.208Y-71.315I-21.664J-15.262
N28440G3X-13.421Y-71.409I-1.064J-1.058
N28450G1X-17.855Y-76.693
N28460G1X-19.004Y-75.729
N28470G1X-14.570Y-70.445
N28480G3X-14.862Y-68.249I-1.149J0.964
N28490G3X-15.261Y-67.977I-15.138J-21.751
N28500G1X-16.960Y-66.930
N28510G1X-18.732Y-66.015
N28520G1X-18.741Y-66.011
N28530G3X-20.779Y-66.860I-0.629J-1.362
N28540G1X-23.139Y-73.342
N28550G1X-24.548Y-72.829
N28560G1X-22.189Y-66.347
N28570G3X-23.214Y-64.383I-1.410J0.513
N28580G1Z-0.800F30.0
N28590G3X-27.615Y-63.608I-6.786J-25.617F180.0
N28600G3X-29.250Y-65.101I-0.135J-1.494
N28610G1Y-72.000
N28620G1X-30.750
N28630G1Y-65.101
N28640G3X-32.385Y-63.608I-1.500J0.000
N28650G3X-36.786Y-64.383I2.385J-26.392
N28660G3X-37.811Y-66.347I0.384J-1.450
N28670G1X-35.452Y-72.829
N28680G1X-36.861Y-73.342
N28690G1X-39.221Y-66.860
N28700G3X-41.268Y-66.015I-1.410J-0.513
N28710G3X-45.138Y-68.249I11.268J-23.985
N28720G3X-45.430Y-70.445I0.857J-1.231
N28730G1X-40.996Y-75.729
N28740G1X-42.145Y-76.693
N28750G1X-46.579Y-71.409
N28760G3X-48.792Y-71.315I-1.149J-0.964
N28770G3X-51.664Y-74.738I18.792J-18.685
N28780G3X-51.188Y-76.901I1.226J-0.864
N28790G1X-45.213Y-80.350
N28800G1X-45.963Y-81.650
N28810G1X-51.938Y-78.200
N28820G3X-54.049Y-78.869I-0.750J-1.299
N28830G3X-55.577Y-83.068I24.049J-11.131
N28840G3X-54.390Y-84.938I1.448J-0.392
N28850G1X-47.596Y-86.136
N28860G1X-47.857Y-87.613
N28870G1X-54.651Y-86.415
N28880G3X-56.406Y-87.766I-0.260J-1.477
N28890G1X-56.426Y-88.027
N28900G1X-56.500Y-90.026
N28910G1X-56.423Y-92.025
N28920G1X-56.406Y-92.234
N28930G3X-54.651Y-93.585I1.495J0.126
N28940G1X-47.857Y-92.387
N28950G1X-47.596Y-93.864
N28960G1X-54.390Y-95.062
N28970G3X-55.577Y-96.932I0.260J-1.477
N28980G3X-54.049Y-101.131I25.577J6.932
N28990G3X-51.938Y-101.800I1.361J0.630
N29000G1X-45.963Y-98.350
N29010G1X-45.213Y-99.650
N29020G1X-51.188Y-103.099
N29030G3X-51.664Y-105.262I0.750J-1.299
N29040G3X-48.792Y-108.685I21.664J15.262
N29050G3X-46.579Y-108.591I1.064J1.058
N29060G1X-42.145Y-103.307
N29070G1X-40.996Y-104.271
N29080G1X-45.430Y-109.555
N29090G3X-45.138Y-111.751I1.149J-0.964
N29100G3X-41.268Y-113.985I15.138J21.751
N29110G3X-39.221Y-113.140I0.638J1.358
N29120G1X-36.861Y-106.658
N29130G1X-35.452Y-107.171
N29140G1X-37.811Y-113.653
N29150G3X-36.786Y-115.617I1.410J-0.513
N29160G3X-32.385Y-116.392I6.786J25.617
N29170G3X-30.750Y-114.899I0.135J1.494
N29180G1Y-108.000
N29190G1X-29.250
N29200G1Y-114.899
N29210G3X-27.615Y-116.392I1.500J0.000
N29220G3X-23.214Y-115.617I-2.385J26.392
N29230G3X-22.189Y-113.653I-0.384J1.450
N29240G1X-24.548Y-107.171
N29250G1X-23.139Y-106.658
N29260G1X-20.779Y-113.140
N29270G3X-18.732Y-113.985I1.410J0.513
N29280G1X-18.538Y-113.893
N29290G1X-16.768Y-112.960
N29300G1X-15.074Y-111.897
N29310G1X-14.862Y-111.751
N29320G3X-14.570Y-109.555I-0.857J1.231
N29330G1X-19.004Y-104.271
N29340G1X-17.855Y-103.307
N29350G1X-13.421Y-108.591
N29360G3X-11.208Y-108.685I1.149J0.964
N29370G3X-8.336Y-105.262I-18.792J18.685
N29380G3X-8.812Y-103.099I-1.226J0.864
N29390G1X-14.787Y-99.650
N29400G1X-14.037Y-98.350
N29410G1X-8.062Y-101.800
N29420G3X-5.951Y-101.131I0.750J1.299
N29430G3X-4.423Y-96.932I-24.049J11.131
N29440G3X-5.610Y-95.062I-1.448J0.392
N29450G1X-12.404Y-93.864
N29460G1X-12.143Y-92.387
N29470G1X-5.349Y-93.585
N29480G3X-3.594Y-92.234I0.260J1.477
N29490G3Y-87.766I-26.406J2.234
N29500G3X-5.349Y-86.415I-1.495J-0.126
N29510G1X-12.143Y-87.613
N29520G1X-12.404Y-86.136
N29530G1X-5.610Y-84.938
N29540G3X-4.423Y-83.068I-0.260J1.477
N29550G3X-5.951Y-78.869I-25.577J-6.932
N29560G3X-8.062Y-78.200I-1.361J-0.630
N29570G1X-14.037Y-81.650
N29580G1X-14.787Y-80.350
N29590G1X-8.812Y-76.901
N29600G3X-8.336Y-74.738I-0.750J1.299
N29610G3X-11.208Y-71.315I-21.664J-15.262
N29620G3X-13.421Y-71.409I-1.064J-1.058
N29630G1X-17.855Y-76.693
N29640G1X-19.004Y-75.729
N29650G1X-14.570Y-70.445
N29660G3X-14.862Y-68.249I-1.149J0.964
N29670G3X-15.261Y-67.977I-15.138J-21.751
N29680G1X-16.960Y-66.930
N29690G1X-18.732Y-66.015
N29700G1X-18.741Y-66.011
N29710G3X-20.779Y-66.860I-0.629J-1.362
N29720G1X-23.139Y-73.342
N29730G1X-24.548Y-72.829
N29740G1X-22.189Y-66.347
N29750G3X-23.214Y-64.383I-1.410J0.513
N29760G1Z-0.900F30.0
N29770G3X-27.615Y-63.608I-6.786J-25.617F180.0
N29780G3X-29.250Y-65.101I-0.135J-1.494
N29790G1Y-72.000
N29800G1X-30.750
N29810G1Y-65.101
N29820G3X-32.385Y-63.608I-1.500J0.000
N29830G3X-36.786Y-64.383I2.385J-26.392
N29840G3X-37.811Y-66.347I0.384J-1.450
N29850G1X-35.452Y-72.829
N29860G1X-36.861Y-73.342
N29870G1X-39.221Y-66.860
N29880G3X-41.268Y-66.015I-1.410J-0.513
N29890G3X-45.138Y-68.249I11.268J-23.985
N29900G3X-45.430Y-70.445I0.857J-1.231
N29910G1X-40.996Y-75.729
N29920G1X-42.145Y-76.693
N29930G1X-46.579Y-71.409
N29940G3X-48.792Y-71.315I-1.149J-0.964
N29950G3X-51.664Y-74.738I18.792J-18.685
N29960G3X-51.188Y-76.901I1.226J-0.864
N29970G1X-45.213Y-80.350
N29980G1X-45.963Y-81.650
N29990G1X-51.938Y-78.200
N30000G3X-54.049Y-78.869I-0.750J-1.299
N30010G3X-55.577Y-83.068I24.049J-11.131
N30020G3X-54.390Y-84.938I1.448J-0.392
N30030G1X-47.596Y-86.136
N30040G1X-47.857Y-87.613
N30050G1X-54.651Y-86.415
N30060G3X-56.406Y-87.766I-0.260J-1.477
N30070G1X-56.426Y-88.027
N30080G1X-56.500Y-90.026
N30090G1X-56.423Y-92.025
N30100G1X-56.406Y-92.234
N30110G3X-54.651Y-93.585I1.495J0.126
N30120G1X-47.857Y-92.387
N30130G1X-47.596Y-93.864
N30140G1X-54.390Y-95.062
N30150G3X-55.577Y-96.932I0.260J-1.477
N30160G3X-54.049Y-101.131I25.577J6.932
N30170G3X-51.938Y-101.800I1.361J0.630
N30180G1X-45.963Y-98.350
N30190G1X-45.213Y-99.650
N30200G1X-51.188Y-103.099
N30210G3X-51.664Y-105.262I0.750J-1.299
N30220G3X-48.792Y-108.685I21.664J15.262
N30230G3X-46.579Y-108.591I1.064J1.058
N30240G1X-42.145Y-103.307
N30250G1X-40.996Y-104.271
N30260G1X-45.430Y-109.555
N30270G3X-45.138Y-111.751I1.149J-0.964
N30280G3X-41.268Y-113.985I15.138J21.751
N30290G3X-39.221Y-113.140I0.638J1.358
N30300G1X-36.861Y-106.658
N30310G1X-35.452Y-107.171
N30320G1X-37.811Y-113.653
N30330G3X-36.786Y-115.617I1.410J-0.513
N30340G3X-32.385Y-116.392I6.786J25.617
N30350G3X-30.750Y-114.899I0.135J1.494
N30360G1Y-108.000
N30370G1X-29.250
N30380G1Y-114.899
N30390G3X-27.615Y-116.392I1.500J0.000
N30400G3X-23.214Y-115.617I-2.385J26.392
N30410G3X-22.189Y-113.653I-0.384J1.450
N30420G1X-24.548Y-107.171
N30430G1X-23.139Y-106.658
N30440G1X-20.779Y-113.140
N30450G3X-18.732Y-113.985I1.410J0.513
N30460G1X-18.538Y-113.893
N30470G1X-16.768Y-112.960
N30480G1X-15.074Y-111.897
N30490G1X-14.862Y-111.751
N30500G3X-14.570Y-109.555I-0.857J1.231
N30510G1X-19.004Y-104.271
N30520G1X-17.855Y-103.307
N30530G1X-13.421Y-108.591
N30540G3X-11.208Y-108.685I1.149J0.964
N30550G3X-8.336Y-105.262I-18.792J18.685
N30560G3X-8.812Y-103.099I-1.226J0.864
N30570G1X-14.787Y-99.650
N30580G1X-14.037Y-98.350
N30590G1X-8.062Y-101.800
N30600G3X-5.951Y-101.131I0.750J1.299
N30610G3X-4.423Y-96.932I-24.049J11.131
N30620G3X-5.610Y-95.062I-1.448J0.392
N30630G1X-12.404Y-93.864
N30640G1X-12.143Y-92.387
N30650G1X-5.349Y-93.585
N30660G3X-3.594Y-92.234I0.260J1.477
N30670G3Y-87.766I-26.406J2.234
N30680G3X-5.349Y-86.415I-1.495J-0.126
N30690G1X-12.143Y-87.613
N30700G1X-12.404Y-86.136
N30710G1X-5.610Y-84.938
N30720G3X-4.423Y-83.068I-0.260J1.477
N30730G3X-5.951Y-78.869I-25.577J-6.932
N30740G3X-8.062Y-78.200I-1.361J-0.630
N30750G1X-14.037Y-81.650
N30760G1X-14.787Y-80.350
N30770G1X-8.812Y-76.901
N30780G3X-8.336Y-74.738I-0.750J1.299
N30790G3X-11.208Y-71.315I-21.664J-15.262
N30800G3X-13.421Y-71.409I-1.064J-1.058
N30810G1X-17.855Y-76.693
N30820G1X-19.004Y-75.729
N30830G1X-14.570Y-70.445
N30840G3X-14.862Y-68.249I-1.149J0.964
N30850G3X-15.261Y-67.977I-15.138J-21.751
N30860G1X-16.960Y-66.930
N30870G1X-18.732Y-66.015
N30880G1X-18.741Y-66.011
N30890G3X-20.779Y-66.860I-0.629J-1.362
N30900G1X-23.139Y-73.342
N30910G1X-24.548Y-72.829
N30920G1X-22.189Y-66.347
N30930G3X-23.214Y-64.383I-1.410J0.513
N30940G1Z-1.000F30.0
N30950G3X-27.615Y-63.608I-6.786J-25.617F180.0
N30960G3X-29.250Y-65.101I-0.135J-1.494
N30970G1Y-72.000
N30980G1X-30.750
N30990G1Y-65.101
N31000G3X-32.385Y-63.608I-1.500J0.000
N31010G3X-36.786Y-64.383I2.385J-26.392
N31020G3X-37.811Y-66.347I0.384J-1.450
N31030G1X-35.452Y-72.829
N31040G1X-36.861Y-73.342
N31050G1X-39.221Y-66.860
N31060G3X-41.268Y-66.015I-1.410J-0.513
N31070G3X-45.138Y-68.249I11.268J-23.985
N31080G3X-45.430Y-70.445I0.857J-1.231
N31090G1X-40.996Y-75.729
N31100G1X-42.145Y-76.693
N31110G1X-46.579Y-71.409
N31120G3X-48.792Y-71.315I-1.149J-0.964
N31130G3X-51.664Y-74.738I18.792J-18.685
N31140G3X-51.188Y-76.901I1.226J-0.864
N31150G1X-45.213Y-80.350
N31160G1X-45.963Y-81.650
N31170G1X-51.938Y-78.200
N31180G3X-54.049Y-78.869I-0.750J-1.299
N31190G3X-55.577Y-83.068I24.049J-11.131
N31200G3X-54.390Y-84.938I1.448J-0.392
N31210G1X-47.596Y-86.136
N31220G1X-47.857Y-87.613
N31230G1X-54.651Y-86.415
N31240G3X-56.406Y-87.766I-0.260J-1.477
N31250G1X-56.426Y-88.027
N31260G1X-56.500Y-90.026
N31270G1X-56.423Y-92.025
N31280G1X-56.406Y-92.234
N31290G3X-54.651Y-93.585I1.495J0.126
N31300G1X-47.857Y-92.387
N31310G1X-47.596Y-93.864
N31320G1X-54.390Y-95.062
N31330G3X-55.577Y-96.932I0.260J-1.477
N31340G3X-54.049Y-101.131I25.577J6.932
N31350G3X-51.938Y-101.800I1.361J0.630
N31360G1X-45.963Y-98.350
N31370G1X-45.213Y-99.650
N31380G1X-51.188Y-103.099
N31390G3X-51.664Y-105.262I0.750J-1.299
N31400G3X-48.792Y-108.685I21.664J15.262
N31410G3X-46.579Y-108.591I1.064J1.058
N31420G1X-42.145Y-103.307
N31430G1X-40.996Y-104.271
N31440G1X-45.430Y-109.555
N31450G3X-45.138Y-111.751I1.149J-0.964
N31460G3X-41.268Y-113.985I15.138J21.751
N31470G3X-39.221Y-113.140I0.638J1.358
N31480G1X-36.861Y-106.658
N31490G1X-35.452Y-107.171
N31500G1X-37.811Y-113.653
N31510G3X-36.786Y-115.617I1.410J-0.513
N31520G3X-32.385Y-116.392I6.786J25.617
N31530G3X-30.750Y-114.899I0.135J1.494
N31540G1Y-108.000
N31550G1X-29.250
N31560G1Y-114.899
N31570G3X-27.615Y-116.392I1.500J0.000
N31580G3X-23.214Y-115.617I-2.385J26.392
N31590G3X-22.189Y-113.653I-0.384J1.450
N31600G1X-24.548Y-107.171
N31610G1X-23.139Y-106.658
N31620G1X-20.779Y-113.140
N31630G3X-18.732Y-113.985I1.410J0.513
N31640G1X-18.538Y-113.893
N31650G1X-16.768Y-112.960
N31660G1X-15.074Y-111.897
N31670G1X-14.862Y-111.751
N31680G3X-14.570Y-109.555I-0.857J1.231
N31690G1X-19.004Y-104.271
N31700G1X-17.855Y-103.307
N31710G1X-13.421Y-108.591
N31720G3X-11.208Y-108.685I1.149J0.964
N31730G3X-8.336Y-105.262I-18.792J18.685
N31740G3X-8.812Y-103.099I-1.226J0.864
N31750G1X-14.787Y-99.650
N31760G1X-14.037Y-98.350
N31770G1X-8.062Y-101.800
N31780G3X-5.951Y-101.131I0.750J1.299
N31790G3X-4.423Y-96.932I-24.049J11.131
N31800G3X-5.610Y-95.062I-1.448J0.392
N31810G1X-12.404Y-93.864
N31820G1X-12.143Y-92.387
N31830G1X-5.349Y-93.585
N31840G3X-3.594Y-92.234I0.260J1.477
N31850G3Y-87.766I-26.406J2.234
N31860G3X-5.349Y-86.415I-1.495J-0.126
N31870G1X-12.143Y-87.613
N31880G1X-12.404Y-86.136
N31890G1X-5.610Y-84.938
N31900G3X-4.423Y-83.068I-0.260J1.477
N31910G3X-5.951Y-78.869I-25.577J-6.932
N31920G3X-8.062Y-78.200I-1.361J-0.630
N31930G1X-14.037Y-81.650
N31940G1X-14.787Y-80.350
N31950G1X-8.812Y-76.901
N31960G3X-8.336Y-74.738I-0.750J1.299
N31970G3X-11.208Y-71.315I-21.664J-15.262
N31980G3X-13.421Y-71.409I-1.064J-1.058
N31990G1X-17.855Y-76.693
N32000G1X-19.004Y-75.729
N32010G1X-14.570Y-70.445
N32020G3X-14.862Y-68.249I-1.149J0.964
N32030G3X-15.261Y-67.977I-15.138J-21.751
N32040G1X-16.960Y-66.930
N32050G1X-18.732Y-66.015
N32060G1X-18.741Y-66.011
N32070G3X-20.779Y-66.860I-0.629J-1.362
N32080G1X-23.139Y-73.342
N32090G1X-24.548Y-72.829
N32100G1X-22.189Y-66.347
N32110G3X-23.214Y-64.383I-1.410J0.513
N32120G1Z-1.100F30.0
N32130G3X-27.615Y-63.608I-6.786J-25.617F180.0
N32140G3X-29.250Y-65.101I-0.135J-1.494
N32150G1Y-72.000
N32160G1X-30.750
N32170G1Y-65.101
N32180G3X-32.385Y-63.608I-1.500J0.000
N32190G3X-36.786Y-64.383I2.385J-26.392
N32200G3X-37.811Y-66.347I0.384J-1.450
N32210G1X-35.452Y-72.829
N32220G1X-36.861Y-73.342
N32230G1X-39.221Y-66.860
N32240G3X-41.268Y-66.015I-1.410J-0.513
N32250G3X-45.138Y-68.249I11.268J-23.985
N32260G3X-45.430Y-70.445I0.857J-1.231
N32270G1X-40.996Y-75.729
N32280G1X-42.145Y-76.693
N32290G1X-46.579Y-71.409
N32300G3X-48.792Y-71.315I-1.149J-0.964
N32310G3X-51.664Y-74.738I18.792J-18.685
N32320G3X-51.188Y-76.901I1.226J-0.864
N32330G1X-45.213Y-80.350
N32340G1X-45.963Y-81.650
N32350G1X-51.938Y-78.200
N32360G3X-54.049Y-78.869I-0.750J-1.299
N32370G3X-55.577Y-83.068I24.049J-11.131
N32380G3X-54.390Y-84.938I1.448J-0.392
N32390G1X-47.596Y-86.136
N32400G1X-47.857Y-87.613
N32410G1X-54.651Y-86.415
N32420G3X-56.406Y-87.766I-0.260J-1.477
N32430G1X-56.426Y-88.027
N32440G1X-56.500Y-90.026
N32450G1X-56.423Y-92.025
N32460G1X-56.406Y-92.234
N32470G3X-54.651Y-93.585I1.495J0.126
N32480G1X-47.857Y-92.387
N32490G1X-47.596Y-93.864
N32500G1X-54.390Y-95.062
N32510G3X-55.577Y-96.932I0.260J-1.477
N32520G3X-54.049Y-101.131I25.577J6.932
N32530G3X-51.938Y-101.800I1.361J0.630
N32540G1X-45.963Y-98.350
N32550G1X-45.213Y-99.650
N32560G1X-51.188Y-103.099
N32570G3X-51.664Y-105.262I0.750J-1.299
N32580G3X-48.792Y-108.685I21.664J15.262
N32590G3X-46.579Y-108.591I1.064J1.058
N32600G1X-42.145Y-103.307
N32610G1X-40.996Y-104.271
N32620G1X-45.430Y-109.555
N32630G3X-45.138Y-111.751I1.149J-0.964
N32640G3X-41.268Y-113.985I15.138J21.751
N32650G3X-39.221Y-113.140I0.638J1.358
N32660G1X-36.861Y-106.658
N32670G1X-35.452Y-107.171
N32680G1X-37.811Y-113.653
N32690G3X-36.786Y-115.617I1.410J-0.513
N32700G3X-32.385Y-116.392I6.786J25.617
N32710G3X-30.750Y-114.899I0.135J1.494
N32720G1Y-108.000
N32730G1X-29.250
N32740G1Y-114.899
N32750G3X-27.615Y-116.392I1.500J0.000
N32760G3X-23.214Y-115.617I-2.385J26.392
N32770G3X-22.189Y-113.653I-0.384J1.450
N32780G1X-24.548Y-107.171
N32790G1X-23.139Y-106.658
N32800G1X-20.779Y-113.140
N32810G3X-18.732Y-113.985I1.410J0.513
N32820G1X-18.538Y-113.893
N32830G1X-16.768Y-112.960
N32840G1X-15.074Y-111.897
N32850G1X-14.862Y-111.751
N32860G3X-14.570Y-109.555I-0.857J1.231
N32870G1X-19.004Y-104.271
N32880G1X-17.855Y-103.307
N32890G1X-13.421Y-108.591
N32900G3X-11.208Y-108.685I1.149J0.964
N32910G3X-8.336Y-105.262I-18.792J18.685
N32920G3X-8.812Y-103.099I-1.226J0.864
N32930G1X-14.787Y-99.650
N32940G1X-14.037Y-98.350
N32950G1X-8.062Y-101.800
N32960G3X-5.951Y-101.131I0.750J1.299
N32970G3X-4.423Y-96.932I-24.049J11.131
N32980G3X-5.610Y-95.062I-1.448J0.392
N32990G1X-12.404Y-93.864
N33000G1X-12.143Y-92.387
N33010G1X-5.349Y-93.585
N33020G3X-3.594Y-92.234I0.260J1.477
N33030G3Y-87.766I-26.406J2.234
N33040G3X-5.349Y-86.415I-1.495J-0.126
N33050G1X-12.143Y-87.613
N33060G1X-12.404Y-86.136
N33070G1X-5.610Y-84.938
N33080G3X-4.423Y-83.068I-0.260J1.477
N33090G3X-5.951Y-78.869I-25.577J-6.932
N33100G3X-8.062Y-78.200I-1.361J-0.630
N33110G1X-14.037Y-81.650
N33120G1X-14.787Y-80.350
N33130G1X-8.812Y-76.901
N33140G3X-8.336Y-74.738I-0.750J1.299
N33150G3X-11.208Y-71.315I-21.664J-15.262
N33160G3X-13.421Y-71.409I-1.064J-1.058
N33170G1X-17.855Y-76.693
N33180G1X-19.004Y-75.729
N33190G1X-14.570Y-70.445
N33200G3X-14.862Y-68.249I-1.149J0.964
N33210G3X-15.261Y-67.977I-15.138J-21.751
N33220G1X-16.960Y-66.930
N33230G1X-18.732Y-66.015
N33240G1X-18.741Y-66.011
N33250G3X-20.779Y-66.860I-0.629J-1.362
N33260G1X-23.139Y-73.342
N33270G1X-24.548Y-72.829
N33280G1X-22.189Y-66.347
N33290G3X-23.214Y-64.383I-1.410J0.513
N33300G1Z-1.200F30.0
N33310G3X-27.615Y-63.608I-6.786J-25.617F180.0
N33320G3X-29.250Y-65.101I-0.135J-1.494
N33330G1Y-72.000
N33340G1X-30.750
N33350G1Y-65.101
N33360G3X-32.385Y-63.608I-1.500J0.000
N33370G3X-36.786Y-64.383I2.385J-26.392
N33380G3X-37.811Y-66.347I0.384J-1.450
N33390G1X-35.452Y-72.829
N33400G1X-36.861Y-73.342
N33410G1X-39.221Y-66.860
N33420G3X-41.268Y-66.015I-1.410J-0.513
N33430G3X-45.138Y-68.249I11.268J-23.985
N33440G3X-45.430Y-70.445I0.857J-1.231
N33450G1X-40.996Y-75.729
N33460G1X-42.145Y-76.693
N33470G1X-46.579Y-71.409
N33480G3X-48.792Y-71.315I-1.149J-0.964
N33490G3X-51.664Y-74.738I18.792J-18.685
N33500G3X-51.188Y-76.901I1.226J-0.864
N33510G1X-45.213Y-80.350
N33520G1X-45.963Y-81.650
N33530G1X-51.938Y-78.200
N33540G3X-54.049Y-78.869I-0.750J-1.299
N33550G3X-55.577Y-83.068I24.049J-11.131
N33560G3X-54.390Y-84.938I1.448J-0.392
N33570G1X-47.596Y-86.136
N33580G1X-47.857Y-87.613
N33590G1X-54.651Y-86.415
N33600G3X-56.406Y-87.766I-0.260J-1.477
N33610G1X-56.426Y-88.027
N33620G1X-56.500Y-90.026Z-1.200
N33630G1X-56.423Y-92.025
N33640G1X-56.406Y-92.234Z-1.200
N33650G3X-54.651Y-93.585I1.495J0.126
N33660G1X-47.857Y-92.387
N33670G1X-47.596Y-93.864
N33680G1X-54.390Y-95.062
N33690G3X-55.577Y-96.932I0.260J-1.477
N33700G3X-54.049Y-101.131I25.577J6.932
N33710G3X-51.938Y-101.800I1.361J0.630
N33720G1X-45.963Y-98.350
N33730G1X-45.213Y-99.650
N33740G1X-51.188Y-103.099
N33750G3X-51.664Y-105.262I0.750J-1.299
N33760G3X-48.792Y-108.685I21.664J15.262
N33770G3X-46.579Y-108.591I1.064J1.058
N33780G1X-42.145Y-103.307
N33790G1X-40.996Y-104.271
N33800G1X-45.430Y-109.555
N33810G3X-45.138Y-111.751I1.149J-0.964
N33820G3X-41.268Y-113.985I15.138J21.751
N33830G3X-39.221Y-113.140I0.638J1.358
N33840G1X-36.861Y-106.658
N33850G1X-35.452Y-107.171
N33860G1X-37.811Y-113.653
N33870G3X-36.786Y-115.617I1.410J-0.513
N33880G3X-32.385Y-116.392I6.786J25.617
N33890G3X-30.750Y-114.899I0.135J1.494
N33900G1Y-108.000
N33910G1X-29.250
N33920G1Y-114.899
N33930G3X-27.615Y-116.392I1.500J0.000
N33940G3X-23.214Y-115.617I-2.385J26.392
N33950G3X-22.189Y-113.653I-0.384J1.450
N33960G1X-24.548Y-107.171
N33970G1X-23.139Y-106.658
N33980G1X-20.779Y-113.140
N33990G3X-18.732Y-113.985I1.410J0.513
N34000G1X-18.538Y-113.893
N34010G1X-16.768Y-112.960Z-1.200
N34020G1X-15.074Y-111.897
N34030G1X-14.862Y-111.751Z-1.200
N34040G3X-14.570Y-109.555I-0.857J1.231
N34050G1X-19.004Y-104.271
N34060G1X-17.855Y-103.307
N34070G1X-13.421Y-108.591
N34080G3X-11.208Y-108.685I1.149J0.964
N34090G3X-8.336Y-105.262I-18.792J18.685
N34100G3X-8.812Y-103.099I-1.226J0.864
N34110G1X-14.787Y-99.650
N34120G1X-14.037Y-98.350
N34130G1X-8.062Y-101.800
N34140G3X-5.951Y-101.131I0.750J1.299
N34150G3X-4.423Y-96.932I-24.049J11.131
N34160G3X-5.610Y-95.062I-1.448J0.392
N34170G1X-12.404Y-93.864
N34180G1X-12.143Y-92.387
N34190G1X-5.349Y-93.585
N34200G3X-3.594Y-92.234I0.260J1.477
N34210G3Y-87.766I-26.406J2.234
N34220G3X-5.349Y-86.415I-1.495J-0.126
N34230G1X-12.143Y-87.613
N34240G1X-12.404Y-86.136
N34250G1X-5.610Y-84.938
N34260G3X-4.423Y-83.068I-0.260J1.477
N34270G3X-5.951Y-78.869I-25.577J-6.932
N34280G3X-8.062Y-78.200I-1.361J-0.630
N34290G1X-14.037Y-81.650
N34300G1X-14.787Y-80.350
N34310G1X-8.812Y-76.901
N34320G3X-8.336Y-74.738I-0.750J1.299
N34330G3X-11.208Y-71.315I-21.664J-15.262
N34340G3X-13.421Y-71.409I-1.064J-1.058
N34350G1X-17.855Y-76.693
N34360G1X-19.004Y-75.729
N34370G1X-14.570Y-70.445
N34380G3X-14.862Y-68.249I-1.149J0.964
N34390G3X-15.261Y-67.977I-15.138J-21.751
N34400G1X-16.960Y-66.930Z-1.200
N34410G1X-18.732Y-66.015
N34420G1X-18.741Y-66.011
N34430G3X-20.779Y-66.860I-0.629J-1.362
N34440G1X-23.139Y-73.342
N34450G1X-24.548Y-72.829
N34460G1X-22.189Y-66.347
N34470G3X-23.214Y-64.383I-1.410J0.513
N34480G1Z-1.300F30.0
N34490G3X-27.615Y-63.608I-6.786J-25.617F180.0
N34500G3X-29.250Y-65.101I-0.135J-1.494
N34510G1Y-72.000
N34520G1X-30.750
N34530G1Y-65.101
N34540G3X-32.385Y-63.608I-1.500J0.000
N34550G3X-36.786Y-64.383I2.385J-26.392
N34560G3X-37.811Y-66.347I0.384J-1.450
N34570G1X-35.452Y-72.829
N34580G1X-36.861Y-73.342
N34590G1X-39.221Y-66.860
N34600G3X-41.268Y-66.015I-1.410J-0.513
N34610G3X-45.138Y-68.249I11.268J-23.985
N34620G3X-45.430Y-70.445I0.857J-1.231
N34630G1X-40.996Y-75.729
N34640G1X-42.145Y-76.693
N34650G1X-46.579Y-71.409
N34660G3X-48.792Y-71.315I-1.149J-0.964
N34670G3X-51.664Y-74.738I18.792J-18.685
N34680G3X-51.188Y-76.901I1.226J-0.864
N34690G1X-45.213Y-80.350
N34700G1X-45.963Y-81.650
N34710G1X-51.938Y-78.200
N34720G3X-54.049Y-78.869I-0.750J-1.299
N34730G3X-55.577Y-83.068I24.049J-11.131
N34740G3X-54.390Y-84.938I1.448J-0.392
N34750G1X-47.596Y-86.136
